luts/amber_dystopia.cube
TITLE "Cinema Blade Runner 2049"
LUT_3D_SIZE 33
0.000000 0.000000 0.111950
0.000000 0.000000 0.110358
0.000000 0.000000 0.109565
0.031065 0.000000 0.108772
0.063702 0.000000 0.107979
0.096340 0.000000 0.107186
0.128977 0.000000 0.106393
0.161614 0.000000 0.105600
0.194251 0.000000 0.104807
0.226889 0.000000 0.104013
0.260188 0.000000 0.103204
0.294479 0.000000 0.102371
0.328771 0.000000 0.101538
0.363063 0.000000 0.100704
0.397354 0.000000 0.099871
0.431646 0.000000 0.099038
0.465938 0.000000 0.098204
0.500229 0.000000 0.097371
0.534521 0.000000 0.096538
0.568813 0.000000 0.095704
0.603104 0.000000 0.094871
0.635772 0.000000 0.094077
0.661942 0.000000 0.093441
0.688111 0.000000 0.092805
0.714281 0.000000 0.092169
0.740451 0.000000 0.091533
0.766621 0.000000 0.090897
0.792791 0.000000 0.090261
0.818961 0.000000 0.089625
0.845131 0.000000 0.088989
0.871301 0.000000 0.088353
0.897471 0.000000 0.087717
0.923641 0.000000 0.087081
0.000000 0.000000 0.106930
0.000000 0.000000 0.105428
0.001526 0.000000 0.104635
0.034164 0.000000 0.103841
0.066801 0.000000 0.103048
0.099438 0.000000 0.102255
0.132075 0.000000 0.101462
0.164713 0.000000 0.100669
0.197350 0.000000 0.099876
0.229987 0.000000 0.099083
0.263286 0.000000 0.098273
0.297578 0.000000 0.097440
0.331869 0.000000 0.096607
0.366161 0.000000 0.095773
0.400453 0.000000 0.094940
0.434744 0.000000 0.094107
0.469036 0.000000 0.093273
0.503328 0.000000 0.092440
0.537619 0.000000 0.091607
0.571911 0.000000 0.090773
0.606203 0.000000 0.089940
0.638870 0.000000 0.089146
0.665040 0.000000 0.088510
0.691210 0.000000 0.087874
0.717380 0.000000 0.087238
0.743550 0.000000 0.086602
0.769720 0.000000 0.085966
0.795890 0.000000 0.085330
0.822060 0.000000 0.084694
0.848230 0.000000 0.084059
0.874400 0.000000 0.083423
0.900570 0.000000 0.082787
0.926740 0.000000 0.082151
0.000000 0.000000 0.103590
0.000000 0.000000 0.102202
0.006355 0.000000 0.101434
0.039018 0.000000 0.100666
0.071680 0.000000 0.099899
0.104343 0.000000 0.099131
0.137006 0.000000 0.098363
0.169669 0.000000 0.097596
0.202331 0.000000 0.096828
0.234994 0.000000 0.096060
0.268319 0.000000 0.095277
0.302637 0.000000 0.094470
0.336956 0.000000 0.093664
0.371274 0.000000 0.092857
0.405593 0.000000 0.092051
0.439911 0.000000 0.091244
0.474229 0.000000 0.090437
0.508548 0.000333 0.089631
0.542866 0.001583 0.088824
0.577185 0.002833 0.088018
0.611503 0.004083 0.087211
0.644196 0.005274 0.086443
0.670386 0.006228 0.085827
0.696577 0.007182 0.085212
0.722767 0.008136 0.084596
0.748957 0.009090 0.083981
0.775148 0.010044 0.083365
0.801338 0.010998 0.082749
0.827528 0.011952 0.082134
0.853719 0.012906 0.081518
0.879909 0.013860 0.080903
0.906100 0.014814 0.080287
0.932290 0.015768 0.079672
0.000000 0.010409 0.101252
0.000000 0.011067 0.099952
0.012135 0.012256 0.099185
0.044798 0.013446 0.098417
0.077460 0.014636 0.097649
0.110123 0.015826 0.096882
0.142786 0.017015 0.096114
0.175449 0.018205 0.095346
0.208111 0.019395 0.094579
0.240774 0.020585 0.093811
0.274099 0.021798 0.093028
0.308417 0.023048 0.092221
0.342736 0.024298 0.091415
0.377054 0.025549 0.090608
0.411373 0.026799 0.089801
0.445691 0.028049 0.088995
0.480009 0.029299 0.088188
0.514328 0.030549 0.087382
0.548646 0.031799 0.086575
0.582965 0.033049 0.085768
0.617283 0.034299 0.084962
0.649976 0.035490 0.084193
0.676166 0.036444 0.083578
0.702357 0.037398 0.082962
0.728547 0.038352 0.082347
0.754737 0.039306 0.081731
0.780928 0.040260 0.081116
0.807118 0.041214 0.080500
0.833308 0.042168 0.079885
0.859499 0.043122 0.079269
0.885689 0.044075 0.078654
0.911880 0.045029 0.078038
0.938070 0.045983 0.077422
0.000000 0.040536 0.098914
0.000000 0.041283 0.097703
0.017915 0.042472 0.096935
0.050578 0.043662 0.096168
0.083240 0.044852 0.095400
0.115903 0.046041 0.094632
0.148566 0.047231 0.093865
0.181229 0.048421 0.093097
0.213891 0.049611 0.092329
0.246554 0.050800 0.091562
0.279879 0.052014 0.090778
0.314197 0.053264 0.089972
0.348516 0.054514 0.089165
0.382834 0.055764 0.088359
0.417153 0.057014 0.087552
0.451471 0.058265 0.086746
0.485789 0.059515 0.085939
0.520108 0.060765 0.085132
0.554426 0.062015 0.084326
0.588745 0.063265 0.083519
0.623063 0.064515 0.082713
0.655756 0.065706 0.081944
0.681946 0.066660 0.081329
0.708137 0.067614 0.080713
0.734327 0.068568 0.080098
0.760517 0.069521 0.079482
0.786708 0.070475 0.078866
0.812898 0.071429 0.078251
0.839088 0.072383 0.077635
0.865279 0.073337 0.077020
0.891469 0.074291 0.076404
0.917659 0.075245 0.075789
0.943850 0.076199 0.075173
0.000000 0.070663 0.096576
0.000000 0.071498 0.095454
0.023695 0.072688 0.094686
0.056358 0.073878 0.093918
0.089020 0.075068 0.093151
0.121683 0.076257 0.092383
0.154346 0.077447 0.091615
0.187009 0.078637 0.090848
0.219671 0.079827 0.090080
0.252334 0.081016 0.089312
0.285659 0.082230 0.088529
0.319977 0.083480 0.087723
0.354296 0.084730 0.086916
0.388614 0.085980 0.086109
0.422933 0.087230 0.085303
0.457251 0.088480 0.084496
0.491569 0.089730 0.083690
0.525888 0.090981 0.082883
0.560206 0.092231 0.082076
0.594525 0.093481 0.081270
0.628843 0.094731 0.080463
0.661536 0.095921 0.079695
0.687726 0.096875 0.079079
0.713917 0.097829 0.078464
0.740107 0.098783 0.077848
0.766297 0.099737 0.077233
0.792488 0.100691 0.076617
0.818678 0.101645 0.076002
0.844868 0.102599 0.075386
0.871059 0.103553 0.074771
0.897249 0.104507 0.074155
0.923439 0.105461 0.073539
0.949179 0.106403 0.072911
0.000000 0.100791 0.094238
0.000000 0.101714 0.093205
0.029475 0.102904 0.092437
0.062138 0.104094 0.091669
0.094800 0.105284 0.090902
0.127463 0.106473 0.090134
0.160126 0.107663 0.089366
0.192789 0.108853 0.088598
0.225451 0.110043 0.087831
0.258114 0.111232 0.087063
0.291439 0.112446 0.086280
0.325757 0.113696 0.085473
0.360076 0.114946 0.084667
0.394394 0.116196 0.083860
0.428713 0.117446 0.083054
0.463031 0.118696 0.082247
0.497349 0.119946 0.081440
0.531668 0.121196 0.080634
0.565986 0.122446 0.079827
0.600305 0.123697 0.079021
0.634623 0.124947 0.078214
0.667316 0.126137 0.077446
0.693506 0.127091 0.076830
0.719697 0.128045 0.076215
0.745887 0.128999 0.075599
0.772077 0.129953 0.074983
0.798268 0.130907 0.074368
0.824458 0.131861 0.073752
0.850648 0.132815 0.073137
0.876839 0.133769 0.072521
0.903029 0.134723 0.071906
0.929219 0.135677 0.071290
0.951812 0.136530 0.070573
0.000000 0.130918 0.091900
0.002592 0.131930 0.090955
0.035255 0.133120 0.090188
0.067918 0.134310 0.089420
0.100580 0.135500 0.088652
0.133243 0.136689 0.087885
0.165906 0.137879 0.087117
0.198569 0.139069 0.086349
0.231231 0.140258 0.085582
0.263894 0.141448 0.084814
0.297219 0.142662 0.084031
0.331537 0.143912 0.083224
0.365856 0.145162 0.082417
0.400174 0.146412 0.081611
0.434493 0.147662 0.080804
0.468811 0.148912 0.079998
0.503129 0.150162 0.079191
0.537448 0.151412 0.078385
0.571766 0.152662 0.077578
0.606085 0.153912 0.076771
0.640403 0.155162 0.075965
0.673096 0.156353 0.075196
0.699286 0.157307 0.074581
0.725477 0.158261 0.073965
0.751667 0.159215 0.073350
0.777857 0.160169 0.072734
0.804048 0.161123 0.072119
0.830238 0.162077 0.071503
0.856428 0.163031 0.070888
0.882619 0.163985 0.070272
0.908809 0.164939 0.069656
0.934999 0.165893 0.069041
0.954444 0.166657 0.068235
0.000000 0.161045 0.089562
0.008372 0.162146 0.088706
0.041035 0.163336 0.087938
0.073698 0.164526 0.087171
0.106360 0.165715 0.086403
0.139023 0.166905 0.085635
0.171686 0.168095 0.084868
0.204348 0.169285 0.084100
0.237011 0.170474 0.083332
0.269674 0.171664 0.082565
0.302999 0.172878 0.081781
0.337317 0.174128 0.080975
0.371636 0.175378 0.080168
0.405954 0.176628 0.079362
0.440273 0.177878 0.078555
0.474591 0.179128 0.077748
0.508909 0.180378 0.076942
0.543228 0.181628 0.076135
0.577546 0.182878 0.075329
0.611865 0.184128 0.074522
0.646183 0.185378 0.073715
0.678876 0.186569 0.072947
0.705066 0.187523 0.072332
0.731257 0.188477 0.071716
0.757447 0.189431 0.071100
0.783637 0.190385 0.070485
0.809828 0.191339 0.069869
0.836018 0.192293 0.069254
0.862208 0.193247 0.068638
0.888399 0.194201 0.068023
0.914589 0.195155 0.067407
0.940779 0.196109 0.066792
0.957077 0.196784 0.065897
0.000000 0.191172 0.087224
0.014152 0.192362 0.086457
0.046815 0.193552 0.085689
0.079478 0.194742 0.084921
0.112140 0.195931 0.084154
0.144803 0.197121 0.083386
0.177466 0.198311 0.082618
0.210128 0.199501 0.081851
0.242791 0.200690 0.081083
0.275454 0.201880 0.080315
0.308779 0.203094 0.079532
0.343097 0.204344 0.078726
0.377416 0.205594 0.077919
0.411734 0.206844 0.077112
0.446053 0.208094 0.076306
0.480371 0.209344 0.075499
0.514689 0.210594 0.074693
0.549008 0.211844 0.073886
0.583326 0.213094 0.073079
0.617645 0.214344 0.072273
0.651963 0.215594 0.071466
0.684656 0.216785 0.070698
0.710846 0.217739 0.070082
0.737037 0.218693 0.069467
0.763227 0.219647 0.068851
0.789417 0.220601 0.068236
0.815608 0.221555 0.067620
0.841798 0.222509 0.067005
0.867988 0.223463 0.066389
0.894179 0.224417 0.065773
0.920369 0.225371 0.065158
0.946559 0.226325 0.064542
0.959709 0.226912 0.063559
0.000000 0.221964 0.084932
0.020042 0.223154 0.084165
0.052705 0.224343 0.083397
0.085368 0.225533 0.082629
0.118030 0.226723 0.081862
0.150693 0.227913 0.081094
0.183356 0.229102 0.080326
0.216019 0.230292 0.079559
0.248681 0.231482 0.078791
0.281344 0.232671 0.078023
0.314669 0.233885 0.077240
0.348987 0.235135 0.076433
0.383306 0.236385 0.075627
0.417624 0.237635 0.074820
0.451943 0.238885 0.074014
0.486261 0.240136 0.073207
0.520579 0.241386 0.072400
0.554898 0.242636 0.071594
0.589216 0.243886 0.070787
0.623535 0.245136 0.069981
0.657853 0.246386 0.069174
0.690546 0.247577 0.068406
0.716736 0.248531 0.067790
0.742927 0.249485 0.067175
0.769117 0.250439 0.066559
0.795307 0.251393 0.065944
0.821498 0.252347 0.065328
0.847688 0.253300 0.064712
0.873878 0.254254 0.064097
0.900069 0.255208 0.063481
0.926259 0.256162 0.062866
0.952450 0.257116 0.062250
0.962392 0.257613 0.061177
0.000000 0.253619 0.082576
0.026098 0.254808 0.081808
0.058760 0.255998 0.081041
0.091423 0.257188 0.080273
0.124086 0.258378 0.079505
0.156748 0.259567 0.078738
0.189411 0.260757 0.077970
0.222074 0.261947 0.077202
0.254736 0.263136 0.076434
0.287399 0.264326 0.075667
0.320724 0.265540 0.074884
0.355043 0.266790 0.074077
0.389361 0.268040 0.073270
0.423679 0.269290 0.072464
0.457998 0.270540 0.071657
0.492316 0.271790 0.070851
0.526635 0.273040 0.070044
0.560953 0.274290 0.069237
0.595271 0.275540 0.068431
0.629590 0.276790 0.067624
0.663908 0.278041 0.066818
0.696601 0.279231 0.066049
0.722791 0.280185 0.065434
0.748982 0.281139 0.064818
0.775172 0.282093 0.064203
0.801363 0.283047 0.063587
0.827553 0.284001 0.062972
0.853743 0.284955 0.062356
0.879934 0.285909 0.061740
0.906124 0.286863 0.061125
0.932314 0.287817 0.060509
0.958505 0.288771 0.059894
0.965150 0.289174 0.058728
0.000000 0.285273 0.080219
0.032153 0.286463 0.079452
0.064816 0.287653 0.078684
0.097478 0.288843 0.077916
0.130141 0.290032 0.077149
0.162804 0.291222 0.076381
0.195466 0.292412 0.075613
0.228129 0.293602 0.074846
0.260792 0.294791 0.074078
0.293454 0.295981 0.073310
0.326779 0.297195 0.072527
0.361098 0.298445 0.071721
0.395416 0.299695 0.070914
0.429735 0.300945 0.070107
0.464053 0.302195 0.069301
0.498371 0.303445 0.068494
0.532690 0.304695 0.067688
0.567008 0.305945 0.066881
0.601327 0.307195 0.066075
0.635645 0.308445 0.065268
0.669964 0.309695 0.064461
0.702656 0.310886 0.063693
0.728847 0.311840 0.063077
0.755037 0.312794 0.062462
0.781227 0.313748 0.061846
0.807418 0.314702 0.061231
0.833608 0.315656 0.060615
0.859799 0.316610 0.060000
0.885989 0.317564 0.059384
0.912179 0.318518 0.058769
0.938370 0.319472 0.058153
0.964560 0.320426 0.057537
0.967908 0.320736 0.056278
0.005545 0.316928 0.077863
0.038208 0.318118 0.077095
0.070871 0.319308 0.076328
0.103533 0.320497 0.075560
0.136196 0.321687 0.074792
0.168859 0.322877 0.074025
0.201522 0.324067 0.073257
0.234184 0.325256 0.072489
0.266847 0.326446 0.071722
0.299510 0.327636 0.070954
0.332835 0.328850 0.070171
0.367153 0.330100 0.069364
0.401471 0.331350 0.068558
0.435790 0.332600 0.067751
0.470108 0.333850 0.066944
0.504427 0.335100 0.066138
0.538745 0.336350 0.065331
0.573064 0.337600 0.064525
0.607382 0.338850 0.063718
0.641700 0.340100 0.062912
0.676019 0.341350 0.062105
0.708712 0.342541 0.061337
0.734902 0.343495 0.060721
0.761092 0.344449 0.060105
0.787283 0.345403 0.059490
0.813473 0.346357 0.058874
0.839663 0.347311 0.058259
0.865854 0.348265 0.057643
0.892044 0.349219 0.057028
0.918234 0.350173 0.056412
0.944425 0.351127 0.055797
0.970615 0.352081 0.055181
0.970666 0.352298 0.053829
0.011601 0.348583 0.075507
0.044263 0.349773 0.074739
0.076926 0.350962 0.073971
0.109589 0.352152 0.073204
0.142251 0.353342 0.072436
0.174914 0.354532 0.071668
0.207577 0.355721 0.070901
0.240239 0.356911 0.070133
0.272902 0.358101 0.069365
0.305565 0.359291 0.068598
0.338890 0.360504 0.067814
0.373208 0.361754 0.067008
0.407527 0.363004 0.066201
0.441845 0.364255 0.065395
0.476163 0.365505 0.064588
0.510482 0.366755 0.063781
0.544800 0.368005 0.062975
0.579119 0.369255 0.062168
0.613437 0.370505 0.061362
0.647756 0.371755 0.060555
0.682074 0.373005 0.059749
0.714767 0.374196 0.058980
0.740957 0.375150 0.058365
0.767148 0.376104 0.057749
0.793338 0.377058 0.057134
0.819528 0.378012 0.056518
0.845719 0.378966 0.055902
0.871909 0.379920 0.055287
0.898099 0.380874 0.054671
0.924290 0.381828 0.054056
0.950480 0.382781 0.053440
0.973417 0.383644 0.052733
0.973427 0.383888 0.051503
0.017656 0.380238 0.073150
0.050319 0.381427 0.072383
0.082981 0.382617 0.071615
0.115644 0.383807 0.070847
0.148307 0.384997 0.070080
0.180969 0.386186 0.069312
0.213632 0.387376 0.068544
0.246295 0.388566 0.067777
0.278957 0.389756 0.067009
0.311620 0.390945 0.066241
0.344945 0.392159 0.065458
0.379263 0.393409 0.064651
0.413582 0.394659 0.063845
0.447900 0.395909 0.063038
0.482219 0.397159 0.062232
0.516537 0.398409 0.061425
0.550856 0.399659 0.060619
0.585174 0.400909 0.059812
0.619492 0.402160 0.059005
0.653811 0.403410 0.058199
0.688129 0.404660 0.057392
0.720822 0.405850 0.056624
0.747012 0.406804 0.056008
0.773203 0.407758 0.055393
0.799393 0.408712 0.054777
0.825583 0.409666 0.054162
0.851774 0.410620 0.053546
0.877964 0.411574 0.052930
0.904155 0.412528 0.052315
0.929968 0.413697 0.052703
0.955758 0.414879 0.053153
0.976265 0.415912 0.053453
0.976303 0.416368 0.053177
0.023711 0.411892 0.070794
0.056374 0.413082 0.070026
0.089036 0.414272 0.069259
0.121699 0.415462 0.068491
0.154362 0.416651 0.067723
0.187025 0.417841 0.066956
0.219687 0.419031 0.066188
0.252350 0.420221 0.065420
0.285013 0.421410 0.064653
0.317675 0.422600 0.063885
0.351000 0.423814 0.063102
0.385319 0.425064 0.062295
0.419637 0.426314 0.061488
0.453956 0.427564 0.060682
0.488274 0.428814 0.059875
0.522592 0.430064 0.059069
0.556911 0.431314 0.058262
0.591229 0.432564 0.057456
0.625548 0.433814 0.056649
0.659866 0.435064 0.055842
0.694184 0.436314 0.055036
0.726877 0.437505 0.054267
0.753068 0.438459 0.053652
0.779258 0.439413 0.053036
0.805448 0.440367 0.052421
0.831330 0.441497 0.052626
0.857121 0.442679 0.053075
0.882911 0.443860 0.053525
0.908702 0.445042 0.053974
0.934492 0.446224 0.054423
0.960282 0.447406 0.054873
0.979140 0.448392 0.055127
0.979178 0.448849 0.054851
0.029766 0.443547 0.068438
0.062429 0.444737 0.067670
0.095092 0.445927 0.066902
0.127754 0.447116 0.066135
0.160417 0.448306 0.065367
0.193080 0.449496 0.064599
0.225742 0.450686 0.063832
0.258405 0.451875 0.063064
0.291068 0.453065 0.062296
0.323731 0.454255 0.061529
0.357056 0.455469 0.060745
0.391374 0.456719 0.059939
0.425692 0.457969 0.059132
0.460011 0.459219 0.058326
0.494329 0.460469 0.057519
0.528648 0.461719 0.056712
0.562966 0.462969 0.055906
0.597284 0.464219 0.055099
0.631603 0.465469 0.054293
0.665921 0.466719 0.053486
0.700240 0.467969 0.052679
0.732693 0.469296 0.052549
0.758483 0.470478 0.052998
0.784274 0.471660 0.053447
0.810064 0.472842 0.053897
0.835855 0.474024 0.054346
0.861645 0.475206 0.054796
0.887435 0.476387 0.055245
0.913226 0.477569 0.055694
0.939016 0.478751 0.056144
0.964807 0.479933 0.056593
0.982016 0.480873 0.056801
0.982053 0.481329 0.056525
0.035821 0.475202 0.066081
0.068484 0.476392 0.065314
0.101147 0.477581 0.064546
0.133810 0.478771 0.063778
0.166472 0.479961 0.063011
0.199135 0.481151 0.062243
0.231798 0.482340 0.061475
0.264460 0.483530 0.060707
0.297123 0.484720 0.059940
0.329786 0.485910 0.059172
0.363111 0.487123 0.058389
0.397429 0.488373 0.057582
0.431748 0.489624 0.056776
0.466066 0.490874 0.055969
0.500384 0.492124 0.055163
0.534703 0.493374 0.054356
0.569021 0.494624 0.053549
0.603340 0.495874 0.052743
0.637435 0.497251 0.052530
0.671229 0.498800 0.053119
0.705024 0.500348 0.053708
0.737217 0.501823 0.054269
0.763007 0.503005 0.054718
0.788798 0.504187 0.055168
0.814588 0.505369 0.055617
0.840379 0.506551 0.056066
0.866169 0.507733 0.056516
0.891960 0.508914 0.056965
0.917750 0.510096 0.057415
0.943540 0.511278 0.057864
0.969331 0.512460 0.058313
0.984891 0.513353 0.058475
0.984929 0.513810 0.058198
0.041877 0.506857 0.063725
0.074539 0.508046 0.062957
0.107202 0.509236 0.062189
0.139865 0.510426 0.061422
0.172528 0.511616 0.060654
0.205190 0.512805 0.059886
0.237853 0.513995 0.059119
0.270516 0.515185 0.058351
0.303178 0.516375 0.057583
0.335841 0.517564 0.056816
0.369166 0.518778 0.056033
0.403484 0.520028 0.055226
0.437803 0.521278 0.054419
0.472121 0.522528 0.053613
0.506440 0.523778 0.052806
0.540576 0.525132 0.052484
0.574370 0.526681 0.053073
0.608165 0.528229 0.053662
0.641959 0.529778 0.054251
0.675753 0.531327 0.054839
0.709548 0.532875 0.055428
0.741741 0.534350 0.055989
0.767532 0.535532 0.056439
0.793322 0.536714 0.056888
0.819112 0.537896 0.057337
0.844903 0.539078 0.057787
0.870693 0.540260 0.058236
0.896484 0.541441 0.058685
0.922274 0.542623 0.059135
0.948064 0.543805 0.059584
0.973855 0.544987 0.060034
0.987767 0.545834 0.060148
0.987804 0.546290 0.059872
0.047932 0.538512 0.061368
0.080595 0.539701 0.060601
0.113257 0.540891 0.059833
0.145920 0.542081 0.059065
0.178583 0.543270 0.058298
0.211245 0.544460 0.057530
0.243908 0.545650 0.056762
0.276571 0.546840 0.055995
0.309234 0.548029 0.055227
0.341896 0.549219 0.054459
0.375221 0.550433 0.053676
0.409540 0.551683 0.052870
0.443717 0.553013 0.052438
0.477512 0.554562 0.053027
0.511306 0.556110 0.053615
0.545100 0.557659 0.054204
0.578895 0.559208 0.054793
0.612689 0.560756 0.055382
0.646483 0.562305 0.055971
0.680278 0.563854 0.056560
0.714072 0.565402 0.057149
0.746265 0.566877 0.057709
0.772056 0.568059 0.058159
0.797846 0.569241 0.058608
0.823637 0.570423 0.059058
0.849427 0.571605 0.059507
0.875217 0.572787 0.059956
0.901008 0.573968 0.060406
0.926798 0.575150 0.060855
0.952589 0.576332 0.061305
0.978379 0.577514 0.061754
0.990642 0.578315 0.061822
0.990680 0.578771 0.061546
0.053804 0.569207 0.059083
0.086466 0.570397 0.058316
0.119129 0.571587 0.057548
0.151792 0.572776 0.056780
0.184454 0.573966 0.056013
0.217117 0.575156 0.055245
0.249780 0.576345 0.054477
0.282443 0.577535 0.053710
0.315105 0.578725 0.052942
0.347700 0.579954 0.052356
0.380516 0.581457 0.052928
0.414310 0.583006 0.053517
0.448104 0.584555 0.054106
0.481899 0.586103 0.054695
0.515693 0.587652 0.055284
0.549487 0.589200 0.055872
0.583282 0.590749 0.056461
0.617076 0.592298 0.057050
0.650870 0.593846 0.057639
0.684665 0.595395 0.058228
0.718459 0.596943 0.058817
0.750652 0.598419 0.059378
0.776443 0.599601 0.059827
0.802233 0.600782 0.060276
0.828024 0.601964 0.060726
0.853814 0.603146 0.061175
0.879604 0.604328 0.061625
0.905395 0.605510 0.062074
0.931185 0.606691 0.062523
0.956976 0.607873 0.062973
0.982766 0.609055 0.063422
0.993430 0.609811 0.063445
0.993468 0.610267 0.063169
0.058941 0.596066 0.057084
0.091604 0.597255 0.056316
0.124267 0.598445 0.055549
0.156930 0.599635 0.054781
0.189592 0.600825 0.054013
0.222255 0.602014 0.053246
0.254918 0.603204 0.052478
0.287210 0.604604 0.052695
0.319374 0.606078 0.053256
0.351538 0.607552 0.053816
0.384354 0.609056 0.054388
0.418149 0.610605 0.054977
0.451943 0.612153 0.055566
0.485737 0.613702 0.056154
0.519532 0.615250 0.056743
0.553326 0.616799 0.057332
0.587120 0.618348 0.057921
0.620915 0.619896 0.058510
0.654709 0.621445 0.059099
0.688503 0.622993 0.059687
0.722298 0.624542 0.060276
0.754491 0.626017 0.060837
0.780281 0.627199 0.061287
0.806072 0.628381 0.061736
0.831862 0.629563 0.062185
0.857653 0.630745 0.062635
0.883443 0.631926 0.063084
0.909233 0.633108 0.063533
0.935024 0.634290 0.063983
0.960814 0.635472 0.064432
0.986605 0.636654 0.064882
0.995870 0.637370 0.064865
0.995908 0.637826 0.064589
0.064079 0.622924 0.055085
0.096742 0.624114 0.054317
0.129405 0.625304 0.053549
0.162067 0.626493 0.052782
0.194557 0.627781 0.052473
0.226721 0.629255 0.053034
0.258885 0.630729 0.053594
0.291049 0.632203 0.054155
0.323213 0.633677 0.054715
0.355377 0.635151 0.055276
0.388193 0.636655 0.055847
0.421987 0.638203 0.056436
0.455782 0.639752 0.057025
0.489576 0.641301 0.057614
0.523370 0.642849 0.058203
0.557165 0.644398 0.058792
0.590959 0.645946 0.059381
0.624753 0.647495 0.059969
0.658548 0.649044 0.060558
0.692342 0.650592 0.061147
0.726136 0.652141 0.061736
0.758330 0.653616 0.062297
0.784120 0.654798 0.062746
0.809911 0.655980 0.063196
0.835701 0.657161 0.063645
0.861491 0.658343 0.064094
0.887282 0.659525 0.064544
0.913072 0.660707 0.064993
0.938863 0.661889 0.065442
0.964653 0.663071 0.065892
0.990443 0.664252 0.066341
0.998310 0.664929 0.066286
0.998348 0.665386 0.066009
0.069217 0.649783 0.053085
0.101880 0.650973 0.052318
0.134068 0.652432 0.052812
0.166232 0.653906 0.053373
0.198396 0.655380 0.053933
0.230560 0.656854 0.054494
0.262724 0.658328 0.055054
0.294888 0.659802 0.055614
0.327052 0.661276 0.056175
0.359216 0.662750 0.056735
0.392032 0.664253 0.057307
0.425826 0.665802 0.057896
0.459620 0.667351 0.058485
0.493415 0.668899 0.059074
0.527209 0.670448 0.059662
0.561003 0.671996 0.060251
0.594798 0.673545 0.060840
0.628592 0.675094 0.061429
0.662386 0.676642 0.062018
0.696181 0.678191 0.062607
0.729975 0.679739 0.063195
0.762168 0.681215 0.063756
0.787959 0.682396 0.064206
0.813749 0.683578 0.064655
0.839540 0.684760 0.065105
0.865330 0.685942 0.065554
0.891120 0.687124 0.066003
0.916911 0.688306 0.066453
0.942701 0.689487 0.066902
0.968492 0.690669 0.067351
0.994282 0.691851 0.067801
1.000000 0.692489 0.067706
1.000000 0.692945 0.067430
0.073579 0.677083 0.053151
0.105743 0.678557 0.053711
0.137907 0.680031 0.054272
0.170071 0.681505 0.054832
0.202235 0.682979 0.055393
0.234399 0.684453 0.055953
0.266563 0.685927 0.056514
0.298726 0.687400 0.057074
0.330890 0.688874 0.057634
0.363054 0.690348 0.058195
0.395870 0.691852 0.058767
0.429665 0.693401 0.059356
0.463459 0.694949 0.059944
0.497253 0.696498 0.060533
0.531048 0.698046 0.061122
0.564842 0.699595 0.061711
0.598636 0.701144 0.062300
0.632431 0.702692 0.062889
0.666225 0.704241 0.063477
0.700019 0.705789 0.064066
0.733813 0.707338 0.064655
0.766007 0.708813 0.065216
0.791797 0.709995 0.065665
0.817588 0.711177 0.066115
0.843378 0.712359 0.066564
0.869169 0.713541 0.067014
0.894959 0.714722 0.067463
0.920749 0.715904 0.067912
0.946540 0.717086 0.068362
0.972330 0.718268 0.068811
0.998121 0.719450 0.069260
1.000000 0.720048 0.069126
1.000000 0.720504 0.068850
0.077418 0.704682 0.054611
0.109582 0.706156 0.055171
0.141746 0.707630 0.055731
0.173910 0.709104 0.056292
0.206073 0.710577 0.056852
0.238237 0.712051 0.057413
0.270401 0.713525 0.057973
0.302565 0.714999 0.058534
0.334729 0.716473 0.059094
0.366893 0.717947 0.059654
0.399709 0.719451 0.060226
0.433503 0.720999 0.060815
0.467298 0.722548 0.061404
0.501092 0.724096 0.061993
0.534886 0.725645 0.062582
0.568681 0.727194 0.063171
0.602475 0.728742 0.063759
0.636269 0.730291 0.064348
0.670064 0.731840 0.064937
0.703858 0.733388 0.065526
0.737652 0.734937 0.066115
0.769846 0.736412 0.066676
0.795636 0.737594 0.067125
0.821426 0.738776 0.067574
0.847217 0.739957 0.068024
0.873007 0.741139 0.068473
0.898798 0.742321 0.068923
0.924588 0.743503 0.069372
0.950378 0.744685 0.069821
