luts/amber_dystopia.cube
TITLE "Cinema Blade Runner 2049"
LUT_3D_SIZE 5
0.000000 0.000000 0.111950
0.194251 0.000000 0.104807
0.465938 0.000000 0.098204
0.714281 0.000000 0.092169
0.923641 0.000000 0.087081
0.000000 0.161045 0.089562
0.237011 0.170474 0.083332
0.508909 0.180378 0.076942
0.757447 0.189431 0.071100
0.957077 0.196784 0.065897
0.023711 0.411892 0.070794
0.285013 0.421410 0.064653
0.556911 0.431314 0.058262
0.805448 0.440367 0.052421
0.979178 0.448849 0.054851
0.069217 0.649783 0.053085
0.327052 0.661276 0.056175
0.594798 0.673545 0.060840
0.839540 0.684760 0.065105
1.000000 0.692945 0.067430
0.100450 0.870274 0.063368
0.357761 0.882065 0.067852
0.625507 0.894334 0.072517
0.870249 0.905549 0.076782
1.000000 0.913419 0.078791
0.000000 0.000000 0.363080
0.199712 0.000000 0.356022
0.471399 0.000000 0.349420
0.719742 0.000000 0.343385
0.929102 0.000000 0.338297
0.000000 0.164297 0.340765
0.242544 0.173811 0.334619
0.514442 0.183715 0.328229
0.762979 0.192768 0.322388
0.959596 0.200036 0.317099
0.029243 0.415229 0.322081
0.290545 0.424747 0.315940
0.562443 0.434651 0.309549
0.809674 0.444448 0.307188
0.981805 0.452940 0.309820
0.073874 0.653618 0.306703
0.331185 0.665409 0.311187
0.598931 0.677678 0.315852
0.843673 0.688894 0.320116
1.000000 0.697036 0.322399
0.104583 0.874407 0.318380
0.361894 0.886198 0.322863
0.629640 0.898468 0.327529
0.874382 0.909683 0.331793
1.000000 0.917510 0.333761
0.000000 0.000000 0.542460
0.203613 0.000000 0.535462
0.475299 0.000000 0.528860
0.723643 0.000000 0.522825
0.933003 0.000000 0.517737
0.000000 0.166676 0.520252
0.246495 0.176194 0.514110
0.518393 0.186098 0.507720
0.766931 0.195151 0.501878
0.961396 0.202359 0.496530
0.033195 0.417612 0.501572
0.294497 0.427130 0.495430
0.566395 0.437034 0.489040
0.812626 0.447401 0.489340
0.983682 0.455862 0.491941
0.076827 0.656571 0.488854
0.334138 0.668362 0.493338
0.601884 0.680631 0.498003
0.846626 0.691846 0.502268
1.000000 0.699958 0.504520
0.107536 0.877360 0.500531
0.364847 0.889151 0.505015
0.632593 0.901420 0.509680
0.877335 0.912635 0.513944
1.000000 0.920432 0.515882
0.000000 0.000000 0.714664
0.207358 0.000000 0.707724
0.479044 0.000000 0.701122
0.727388 0.000000 0.695087
0.936748 0.000000 0.689999
0.000000 0.168964 0.692563
0.250289 0.178482 0.686421
0.522187 0.188386 0.680031
0.770725 0.197439 0.674189
0.963124 0.204588 0.668783
0.036989 0.419900 0.673883
0.298290 0.429418 0.667742
0.570189 0.439322 0.661351
0.815460 0.450235 0.664205
0.985483 0.458667 0.666777
0.079661 0.659405 0.663719
0.336972 0.671196 0.668203
0.604718 0.683465 0.672868
0.849460 0.694681 0.677133
1.000000 0.702763 0.679356
0.110370 0.880194 0.675396
0.367681 0.891985 0.679880
0.635427 0.904255 0.684545
0.880169 0.915470 0.688810
1.000000 0.923237 0.690718
0.000000 0.000000 0.903012
0.211453 0.000000 0.896136
0.483140 0.000000 0.889534
0.731484 0.000000 0.883499
0.940843 0.000000 0.878411
0.000000 0.171467 0.881028
0.254438 0.180985 0.874887
0.526336 0.190888 0.868496
0.774874 0.199941 0.862655
0.965014 0.207027 0.857184
0.041138 0.422403 0.862348
0.302440 0.431921 0.856207
0.573819 0.442120 0.851199
0.818561 0.453335 0.855463
0.987454 0.461735 0.858004
0.082761 0.662505 0.854978
0.340072 0.674296 0.859462
0.607818 0.686566 0.864127
0.852560 0.697781 0.868392
1.000000 0.705832 0.870583
0.113470 0.883294 0.866655
0.370781 0.895085 0.871139
0.638527 0.907355 0.875804
0.883269 0.918570 0.880068
1.000000 0.926306 0.881945
