luts/amber_dystopia.cube
TITLE "Cinema Blade Runner 2049"
LUT_3D_SIZE 9
0.000000 0.000000 0.111950
0.063702 0.000000 0.107979
0.194251 0.000000 0.104807
0.328771 0.000000 0.101538
0.465938 0.000000 0.098204
0.603104 0.000000 0.094871
0.714281 0.000000 0.092169
0.818961 0.000000 0.089625
0.923641 0.000000 0.087081
0.000000 0.040536 0.098914
0.083240 0.044852 0.095400
0.213891 0.049611 0.092329
0.348516 0.054514 0.089165
0.485789 0.059515 0.085939
0.623063 0.064515 0.082713
0.734327 0.068568 0.080098
0.839088 0.072383 0.077635
0.943850 0.076199 0.075173
0.000000 0.161045 0.089562
0.106360 0.165715 0.086403
0.237011 0.170474 0.083332
0.371636 0.175378 0.080168
0.508909 0.180378 0.076942
0.646183 0.185378 0.073715
0.757447 0.189431 0.071100
0.862208 0.193247 0.068638
0.957077 0.196784 0.065897
0.000000 0.285273 0.080219
0.130141 0.290032 0.077149
0.260792 0.294791 0.074078
0.395416 0.299695 0.070914
0.532690 0.304695 0.067688
0.669964 0.309695 0.064461
0.781227 0.313748 0.061846
0.885989 0.317564 0.059384
0.967908 0.320736 0.056278
0.023711 0.411892 0.070794
0.154362 0.416651 0.067723
0.285013 0.421410 0.064653
0.419637 0.426314 0.061488
0.556911 0.431314 0.058262
0.694184 0.436314 0.055036
0.805448 0.440367 0.052421
0.908702 0.445042 0.053974
0.979178 0.448849 0.054851
0.047932 0.538512 0.061368
0.178583 0.543270 0.058298
0.309234 0.548029 0.055227
0.443717 0.553013 0.052438
0.578895 0.559208 0.054793
0.714072 0.565402 0.057149
0.823637 0.570423 0.059058
0.926798 0.575150 0.060855
0.990680 0.578771 0.061546
0.069217 0.649783 0.053085
0.198396 0.655380 0.053933
0.327052 0.661276 0.056175
0.459620 0.667351 0.058485
0.594798 0.673545 0.060840
0.729975 0.679739 0.063195
0.839540 0.684760 0.065105
0.942701 0.689487 0.066902
1.000000 0.692945 0.067430
0.085095 0.759879 0.057530
0.213751 0.765775 0.059772
0.342406 0.771670 0.062013
0.474975 0.777745 0.064323
0.610152 0.783940 0.066679
0.745329 0.790134 0.069034
0.854894 0.795155 0.070943
0.958056 0.799882 0.072741
1.000000 0.803182 0.073110
0.100450 0.870274 0.063368
0.229105 0.876169 0.065610
0.357761 0.882065 0.067852
0.490330 0.888140 0.070162
0.625507 0.894334 0.072517
0.760684 0.900529 0.074872
0.870249 0.905549 0.076782
0.973410 0.910277 0.078579
1.000000 0.913419 0.078791
0.000000 0.000000 0.237515
0.066433 0.000000 0.233587
0.196982 0.000000 0.230414
0.331501 0.000000 0.227145
0.468668 0.000000 0.223812
0.605835 0.000000 0.220479
0.717012 0.000000 0.217777
0.821692 0.000000 0.215233
0.926372 0.000000 0.212689
0.000000 0.042162 0.224515
0.086007 0.046520 0.221044
0.216657 0.051279 0.217973
0.351282 0.056183 0.214809
0.488556 0.061183 0.211582
0.625829 0.066183 0.208356
0.737093 0.070236 0.205741
0.841855 0.074052 0.203279
0.946616 0.077868 0.200817
0.000000 0.162671 0.215163
0.109127 0.167384 0.212047
0.239777 0.172143 0.208976
0.374402 0.177046 0.205812
0.511676 0.182047 0.202585
0.648949 0.187047 0.199359
0.760213 0.191099 0.196744
0.864975 0.194915 0.194282
0.958337 0.198410 0.191498
0.002256 0.286942 0.205863
0.132907 0.291701 0.202792
0.263558 0.296460 0.199722
0.398182 0.301363 0.196558
0.535456 0.306363 0.193331
0.672730 0.311364 0.190105
0.783994 0.315416 0.187490
0.888755 0.319232 0.185028
0.969168 0.322362 0.181879
0.026477 0.413561 0.196438
0.157128 0.418320 0.193367
0.287779 0.423079 0.190296
0.422403 0.427982 0.187132
0.559677 0.432982 0.183906
0.696951 0.437983 0.180679
0.807607 0.442382 0.179682
0.910768 0.447109 0.181480
0.980492 0.450894 0.182335
0.050698 0.540180 0.187012
0.181349 0.544939 0.183941
0.312000 0.549698 0.180871
0.445784 0.555080 0.179944
0.580961 0.561274 0.182299
0.716139 0.567469 0.184654
0.825703 0.572490 0.186563
0.928865 0.577217 0.188361
0.991993 0.580816 0.189031
0.071807 0.651551 0.179197
0.200463 0.657447 0.181439
0.329118 0.663342 0.183681
0.461687 0.669417 0.185991
0.596864 0.675612 0.188346
0.732042 0.681806 0.190701
0.841606 0.686827 0.192610
0.944768 0.691554 0.194408
1.000000 0.694990 0.194914
0.087162 0.761946 0.185036
0.215817 0.767841 0.187277
0.344473 0.773737 0.189519
0.477042 0.779812 0.191829
0.612219 0.786006 0.194184
0.747396 0.792201 0.196540
0.856961 0.797222 0.198449
0.960123 0.801949 0.200246
1.000000 0.805227 0.200595
0.102517 0.872341 0.190874
0.231172 0.878236 0.193116
0.359828 0.884132 0.195358
0.492396 0.890207 0.197668
0.627574 0.896401 0.200023
0.762751 0.902595 0.202378
0.872316 0.907616 0.204287
0.975477 0.912343 0.206085
1.000000 0.915464 0.206276
0.000000 0.000000 0.363080
0.069163 0.000000 0.359195
0.199712 0.000000 0.356022
0.334232 0.000000 0.352753
0.471399 0.000000 0.349420
0.608565 0.000000 0.346087
0.719742 0.000000 0.343385
0.824422 0.000000 0.340841
0.929102 0.000000 0.338297
0.000000 0.043788 0.350116
0.088773 0.048188 0.346687
0.219424 0.052947 0.343616
0.354048 0.057851 0.340452
0.491322 0.062851 0.337226
0.628595 0.067851 0.334000
0.739859 0.071904 0.331385
0.844621 0.075720 0.328922
0.949066 0.079527 0.326451
0.000000 0.164297 0.340765
0.111893 0.169052 0.337690
0.242544 0.173811 0.334619
0.377168 0.178715 0.331455
0.514442 0.183715 0.328229
0.651715 0.188715 0.325003
0.762979 0.192768 0.322388
0.867741 0.196584 0.319925
0.959596 0.200036 0.317099
0.005023 0.288610 0.331507
0.135673 0.293369 0.328436
0.266324 0.298128 0.325365
0.400949 0.303032 0.322201
0.538222 0.308032 0.318975
0.675496 0.313032 0.315748
0.786760 0.317085 0.313133
0.891521 0.320901 0.310671
0.970428 0.323988 0.307480
0.029243 0.415229 0.322081
0.159894 0.419988 0.319010
0.290545 0.424747 0.315940
0.425170 0.429651 0.312776
0.562443 0.434651 0.309549
0.699717 0.439651 0.306323
0.809674 0.444448 0.307188
0.912835 0.449176 0.308986
0.981805 0.452940 0.309820
0.053464 0.541848 0.312656
0.184115 0.546607 0.309585
0.314766 0.551366 0.306514
0.447851 0.557147 0.307449
0.583028 0.563341 0.309805
0.718205 0.569536 0.312160
0.827770 0.574556 0.314069
0.930932 0.579284 0.315867
0.993307 0.582862 0.316515
0.073874 0.653618 0.306703
0.202530 0.659514 0.308945
0.331185 0.665409 0.311187
0.463754 0.671484 0.313496
0.598931 0.677678 0.315852
0.734108 0.683873 0.318207
0.843673 0.688894 0.320116
0.946835 0.693621 0.321914
1.000000 0.697036 0.322399
0.089229 0.764013 0.312542
0.217884 0.769908 0.314783
0.346540 0.775804 0.317025
0.479108 0.781879 0.319335
0.614286 0.788073 0.321690
0.749463 0.794268 0.324046
0.859028 0.799288 0.325955
0.962189 0.804016 0.327752
1.000000 0.807273 0.328080
0.104583 0.874407 0.318380
0.233239 0.880303 0.320622
0.361894 0.886198 0.322863
0.494463 0.892273 0.325173
0.629640 0.898468 0.327529
0.764818 0.904662 0.329884
0.874382 0.909683 0.331793
0.977544 0.914410 0.333591
1.000000 0.917510 0.333761
0.000000 0.000000 0.461739
0.071309 0.000000 0.457887
0.201858 0.000000 0.454714
0.336377 0.000000 0.451445
0.473544 0.000000 0.448112
0.610711 0.000000 0.444778
0.721888 0.000000 0.442077
0.826568 0.000000 0.439533
0.931247 0.000000 0.436989
0.000000 0.045065 0.448803
0.090946 0.049499 0.445407
0.221597 0.054258 0.442336
0.356222 0.059162 0.439172
0.493495 0.064162 0.435946
0.630769 0.069162 0.432720
0.742033 0.073215 0.430105
0.846794 0.077031 0.427642
0.950056 0.080805 0.425138
0.000000 0.165604 0.439481
0.114066 0.170363 0.436410
0.244717 0.175122 0.433339
0.379342 0.180025 0.430175
0.516615 0.185026 0.426949
0.653889 0.190026 0.423722
0.765153 0.194079 0.421107
0.869914 0.197894 0.418645
0.960586 0.201313 0.415786
0.007196 0.289921 0.430226
0.137847 0.294680 0.427156
0.268498 0.299439 0.424085
0.403122 0.304342 0.420921
0.540396 0.309343 0.417695
0.677669 0.314343 0.414468
0.788933 0.318395 0.411853
0.893695 0.322211 0.409391
0.971417 0.325266 0.406167
0.031417 0.416540 0.420801
0.162068 0.421299 0.417730
0.292718 0.426058 0.414660
0.427343 0.430961 0.411495
0.564617 0.435962 0.408269
0.701733 0.441052 0.405462
0.811297 0.446072 0.407371
0.914459 0.450800 0.409169
0.982837 0.454547 0.409987
0.055638 0.543159 0.411375
0.186289 0.547918 0.408305
0.316906 0.552696 0.405323
0.449475 0.558771 0.407633
0.584652 0.564965 0.409988
0.719829 0.571159 0.412343
0.829394 0.576180 0.414253
0.932556 0.580908 0.416050
0.994339 0.584469 0.416682
0.075498 0.655242 0.406886
0.204153 0.661137 0.409128
0.332809 0.667033 0.411370
0.465378 0.673108 0.413680
0.600555 0.679302 0.416035
0.735732 0.685497 0.418390
0.845297 0.690518 0.420299
0.948459 0.695245 0.422097
1.000000 0.698643 0.422565
0.090853 0.765637 0.412725
0.219508 0.771532 0.414966
0.348164 0.777428 0.417208
0.480732 0.783503 0.419518
0.615910 0.789697 0.421873
0.751087 0.795891 0.424229
0.860652 0.800912 0.426138
0.963813 0.805639 0.427935
1.000000 0.808880 0.428246
0.106207 0.876031 0.418563
0.234863 0.881927 0.420805
0.363518 0.887822 0.423047
0.496087 0.893897 0.425357
0.631264 0.900092 0.427712
0.766441 0.906286 0.430067
0.876006 0.911307 0.431976
0.979168 0.916034 0.433774
1.000000 0.919117 0.433927
0.000000 0.000000 0.542460
0.073064 0.000000 0.538634
0.203613 0.000000 0.535462
0.338133 0.000000 0.532193
0.475299 0.000000 0.528860
0.612466 0.000000 0.525526
0.723643 0.000000 0.522825
0.828323 0.000000 0.520281
0.933003 0.000000 0.517737
0.000000 0.046111 0.529547
0.092725 0.050572 0.526178
0.223375 0.055331 0.523107
0.358000 0.060234 0.519943
0.495273 0.065234 0.516717
0.632547 0.070235 0.513490
0.743811 0.074287 0.510875
0.848572 0.078103 0.508413
0.950866 0.081850 0.505881
0.000000 0.166676 0.520252
0.115844 0.171435 0.517181
0.246495 0.176194 0.514110
0.381120 0.181098 0.510946
0.518393 0.186098 0.507720
0.655667 0.191098 0.504493
0.766931 0.195151 0.501878
0.871692 0.198967 0.499416
0.961396 0.202359 0.496530
0.008974 0.290993 0.510997
0.139625 0.295752 0.507927
0.270276 0.300511 0.504856
0.404900 0.305415 0.501692
0.542174 0.310415 0.498466
0.679448 0.315415 0.495239
0.790712 0.319468 0.492624
0.895473 0.323284 0.490162
0.972227 0.326311 0.486911
0.033195 0.417612 0.501572
0.163846 0.422371 0.498501
0.294497 0.427130 0.495430
0.429121 0.432034 0.492266
0.566395 0.437034 0.489040
0.703061 0.442380 0.487430
0.812626 0.447401 0.489340
0.915788 0.452128 0.491137
0.983682 0.455862 0.491941
0.057416 0.544231 0.492146
0.188067 0.548990 0.489076
0.318235 0.554024 0.487291
0.450803 0.560099 0.489601
0.585981 0.566294 0.491956
0.721158 0.572488 0.494311
0.830723 0.577509 0.496221
0.933884 0.582236 0.498018
0.995184 0.585784 0.498636
0.076827 0.656571 0.488854
0.205482 0.662466 0.491096
0.334138 0.668362 0.493338
0.466706 0.674437 0.495648
0.601884 0.680631 0.498003
0.737061 0.686825 0.500358
0.846626 0.691846 0.502268
0.949787 0.696573 0.504065
1.000000 0.699958 0.504520
0.092181 0.766965 0.494693
0.220837 0.772861 0.496935
0.349492 0.778756 0.499176
0.482061 0.784831 0.501486
0.617238 0.791026 0.503842
0.752415 0.797220 0.506197
0.861980 0.802241 0.508106
0.965142 0.806968 0.509904
1.000000 0.810195 0.510201
0.107536 0.877360 0.500531
0.236191 0.883255 0.502773
0.364847 0.889151 0.505015
0.497416 0.895226 0.507325
0.632593 0.901420 0.509680
0.767770 0.907615 0.512035
0.877335 0.912635 0.513944
0.980496 0.917363 0.515742
1.000000 0.920432 0.515882
0.000000 0.000000 0.623180
0.074819 0.000000 0.619382
0.205368 0.000000 0.616210
0.339888 0.000000 0.612941
0.477055 0.000000 0.609608
0.614221 0.000000 0.606274
0.725398 0.000000 0.603572
0.830078 0.000000 0.601029
0.934758 0.000000 0.598485
0.000000 0.047156 0.610290
0.094503 0.051644 0.606949
0.225154 0.056403 0.603878
0.359778 0.061307 0.600714
0.497052 0.066307 0.597488
0.634325 0.071307 0.594261
0.745589 0.075360 0.591646
0.850351 0.079176 0.589184
0.951676 0.082895 0.586625
0.000000 0.167749 0.601022
0.117623 0.172508 0.597952
0.248274 0.177267 0.594881
0.382898 0.182170 0.591717
0.520172 0.187171 0.588491
0.657445 0.192171 0.585264
0.768709 0.196224 0.582649
0.873471 0.200039 0.580187
0.962206 0.203404 0.577273
0.010752 0.292066 0.591768
0.141403 0.296825 0.588697
0.272054 0.301584 0.585627
0.406679 0.306487 0.582463
0.543952 0.311487 0.579236
0.681226 0.316488 0.576010
0.792490 0.320540 0.573395
0.897251 0.324356 0.570933
0.973037 0.327356 0.567654
0.034973 0.418685 0.582343
0.165624 0.423444 0.579272
0.296275 0.428203 0.576201
0.430899 0.433106 0.573037
0.568173 0.438107 0.569811
0.704390 0.443709 0.569398
0.813955 0.448730 0.571308
0.917116 0.453457 0.573105
0.984526 0.457177 0.573895
0.059194 0.545304 0.572917
0.189845 0.550063 0.569846
0.319563 0.555353 0.569259
0.452132 0.561428 0.571569
0.587309 0.567622 0.573924
0.722486 0.573817 0.576280
0.832051 0.578837 0.578189
0.935213 0.583565 0.579986
0.996028 0.587099 0.580591
0.078155 0.657899 0.570822
0.206811 0.663795 0.573064
0.335466 0.669690 0.575306
0.468035 0.675765 0.577616
0.603212 0.681960 0.579971
0.738389 0.688154 0.582327
0.847954 0.693175 0.584236
0.951116 0.697902 0.586033
1.000000 0.701273 0.586474
0.093510 0.768294 0.576661
0.222165 0.774189 0.578903
0.350821 0.780085 0.581144
0.483390 0.786160 0.583454
0.618567 0.792354 0.585810
0.753744 0.798549 0.588165
0.863309 0.803569 0.590074
0.966470 0.808297 0.591872
1.000000 0.811510 0.592155
0.108864 0.878688 0.582499
0.237520 0.884584 0.584741
0.366176 0.890480 0.586983
0.498744 0.896554 0.589293
0.633921 0.902749 0.591648
0.769099 0.908943 0.594003
0.878663 0.913964 0.595913
0.981825 0.918691 0.597710
1.000000 0.921747 0.597836
0.000000 0.000000 0.714664
0.076809 0.000000 0.710897
0.207358 0.000000 0.707724
0.341877 0.000000 0.704455
0.479044 0.000000 0.701122
0.616211 0.000000 0.697789
0.727388 0.000000 0.695087
0.832068 0.000000 0.692543
0.936748 0.000000 0.689999
0.000000 0.048340 0.701799
0.096518 0.052860 0.698489
0.227169 0.057619 0.695418
0.361793 0.062522 0.692254
0.499067 0.067522 0.689028
0.636341 0.072523 0.685802
0.747605 0.076575 0.683187
0.852366 0.080391 0.680724
0.952594 0.084079 0.678134
0.000000 0.168964 0.692563
0.119638 0.173723 0.689492
0.250289 0.178482 0.686421
0.384913 0.183386 0.683257
0.522187 0.188386 0.680031
0.659461 0.193386 0.676804
0.770725 0.197439 0.674189
0.875486 0.201255 0.671727
0.963124 0.204588 0.668783
0.012768 0.293281 0.683308
0.143419 0.298040 0.680238
0.274069 0.302799 0.677167
0.408694 0.307703 0.674003
0.545968 0.312703 0.670777
0.683241 0.317703 0.667550
0.794505 0.321756 0.664935
0.899267 0.325572 0.662473
0.973981 0.328745 0.660082
0.036989 0.419900 0.673883
0.167640 0.424659 0.670812
0.298290 0.429418 0.667742
0.432915 0.434322 0.664577
0.570189 0.439322 0.661351
0.705896 0.445215 0.662296
0.815460 0.450235 0.664205
0.918622 0.454963 0.666002
0.985483 0.458667 0.666777
0.061210 0.546519 0.664457
0.191860 0.551278 0.661387
0.321069 0.556859 0.662156
0.453638 0.562934 0.664466
0.588815 0.569128 0.666821
0.723992 0.575323 0.669177
0.833557 0.580343 0.671086
0.936719 0.585071 0.672883
0.996985 0.588589 0.673472
0.079661 0.659405 0.663719
0.208317 0.665301 0.665961
0.336972 0.671196 0.668203
0.469541 0.677271 0.670513
0.604718 0.683465 0.672868
0.739895 0.689660 0.675224
0.849460 0.694681 0.677133
0.952622 0.699408 0.678930
1.000000 0.702763 0.679356
0.095016 0.769800 0.669558
0.223671 0.775695 0.671800
0.352327 0.781591 0.674041
0.484895 0.787666 0.676351
0.620073 0.793860 0.678707
0.755250 0.800054 0.681062
0.864815 0.805075 0.682971
0.967976 0.809802 0.684769
1.000000 0.813000 0.685037
0.110370 0.880194 0.675396
0.239026 0.886090 0.677638
0.367681 0.891985 0.679880
0.500250 0.898060 0.682190
0.635427 0.904255 0.684545
0.770604 0.910449 0.686901
0.880169 0.915470 0.688810
0.983331 0.920197 0.690607
1.000000 0.923237 0.690718
0.000000 0.000000 0.808838
0.078857 0.000000 0.805103
0.209406 0.000000 0.801930
0.343925 0.000000 0.798661
0.481092 0.000000 0.795328
0.618259 0.000000 0.791994
0.729436 0.000000 0.789293
0.834116 0.000000 0.786749
0.938795 0.000000 0.784205
0.000000 0.049560 0.796000
0.098593 0.054111 0.792722
0.229244 0.058870 0.789651
0.363868 0.063773 0.786487
0.501142 0.068774 0.783261
0.638415 0.073774 0.780034
0.749679 0.077827 0.777419
0.854441 0.081642 0.774957
0.953539 0.085299 0.772335
0.000000 0.170216 0.786795
0.121713 0.174974 0.783725
0.252364 0.179733 0.780654
0.386988 0.184637 0.777490
0.524262 0.189637 0.774263
0.661535 0.194637 0.771037
0.772799 0.198690 0.768422
0.877561 0.202506 0.765960
0.964069 0.205808 0.762983
0.014843 0.294532 0.777541
0.145493 0.299291 0.774470
0.276144 0.304050 0.771400
0.410769 0.308954 0.768236
0.548042 0.313954 0.765009
0.685316 0.318954 0.761783
0.796580 0.323007 0.759168
0.901341 0.326823 0.756706
0.974967 0.330279 0.755695
0.039063 0.421151 0.768116
0.169714 0.425910 0.765045
0.300365 0.430669 0.761974
0.434990 0.435573 0.758810
0.572263 0.440573 0.755584
0.707446 0.446765 0.757925
0.817010 0.451785 0.759834
0.920172 0.456513 0.761632
0.986468 0.460201 0.762391
0.063284 0.547771 0.758690
0.193935 0.552529 0.755619
0.322619 0.558409 0.757785
0.455188 0.564484 0.760095
0.590365 0.570678 0.762451
0.725542 0.576873 0.764806
0.835107 0.581893 0.766715
0.938269 0.586621 0.768513
0.997970 0.590124 0.769086
0.081211 0.660955 0.759349
0.209867 0.666851 0.761591
0.338522 0.672746 0.763832
0.471091 0.678821 0.766142
0.606268 0.685015 0.768498
0.741445 0.691210 0.770853
0.851010 0.696231 0.772762
0.954172 0.700958 0.774560
1.000000 0.704298 0.774969
0.096566 0.771350 0.765187
0.225221 0.777245 0.767429
0.353877 0.783141 0.769671
0.486445 0.789216 0.771981
0.621623 0.795410 0.774336
0.756800 0.801604 0.776692
0.866365 0.806625 0.778601
0.969526 0.811353 0.780398
1.000000 0.814535 0.780650
0.111920 0.881744 0.771026
0.240576 0.887640 0.773268
0.369231 0.893535 0.775509
0.501800 0.899610 0.777819
0.636977 0.905805 0.780175
0.772155 0.911999 0.782530
0.881719 0.917020 0.784439
0.984881 0.921747 0.786237
1.000000 0.924771 0.786331
0.000000 0.000000 0.903012
0.080904 0.000000 0.899308
0.211453 0.000000 0.896136
0.345973 0.000000 0.892867
0.483140 0.000000 0.889534
0.620306 0.000000 0.886200
0.731484 0.000000 0.883499
0.836163 0.000000 0.880955
0.940843 0.000000 0.878411
0.000000 0.050779 0.890201
0.100667 0.055362 0.886954
0.231318 0.060121 0.883884
0.365943 0.065025 0.880720
0.503216 0.070025 0.877493
0.640490 0.075025 0.874267
0.751754 0.079078 0.871652
0.856515 0.082894 0.869190
0.954484 0.086518 0.866536
0.000000 0.171467 0.881028
0.123787 0.176226 0.877957
0.254438 0.180985 0.874887
0.389063 0.185888 0.871722
0.526336 0.190888 0.868496
0.663610 0.195889 0.865270
0.774874 0.199941 0.862655
0.879635 0.203757 0.860193
0.965014 0.207027 0.857184
0.016917 0.295784 0.871774
0.147568 0.300543 0.868703
0.278219 0.305302 0.865632
0.412843 0.310205 0.862468
0.550117 0.315205 0.859242
0.687391 0.320206 0.856016
0.798654 0.324258 0.853401
0.903416 0.328074 0.850938
0.975952 0.331813 0.851309
0.041138 0.422403 0.862348
0.171789 0.427162 0.859278
0.302440 0.431921 0.856207
0.437064 0.436824 0.853043
0.573819 0.442120 0.851199
0.708996 0.448315 0.853554
0.818561 0.453335 0.855463
0.921722 0.458063 0.857261
0.987454 0.461735 0.858004
0.065359 0.549022 0.852923
0.195514 0.554063 0.851173
0.324169 0.559959 0.853415
0.456738 0.566034 0.855725
0.591915 0.572228 0.858080
0.727092 0.578423 0.860435
0.836657 0.583443 0.862345
0.939819 0.588171 0.864142
0.998956 0.591658 0.864699
0.082761 0.662505 0.854978
0.211417 0.668401 0.857220
0.340072 0.674296 0.859462
0.472641 0.680371 0.861772
0.607818 0.686566 0.864127
0.742995 0.692760 0.866482
0.852560 0.697781 0.868392
0.955722 0.702508 0.870189
1.000000 0.705832 0.870583
0.098116 0.772900 0.860817
0.226771 0.778795 0.863058
0.355427 0.784691 0.865300
0.487995 0.790766 0.867610
0.623173 0.796960 0.869966
0.758350 0.803155 0.872321
0.867915 0.808175 0.874230
0.971076 0.812903 0.876028
1.000000 0.816069 0.876264
0.113470 0.883294 0.866655
0.242126 0.889190 0.868897
0.370781 0.895085 0.871139
0.503350 0.901160 0.873449
0.638527 0.907355 0.875804
0.773705 0.913549 0.878159
0.883269 0.918570 0.880068
0.986431 0.923297 0.881866
1.000000 0.926306 0.881945
