luts/cinema_neutral.cube
TITLE "Camera Arri Alexa"
LUT_3D_SIZE 9
0.081882 0.058794 0.027355
0.162601 0.061290 0.030861
0.266159 0.064492 0.035360
0.369717 0.067694 0.039859
0.473275 0.070896 0.044357
0.576593 0.074091 0.048846
0.679912 0.077286 0.053334
0.775329 0.080236 0.057479
0.839143 0.082209 0.060251
0.086878 0.146425 0.039151
0.167597 0.148921 0.042658
0.271156 0.152123 0.047156
0.374714 0.155325 0.051655
0.478272 0.158527 0.056154
0.581590 0.161721 0.060642
0.684908 0.164916 0.065131
0.780325 0.167867 0.069276
0.844139 0.169840 0.072048
0.093288 0.258849 0.054285
0.174007 0.261345 0.057792
0.277565 0.264547 0.062290
0.381123 0.267749 0.066789
0.484681 0.270951 0.071288
0.588000 0.274146 0.075776
0.691318 0.277341 0.080265
0.786735 0.280291 0.084410
0.850549 0.282264 0.087182
0.099698 0.371274 0.069419
0.180417 0.373770 0.072926
0.283975 0.376972 0.077425
0.387533 0.380174 0.081923
0.491091 0.383376 0.086422
0.594409 0.386571 0.090910
0.697728 0.389765 0.095399
0.793145 0.392716 0.099544
0.856959 0.394689 0.102316
0.106108 0.483699 0.084553
0.186827 0.486194 0.088060
0.290385 0.489397 0.092559
0.393943 0.492599 0.097057
0.497501 0.495801 0.101556
0.600819 0.498995 0.106045
0.704439 0.502196 0.110243
0.800263 0.505155 0.113999
0.864349 0.507134 0.116510
0.112503 0.595863 0.099652
0.193222 0.598359 0.103159
0.296800 0.601561 0.107639
0.400799 0.604772 0.111714
0.504799 0.607983 0.115790
0.608557 0.611187 0.119856
0.712315 0.614391 0.123922
0.808139 0.617350 0.127678
0.872225 0.619328 0.130189
0.119614 0.708042 0.114065
0.200677 0.710545 0.117242
0.304676 0.713756 0.121318
0.408675 0.716967 0.125393
0.512675 0.720178 0.129469
0.616433 0.723382 0.133535
0.720192 0.726585 0.137601
0.816015 0.729544 0.141356
0.880102 0.731523 0.143868
0.126887 0.811657 0.126698
0.207951 0.814160 0.129875
0.311950 0.817371 0.133950
0.415949 0.820582 0.138026
0.519949 0.823793 0.142102
0.623707 0.826997 0.146168
0.727465 0.830201 0.150234
0.823289 0.833159 0.153989
0.887375 0.835138 0.156501
0.131752 0.880953 0.135147
0.212815 0.883456 0.138323
0.316815 0.886667 0.142399
0.420814 0.889879 0.146475
0.524813 0.893090 0.150550
0.628572 0.896293 0.154616
0.732330 0.899497 0.158683
0.828154 0.902456 0.162438
0.892240 0.904435 0.164949
0.082387 0.059643 0.107891
0.163106 0.062139 0.111398
0.266664 0.065341 0.115896
0.370222 0.068543 0.120395
0.473780 0.071745 0.124894
0.577099 0.074940 0.129382
0.680417 0.078134 0.133871
0.775834 0.081085 0.138016
0.839648 0.083058 0.140788
0.087383 0.147273 0.119687
0.168103 0.149769 0.123194
0.271661 0.152971 0.127693
0.375219 0.156174 0.132192
0.478777 0.159376 0.136690
0.582095 0.162570 0.141179
0.685413 0.165765 0.145667
0.780830 0.168715 0.149812
0.844644 0.170688 0.152584
0.093793 0.259698 0.134822
0.174512 0.262194 0.138328
0.278070 0.265396 0.142827
0.381628 0.268598 0.147326
0.485187 0.271800 0.151824
0.588505 0.274995 0.156313
0.691823 0.278190 0.160801
0.787240 0.281140 0.164946
0.851054 0.283113 0.167718
0.100203 0.372123 0.149956
0.180922 0.374619 0.153462
0.284480 0.377821 0.157961
0.388038 0.381023 0.162460
0.491596 0.384225 0.166959
0.594915 0.387420 0.171447
0.698233 0.390614 0.175935
0.793650 0.393565 0.180080
0.857464 0.395538 0.182853
0.106613 0.484547 0.165090
0.187332 0.487043 0.168596
0.290890 0.490245 0.173095
0.394448 0.493447 0.177594
0.498006 0.496650 0.182093
0.601324 0.499844 0.186581
0.705061 0.503047 0.190668
0.800885 0.506006 0.194423
0.864971 0.507985 0.196934
0.113008 0.596712 0.180189
0.193727 0.599207 0.183695
0.297422 0.602412 0.188063
0.401421 0.605623 0.192139
0.505421 0.608835 0.196214
0.609179 0.612038 0.200280
0.712937 0.615242 0.204347
0.808761 0.618201 0.208102
0.872847 0.620180 0.210613
0.120236 0.708893 0.194490
0.201299 0.711396 0.197666
0.305298 0.714607 0.201742
0.409297 0.717818 0.205818
0.513297 0.721029 0.209893
0.617055 0.724233 0.213959
0.720814 0.727437 0.218025
0.816638 0.730395 0.221781
0.880724 0.732374 0.224292
0.127509 0.812508 0.207122
0.208573 0.815011 0.210299
0.312572 0.818222 0.214375
0.416571 0.821433 0.218450
0.520571 0.824644 0.222526
0.624329 0.827848 0.226592
0.728087 0.831052 0.230658
0.823911 0.834010 0.234413
0.887997 0.835989 0.236925
0.132374 0.881805 0.215571
0.213437 0.884308 0.218748
0.317437 0.887519 0.222823
0.421436 0.890730 0.226899
0.525435 0.893941 0.230975
0.629194 0.897145 0.235041
0.732952 0.900348 0.239107
0.828776 0.903307 0.242862
0.892862 0.905286 0.245374
0.083052 0.060760 0.213860
0.163771 0.063256 0.217367
0.267329 0.066458 0.221866
0.370887 0.069660 0.226364
0.474445 0.072862 0.230863
0.577763 0.076057 0.235351
0.681081 0.079251 0.239840
0.776499 0.082202 0.243985
0.840313 0.084175 0.246757
0.088048 0.148390 0.225657
0.168767 0.150886 0.229163
0.272325 0.154088 0.233662
0.375883 0.157290 0.238161
0.479441 0.160492 0.242659
0.582759 0.163687 0.247148
0.686077 0.166882 0.251636
0.781495 0.169832 0.255781
0.845309 0.171805 0.258553
0.094458 0.260815 0.240791
0.175177 0.263311 0.244297
0.278735 0.266513 0.248796
0.382293 0.269715 0.253295
0.485851 0.272917 0.257794
0.589169 0.276112 0.262282
0.692487 0.279306 0.266770
0.787905 0.282257 0.270915
0.851719 0.284230 0.273688
0.100868 0.373240 0.255925
0.181587 0.375735 0.259431
0.285145 0.378938 0.263930
0.388703 0.382140 0.268429
0.492261 0.385342 0.272928
0.595579 0.388536 0.277416
0.698897 0.391731 0.281904
0.794315 0.394681 0.286049
0.858129 0.396655 0.288822
0.107277 0.485664 0.271059
0.187997 0.488160 0.274566
0.291555 0.491362 0.279064
0.395113 0.494564 0.283563
0.498671 0.497766 0.288062
0.602121 0.500964 0.292423
0.705880 0.504167 0.296489
0.801704 0.507126 0.300245
0.865790 0.509105 0.302756
0.113673 0.597828 0.286158
0.194392 0.600324 0.289665
0.298241 0.603532 0.293885
0.402240 0.606743 0.297960
0.506239 0.609955 0.302036
0.609998 0.613158 0.306102
0.713756 0.616362 0.310168
0.809580 0.619321 0.313923
0.873666 0.621300 0.316435
0.121054 0.710013 0.300311
0.202117 0.712516 0.303488
0.306117 0.715727 0.307563
0.410116 0.718938 0.311639
0.514115 0.722149 0.315715
0.617874 0.725353 0.319781
0.721632 0.728557 0.323847
0.817456 0.731515 0.327602
0.881542 0.733494 0.330114
0.128328 0.813628 0.312944
0.209391 0.816131 0.316121
0.313390 0.819342 0.320196
0.417390 0.822553 0.324272
0.521389 0.825764 0.328347
0.625148 0.828968 0.332414
0.728906 0.832172 0.336480
0.824730 0.835130 0.340235
0.888816 0.837109 0.342746
0.133193 0.882925 0.321393
0.214256 0.885428 0.324569
0.318255 0.888639 0.328645
0.422254 0.891850 0.332721
0.526254 0.895061 0.336796
0.630012 0.898265 0.340862
0.733771 0.901468 0.344928
0.829595 0.904427 0.348684
0.893681 0.906406 0.351195
0.083716 0.061877 0.319829
0.164435 0.064373 0.323336
0.267993 0.067575 0.327835
0.371552 0.070777 0.332333
0.475110 0.073979 0.336832
0.578428 0.077174 0.341320
0.681746 0.080368 0.345809
0.777163 0.083319 0.349954
0.840977 0.085292 0.352726
0.088712 0.149507 0.331626
0.169432 0.152003 0.335132
0.272990 0.155205 0.339631
0.376548 0.158407 0.344130
0.480106 0.161609 0.348629
0.583424 0.164804 0.353117
0.686742 0.167999 0.357605
0.782159 0.170949 0.361750
0.845974 0.172922 0.364523
0.095122 0.261932 0.346760
0.175842 0.264428 0.350266
0.279400 0.267630 0.354765
0.382958 0.270832 0.359264
0.486516 0.274034 0.363763
0.589834 0.277229 0.368251
0.693152 0.280423 0.372739
0.788569 0.283374 0.376884
0.852383 0.285347 0.379657
0.101532 0.374356 0.361894
0.182251 0.376852 0.365401
0.285809 0.380054 0.369899
0.389368 0.383256 0.374398
0.492926 0.386459 0.378897
0.596244 0.389653 0.383385
0.699562 0.392848 0.387873
0.794979 0.395798 0.392019
0.858793 0.397771 0.394791
0.107942 0.486781 0.377028
0.188661 0.489277 0.380535
0.292219 0.492479 0.385033
0.395777 0.495681 0.389532
0.499335 0.498883 0.394031
0.602940 0.502084 0.398245
0.706698 0.505287 0.402311
0.802522 0.508246 0.406066
0.866608 0.510225 0.408577
0.114337 0.598945 0.392127
0.195060 0.601441 0.395631
0.299059 0.604652 0.399706
0.403058 0.607863 0.403782
0.507058 0.611075 0.407857
0.610816 0.614278 0.411923
0.714574 0.617482 0.415990
0.810398 0.620441 0.419745
0.874484 0.622420 0.422256
0.121873 0.711133 0.406133
0.202936 0.713636 0.409309
0.306935 0.716847 0.413385
0.410934 0.720058 0.417461
0.514934 0.723269 0.421536
0.618692 0.726473 0.425602
0.722451 0.729677 0.429668
0.818275 0.732635 0.433424
0.882361 0.734614 0.435935
0.129146 0.814748 0.418765
0.210210 0.817251 0.421942
0.314209 0.820462 0.426018
0.418208 0.823673 0.430093
0.522208 0.826884 0.434169
0.625966 0.830088 0.438235
0.729724 0.833292 0.442301
0.825548 0.836250 0.446056
0.889634 0.838229 0.448568
0.134011 0.884045 0.427214
0.215074 0.886548 0.430391
0.319074 0.889759 0.434466
0.423073 0.892970 0.438542
0.527072 0.896181 0.442618
0.630831 0.899385 0.446684
0.734589 0.902588 0.450750
0.830413 0.905547 0.454505
0.894499 0.907526 0.457017
0.084381 0.062994 0.425798
0.165100 0.065489 0.429305
0.268658 0.068692 0.433804
0.372216 0.071894 0.438302
0.475774 0.075096 0.442801
0.579092 0.078290 0.447290
0.682410 0.081485 0.451778
0.777828 0.084435 0.455923
0.841642 0.086409 0.458695
0.089377 0.150624 0.437595
0.170096 0.153120 0.441101
0.273654 0.156322 0.445600
0.377212 0.159524 0.450099
0.480770 0.162726 0.454598
0.584088 0.165921 0.459086
0.687407 0.169115 0.463574
0.782824 0.172066 0.467719
0.846638 0.174039 0.470492
0.095787 0.263049 0.452729
0.176506 0.265545 0.456235
0.280064 0.268747 0.460734
0.383622 0.271949 0.465233
0.487180 0.275151 0.469732
0.590498 0.278345 0.474220
0.693816 0.281540 0.478708
0.789234 0.284490 0.482854
0.853048 0.286464 0.485626
0.102197 0.375473 0.467863
0.182916 0.377969 0.471370
0.286474 0.381171 0.475868
0.390032 0.384373 0.480367
0.493590 0.387575 0.484866
0.596908 0.390770 0.489354
0.700226 0.393965 0.493843
0.795644 0.396915 0.497988
0.859532 0.398890 0.500688
0.108607 0.487898 0.482997
0.189326 0.490394 0.486504
0.292884 0.493596 0.491002
0.396442 0.496798 0.495501
0.500000 0.500000 0.500000
0.603758 0.503204 0.504066
0.707517 0.506407 0.508132
0.803341 0.509366 0.511888
0.867427 0.511345 0.514399
0.115002 0.600062 0.498096
0.195878 0.602561 0.501452
0.299877 0.605772 0.505528
0.403877 0.608983 0.509603
0.507876 0.612195 0.513679
0.611635 0.615398 0.517745
0.715393 0.618602 0.521811
0.811217 0.621561 0.525566
0.875303 0.623540 0.528078
0.122691 0.712253 0.511954
0.203754 0.714756 0.515131
0.307754 0.717967 0.519206
0.411753 0.721178 0.523282
0.515752 0.724389 0.527358
0.619511 0.727593 0.531424
0.723269 0.730797 0.535490
0.819093 0.733755 0.539245
0.883179 0.735734 0.541757
0.129965 0.815868 0.524587
0.211028 0.818371 0.527764
0.315027 0.821582 0.531839
0.419027 0.824793 0.535915
0.523026 0.828004 0.539990
0.626785 0.831208 0.544057
0.730543 0.834412 0.548123
0.826367 0.837370 0.551878
0.890453 0.839349 0.554389
0.134830 0.885165 0.533036
0.215893 0.887668 0.536212
0.319892 0.890879 0.540288
0.423891 0.894090 0.544364
0.527891 0.897301 0.548439
0.631649 0.900505 0.552505
0.735408 0.903708 0.556571
0.831232 0.906667 0.560327
0.895318 0.908646 0.562838
0.085007 0.064047 0.525712
0.165727 0.066542 0.529219
0.269285 0.069745 0.533717
0.372843 0.072947 0.538216
0.476401 0.076149 0.542715
0.579719 0.079343 0.547203
0.683037 0.082538 0.551692
0.778454 0.085488 0.555837
0.842268 0.087462 0.558609
0.090004 0.151677 0.537508
0.170723 0.154173 0.541015
0.274281 0.157375 0.545514
0.377839 0.160577 0.550013
0.481397 0.163779 0.554511
0.584715 0.166974 0.559000
0.688033 0.170168 0.563488
0.783451 0.173119 0.567633
0.847265 0.175092 0.570405
0.096413 0.264102 0.552643
0.177133 0.266598 0.556149
0.280691 0.269800 0.560648
0.384249 0.273002 0.565147
0.487807 0.276204 0.569645
0.591125 0.279398 0.574134
0.694443 0.282593 0.578622
0.789860 0.285543 0.582767
0.853675 0.287517 0.585539
0.102823 0.376526 0.567777
0.183543 0.379022 0.571283
0.287101 0.382224 0.575782
0.390659 0.385426 0.580281
0.494217 0.388628 0.584780
0.597535 0.391823 0.589268
0.700853 0.395018 0.593756
0.796270 0.397968 0.597901
0.860304 0.399946 0.600463
0.109233 0.488951 0.582911
0.189953 0.491447 0.586417
0.293511 0.494649 0.590916
0.397069 0.497851 0.595415
0.500772 0.501056 0.599775
0.604530 0.504260 0.603841
0.708289 0.507463 0.607907
0.804112 0.510422 0.611662
0.868199 0.512401 0.614174
0.115628 0.601115 0.598010
0.196650 0.603617 0.601227
0.300649 0.606828 0.605302
0.404649 0.610039 0.609378
0.508648 0.613251 0.613453
0.612406 0.616454 0.617520
0.716165 0.619658 0.621586
0.811989 0.622617 0.625341
0.876075 0.624596 0.627852
0.123463 0.713309 0.611729
0.204526 0.715812 0.614905
0.308525 0.719023 0.618981
0.412525 0.722234 0.623057
0.516524 0.725445 0.627132
0.620282 0.728649 0.631198
0.724041 0.731853 0.635265
0.819865 0.734811 0.639020
0.883951 0.736790 0.641531
0.130737 0.816924 0.624361
0.211800 0.819427 0.627538
0.315799 0.822638 0.631614
0.419799 0.825849 0.635689
0.523798 0.829060 0.639765
0.627556 0.832264 0.643831
0.731315 0.835468 0.647897
0.827139 0.838426 0.651653
0.891225 0.840405 0.654164
0.135601 0.886221 0.632810
0.216665 0.888724 0.635987
0.320664 0.891935 0.640062
0.424663 0.895146 0.644138
0.528663 0.898357 0.648214
0.632421 0.901561 0.652280
0.736179 0.904764 0.656346
0.832003 0.907723 0.660101
0.896089 0.909702 0.662613
0.085634 0.065100 0.625626
0.166353 0.067595 0.629132
0.269911 0.070798 0.633631
0.373469 0.074000 0.638130
0.477027 0.077202 0.642629
0.580345 0.080396 0.647117
0.683664 0.083591 0.651605
0.779081 0.086541 0.655750
0.842895 0.088515 0.658523
0.090630 0.152730 0.637422
0.171349 0.155226 0.640929
0.274907 0.158428 0.645428
0.378466 0.161630 0.649926
0.482024 0.164832 0.654425
0.585342 0.168027 0.658913
0.688660 0.171221 0.663402
0.784077 0.174172 0.667547
0.847891 0.176145 0.670319
0.097040 0.265155 0.652556
0.177759 0.267651 0.656063
0.281317 0.270853 0.660562
0.384875 0.274055 0.665060
0.488433 0.277257 0.669559
0.591752 0.280451 0.674048
0.695070 0.283646 0.678536
0.790487 0.286596 0.682681
0.854301 0.288570 0.685453
0.103450 0.377579 0.667690
0.184169 0.380075 0.671197
0.287727 0.383277 0.675696
0.391285 0.386479 0.680195
0.494843 0.389681 0.684693
0.598161 0.392876 0.689182
0.701480 0.396071 0.693670
0.796990 0.399023 0.697726
0.861076 0.401002 0.700238
0.109860 0.490004 0.682825
0.190579 0.492500 0.686331
0.294137 0.495702 0.690830
0.397695 0.498904 0.695329
0.501543 0.502112 0.699549
0.605302 0.505316 0.703615
0.709060 0.508519 0.707681
0.804884 0.511478 0.711437
0.868970 0.513457 0.713948
0.116358 0.602170 0.697824
0.197422 0.604673 0.701001
0.301421 0.607884 0.705077
0.405420 0.611095 0.709152
0.509420 0.614307 0.713228
0.613178 0.617510 0.717294
0.716936 0.620714 0.721360
0.812760 0.623673 0.725115
0.876846 0.625652 0.727627
0.124234 0.714365 0.711503
0.205298 0.716868 0.714680
0.309297 0.720079 0.718756
0.413296 0.723290 0.722831
0.517296 0.726501 0.726907
0.621054 0.729705 0.730973
0.724813 0.732909 0.735039
0.820636 0.735867 0.738794
0.884723 0.737846 0.741306
0.131508 0.817980 0.724136
0.212572 0.820483 0.727313
0.316571 0.823694 0.731388
0.420570 0.826905 0.735464
0.524570 0.830116 0.739540
0.628328 0.833320 0.743606
0.732086 0.836524 0.747672
0.827910 0.839482 0.751427
0.891996 0.841461 0.753939
0.136373 0.887277 0.732585
0.217436 0.889779 0.735761
0.321436 0.892991 0.739837
0.425435 0.896202 0.743913
0.529434 0.899413 0.747988
0.633193 0.902617 0.752054
0.736951 0.905820 0.756121
0.832775 0.908779 0.759876
0.896861 0.910758 0.762387
0.086215 0.066076 0.718273
0.166934 0.068572 0.721780
0.270492 0.071774 0.726278
0.374050 0.074976 0.730777
0.477608 0.078178 0.735276
0.580926 0.081373 0.739764
0.684245 0.084567 0.744253
0.779662 0.087518 0.748398
0.843476 0.089491 0.751170
0.091211 0.153706 0.730069
0.171930 0.156202 0.733576
0.275489 0.159404 0.738075
0.379047 0.162606 0.742574
0.482605 0.165809 0.747072
0.585923 0.169003 0.751561
0.689241 0.172198 0.756049
0.784658 0.175148 0.760194
0.848472 0.177121 0.762966
0.097621 0.266131 0.745204
0.178340 0.268627 0.748710
0.281898 0.271829 0.753209
0.385456 0.275031 0.757708
0.489014 0.278233 0.762206
0.592333 0.281428 0.766695
0.695651 0.284623 0.771183
0.791068 0.287573 0.775328
0.854882 0.289546 0.778100
0.104031 0.378556 0.760338
0.184750 0.381052 0.763844
0.288308 0.384254 0.768343
0.391866 0.387456 0.772842
0.495424 0.390658 0.777341
0.598742 0.393852 0.781829
0.702061 0.397047 0.786317
0.797705 0.400002 0.790244
0.861791 0.401981 0.792756
0.110441 0.490980 0.775472
0.191160 0.493476 0.778978
0.294718 0.496678 0.783477
0.398276 0.499880 0.787976
0.502259 0.503091 0.792067
0.606017 0.506295 0.796134
0.709776 0.509499 0.800200
0.805600 0.512457 0.803955
0.869686 0.514436 0.806466
0.117074 0.603149 0.790343
0.198137 0.605652 0.793519
0.302137 0.608864 0.797595
0.406136 0.612075 0.801671
0.510135 0.615286 0.805746
0.613894 0.618490 0.809812
0.717652 0.621693 0.813878
0.813476 0.624652 0.817634
0.877562 0.626631 0.820145
0.124950 0.715344 0.804021
0.206013 0.717847 0.807198
0.310013 0.721058 0.811274
0.414012 0.724269 0.815349
0.518011 0.727480 0.819425
0.621770 0.730684 0.823491
0.725528 0.733888 0.827557
0.821352 0.736847 0.831313
0.885438 0.738825 0.833824
0.132224 0.818959 0.816654
0.213287 0.821462 0.819831
0.317286 0.824673 0.823907
0.421286 0.827884 0.827982
0.525285 0.831095 0.832058
0.629044 0.834299 0.836124
0.732802 0.837503 0.840190
0.828626 0.840462 0.843945
0.892712 0.842440 0.846457
0.137089 0.888256 0.825103
0.218152 0.890759 0.828280
0.322151 0.893970 0.832355
0.426150 0.897181 0.836431
0.530150 0.900392 0.840506
0.633908 0.903596 0.844573
0.737667 0.906800 0.848639
0.833491 0.909758 0.852394
0.897577 0.911737 0.854905
0.086614 0.066746 0.781854
0.167333 0.069242 0.785361
0.270891 0.072444 0.789860
0.374449 0.075646 0.794359
0.478007 0.078848 0.798857
0.581325 0.082043 0.803346
0.684643 0.085238 0.807834
0.780061 0.088188 0.811979
0.843875 0.090161 0.814751
0.091610 0.154377 0.793651
0.172329 0.156872 0.797158
0.275887 0.160075 0.801656
0.379445 0.163277 0.806155
0.483003 0.166479 0.810654
0.586321 0.169673 0.815142
0.689640 0.172868 0.819630
0.785057 0.175818 0.823776
0.848871 0.177792 0.826548
0.098020 0.266801 0.808785
0.178739 0.269297 0.812292
0.282297 0.272499 0.816790
0.385855 0.275701 0.821289
0.489413 0.278903 0.825788
0.592731 0.282098 0.830276
0.696049 0.285293 0.834765
0.791467 0.288243 0.838910
0.855281 0.290216 0.841682
0.104430 0.379226 0.823919
0.185149 0.381722 0.827426
0.288707 0.384924 0.831925
0.392265 0.388126 0.836423
0.495823 0.391328 0.840922
0.599141 0.394523 0.845410
0.702459 0.397717 0.849899
0.798196 0.400674 0.853737
0.862282 0.402653 0.856249
0.110840 0.491650 0.839053
0.191559 0.494146 0.842560
0.295117 0.497348 0.847059
0.398751 0.500552 0.851485
0.502750 0.503763 0.855560
0.606509 0.506967 0.859626
0.710267 0.510171 0.863693
0.806091 0.513129 0.867448
0.870177 0.515108 0.869959
0.117565 0.603821 0.853835
0.198628 0.606324 0.857012
0.302628 0.609536 0.861088
0.406627 0.612747 0.865163
0.510626 0.615958 0.869239
0.614385 0.619162 0.873305
0.718143 0.622365 0.877371
0.813967 0.625324 0.881127
0.878053 0.627303 0.883638
0.125441 0.716016 0.867514
0.206504 0.718519 0.870691
0.310504 0.721730 0.874767
0.414503 0.724941 0.878842
0.518502 0.728152 0.882918
0.622261 0.731356 0.886984
0.726019 0.734560 0.891050
0.821843 0.737519 0.894805
0.885929 0.739497 0.897317
0.132715 0.819631 0.880147
0.213778 0.822134 0.883324
0.317778 0.825345 0.887399
0.421777 0.828556 0.891475
0.525776 0.831767 0.895551
0.629535 0.834971 0.899617
0.733293 0.838175 0.903683
0.829117 0.841134 0.907438
0.893203 0.843112 0.909950
0.137580 0.888928 0.888596
0.218643 0.891431 0.891773
0.322642 0.894642 0.895848
0.426642 0.897853 0.899924
0.530641 0.901064 0.903999
0.634399 0.904268 0.908066
0.738158 0.907472 0.912132
0.833982 0.910430 0.915887
0.898068 0.912409 0.918398
