luts/cinema_neutral.cube
TITLE "Camera Arri Alexa"
LUT_3D_SIZE 33
0.081882 0.058794 0.027355
0.101824 0.059411 0.028221
0.121766 0.060027 0.029087
0.141708 0.060644 0.029954
0.162601 0.061290 0.030861
0.188491 0.062091 0.031986
0.214380 0.062891 0.033111
0.240270 0.063692 0.034235
0.266159 0.064492 0.035360
0.292049 0.065293 0.036485
0.317938 0.066093 0.037609
0.343828 0.066894 0.038734
0.369717 0.067694 0.039859
0.395607 0.068495 0.040983
0.421496 0.069295 0.042108
0.447386 0.070096 0.043233
0.473275 0.070896 0.044357
0.499105 0.071695 0.045480
0.524934 0.072494 0.046602
0.550764 0.073292 0.047724
0.576593 0.074091 0.048846
0.602423 0.074890 0.049968
0.628253 0.075688 0.051090
0.654082 0.076487 0.052212
0.679912 0.077286 0.053334
0.705741 0.078084 0.054456
0.731571 0.078883 0.055578
0.757400 0.079682 0.056700
0.775329 0.080236 0.057479
0.791282 0.080729 0.058172
0.807236 0.081223 0.058865
0.823190 0.081716 0.059558
0.839143 0.082209 0.060251
0.083116 0.080444 0.030269
0.103058 0.081060 0.031135
0.123000 0.081677 0.032002
0.142942 0.082293 0.032868
0.163836 0.082939 0.033775
0.189725 0.083740 0.034900
0.215615 0.084541 0.036025
0.241504 0.085341 0.037150
0.267394 0.086142 0.038274
0.293283 0.086942 0.039399
0.319173 0.087743 0.040524
0.345062 0.088543 0.041648
0.370952 0.089344 0.042773
0.396841 0.090144 0.043898
0.422731 0.090945 0.045022
0.448620 0.091745 0.046147
0.474510 0.092546 0.047272
0.500339 0.093344 0.048394
0.526169 0.094143 0.049516
0.551998 0.094942 0.050638
0.577828 0.095740 0.051760
0.603657 0.096539 0.052882
0.629487 0.097338 0.054004
0.655316 0.098136 0.055126
0.681146 0.098935 0.056248
0.706975 0.099734 0.057371
0.732805 0.100532 0.058493
0.758635 0.101331 0.059615
0.776563 0.101885 0.060394
0.792517 0.102379 0.061087
0.808470 0.102872 0.061780
0.824424 0.103365 0.062473
0.840377 0.103859 0.063166
0.084351 0.102093 0.033183
0.104293 0.102710 0.034050
0.124234 0.103326 0.034916
0.144176 0.103943 0.035782
0.165070 0.104589 0.036690
0.190959 0.105389 0.037815
0.216849 0.106190 0.038939
0.242738 0.106990 0.040064
0.268628 0.107791 0.041189
0.294517 0.108591 0.042313
0.320407 0.109392 0.043438
0.346296 0.110192 0.044563
0.372186 0.110993 0.045687
0.398075 0.111794 0.046812
0.423965 0.112594 0.047937
0.449854 0.113395 0.049061
0.475744 0.114195 0.050186
0.501574 0.114994 0.051308
0.527403 0.115792 0.052430
0.553233 0.116591 0.053552
0.579062 0.117390 0.054674
0.604892 0.118188 0.055797
0.630721 0.118987 0.056919
0.656551 0.119786 0.058041
0.682380 0.120584 0.059163
0.708210 0.121383 0.060285
0.734039 0.122182 0.061407
0.759869 0.122980 0.062529
0.777798 0.123535 0.063308
0.793751 0.124028 0.064001
0.809705 0.124521 0.064694
0.825658 0.125015 0.065387
0.841612 0.125508 0.066080
0.085585 0.123742 0.036098
0.105527 0.124359 0.036964
0.125469 0.124976 0.037830
0.145411 0.125592 0.038697
0.166304 0.126238 0.039604
0.192194 0.127039 0.040729
0.218083 0.127839 0.041854
0.243973 0.128640 0.042978
0.269862 0.129440 0.044103
0.295752 0.130241 0.045228
0.321641 0.131041 0.046352
0.347531 0.131842 0.047477
0.373420 0.132642 0.048602
0.399310 0.133443 0.049726
0.425199 0.134243 0.050851
0.451089 0.135044 0.051976
0.476978 0.135844 0.053100
0.502808 0.136643 0.054223
0.528637 0.137442 0.055345
0.554467 0.138240 0.056467
0.580296 0.139039 0.057589
0.606126 0.139838 0.058711
0.631956 0.140636 0.059833
0.657785 0.141435 0.060955
0.683615 0.142234 0.062077
0.709444 0.143032 0.063199
0.735274 0.143831 0.064321
0.761103 0.144630 0.065443
0.779032 0.145184 0.066222
0.794985 0.145677 0.066915
0.810939 0.146171 0.067608
0.826893 0.146664 0.068301
0.842846 0.147157 0.068994
0.086878 0.146425 0.039151
0.106820 0.147041 0.040017
0.126762 0.147658 0.040884
0.146704 0.148275 0.041750
0.167597 0.148921 0.042658
0.193487 0.149721 0.043782
0.219377 0.150522 0.044907
0.245266 0.151322 0.046032
0.271156 0.152123 0.047156
0.297045 0.152923 0.048281
0.322935 0.153724 0.049406
0.348824 0.154524 0.050530
0.374714 0.155325 0.051655
0.400603 0.156125 0.052780
0.426493 0.156926 0.053904
0.452382 0.157726 0.055029
0.478272 0.158527 0.056154
0.504101 0.159325 0.057276
0.529931 0.160124 0.058398
0.555760 0.160923 0.059520
0.581590 0.161721 0.060642
0.607419 0.162520 0.061764
0.633249 0.163319 0.062886
0.659078 0.164117 0.064008
0.684908 0.164916 0.065131
0.710737 0.165715 0.066253
0.736567 0.166513 0.067375
0.762396 0.167312 0.068497
0.780325 0.167867 0.069276
0.796279 0.168360 0.069969
0.812232 0.168853 0.070662
0.828186 0.169346 0.071355
0.844139 0.169840 0.072048
0.088481 0.174531 0.042935
0.108423 0.175147 0.043801
0.128365 0.175764 0.044667
0.148306 0.176381 0.045533
0.169200 0.177027 0.046441
0.195089 0.177827 0.047566
0.220979 0.178628 0.048690
0.246868 0.179428 0.049815
0.272758 0.180229 0.050940
0.298647 0.181029 0.052065
0.324537 0.181830 0.053189
0.350427 0.182630 0.054314
0.376316 0.183431 0.055439
0.402206 0.184231 0.056563
0.428095 0.185032 0.057688
0.453985 0.185832 0.058813
0.479874 0.186633 0.059937
0.505704 0.187432 0.061059
0.531533 0.188230 0.062182
0.557363 0.189029 0.063304
0.583192 0.189828 0.064426
0.609022 0.190626 0.065548
0.634851 0.191425 0.066670
0.660681 0.192224 0.067792
0.686510 0.193022 0.068914
0.712340 0.193821 0.070036
0.738169 0.194620 0.071158
0.763999 0.195418 0.072280
0.781928 0.195973 0.073059
0.797881 0.196466 0.073752
0.813835 0.196959 0.074445
0.829788 0.197453 0.075138
0.845742 0.197946 0.075831
0.090083 0.202637 0.046718
0.110025 0.203254 0.047584
0.129967 0.203870 0.048451
0.149909 0.204487 0.049317
0.170802 0.205133 0.050225
0.196692 0.205933 0.051349
0.222581 0.206734 0.052474
0.248471 0.207534 0.053599
0.274360 0.208335 0.054723
0.300250 0.209136 0.055848
0.326139 0.209936 0.056973
0.352029 0.210737 0.058097
0.377918 0.211537 0.059222
0.403808 0.212338 0.060347
0.429697 0.213138 0.061472
0.455587 0.213939 0.062596
0.481477 0.214739 0.063721
0.507306 0.215538 0.064843
0.533136 0.216336 0.065965
0.558965 0.217135 0.067087
0.584795 0.217934 0.068209
0.610624 0.218732 0.069331
0.636454 0.219531 0.070453
0.662283 0.220330 0.071576
0.688113 0.221128 0.072698
0.713942 0.221927 0.073820
0.739772 0.222726 0.074942
0.765601 0.223524 0.076064
0.783530 0.224079 0.076843
0.799484 0.224572 0.077536
0.815437 0.225065 0.078229
0.831391 0.225559 0.078922
0.847344 0.226052 0.079615
0.091686 0.230743 0.050502
0.111628 0.231360 0.051368
0.131569 0.231976 0.052234
0.151511 0.232593 0.053101
0.172405 0.233239 0.054008
0.198294 0.234040 0.055133
0.224184 0.234840 0.056258
0.250073 0.235641 0.057382
0.275963 0.236441 0.058507
0.301852 0.237242 0.059632
0.327742 0.238042 0.060756
0.353631 0.238843 0.061881
0.379521 0.239643 0.063006
0.405410 0.240444 0.064130
0.431300 0.241244 0.065255
0.457189 0.242045 0.066380
0.483079 0.242845 0.067504
0.508909 0.243644 0.068627
0.534738 0.244443 0.069749
0.560568 0.245241 0.070871
0.586397 0.246040 0.071993
0.612227 0.246839 0.073115
0.638056 0.247637 0.074237
0.663886 0.248436 0.075359
0.689715 0.249235 0.076481
0.715545 0.250033 0.077603
0.741374 0.250832 0.078725
0.767204 0.251631 0.079847
0.785133 0.252185 0.080626
0.801086 0.252678 0.081319
0.817040 0.253172 0.082012
0.832993 0.253665 0.082705
0.848947 0.254158 0.083398
0.093288 0.258849 0.054285
0.113230 0.259466 0.055151
0.133172 0.260083 0.056018
0.153114 0.260699 0.056884
0.174007 0.261345 0.057792
0.199897 0.262146 0.058916
0.225786 0.262946 0.060041
0.251676 0.263747 0.061166
0.277565 0.264547 0.062290
0.303455 0.265348 0.063415
0.329344 0.266148 0.064540
0.355234 0.266949 0.065665
0.381123 0.267749 0.066789
0.407013 0.268550 0.067914
0.432902 0.269350 0.069039
0.458792 0.270151 0.070163
0.484681 0.270951 0.071288
0.510511 0.271750 0.072410
0.536341 0.272549 0.073532
0.562170 0.273347 0.074654
0.588000 0.274146 0.075776
0.613829 0.274945 0.076898
0.639659 0.275743 0.078020
0.665488 0.276542 0.079143
0.691318 0.277341 0.080265
0.717147 0.278139 0.081387
0.742977 0.278938 0.082509
0.768806 0.279737 0.083631
0.786735 0.280291 0.084410
0.802689 0.280784 0.085103
0.818642 0.281278 0.085796
0.834596 0.281771 0.086489
0.850549 0.282264 0.087182
0.094891 0.286955 0.058069
0.114832 0.287572 0.058935
0.134774 0.288189 0.059801
0.154716 0.288805 0.060668
0.175610 0.289451 0.061575
0.201499 0.290252 0.062700
0.227389 0.291052 0.063825
0.253278 0.291853 0.064949
0.279168 0.292653 0.066074
0.305057 0.293454 0.067199
0.330947 0.294254 0.068323
0.356836 0.295055 0.069448
0.382726 0.295856 0.070573
0.408615 0.296656 0.071697
0.434505 0.297457 0.072822
0.460394 0.298257 0.073947
0.486284 0.299058 0.075072
0.512113 0.299856 0.076194
0.537943 0.300655 0.077316
0.563773 0.301454 0.078438
0.589602 0.302252 0.079560
0.615432 0.303051 0.080682
0.641261 0.303850 0.081804
0.667091 0.304648 0.082926
0.692920 0.305447 0.084048
0.718750 0.306246 0.085170
0.744579 0.307044 0.086292
0.770409 0.307843 0.087414
0.788338 0.308397 0.088193
0.804291 0.308891 0.088886
0.820245 0.309384 0.089579
0.836198 0.309877 0.090272
0.852152 0.310370 0.090966
0.096493 0.315062 0.061852
0.116435 0.315678 0.062718
0.136377 0.316295 0.063585
0.156319 0.316911 0.064451
0.177212 0.317558 0.065359
0.203102 0.318358 0.066483
0.228991 0.319159 0.067608
0.254881 0.319959 0.068733
0.280770 0.320760 0.069858
0.306660 0.321560 0.070982
0.332549 0.322361 0.072107
0.358439 0.323161 0.073232
0.384328 0.323962 0.074356
0.410218 0.324762 0.075481
0.436107 0.325563 0.076606
0.461997 0.326363 0.077730
0.487886 0.327164 0.078855
0.513716 0.327962 0.079977
0.539545 0.328761 0.081099
0.565375 0.329560 0.082221
0.591205 0.330358 0.083343
0.617034 0.331157 0.084465
0.642864 0.331956 0.085588
0.668693 0.332754 0.086710
0.694523 0.333553 0.087832
0.720352 0.334352 0.088954
0.746182 0.335150 0.090076
0.772011 0.335949 0.091198
0.789940 0.336503 0.091977
0.805894 0.336997 0.092670
0.821847 0.337490 0.093363
0.837801 0.337983 0.094056
0.853754 0.338477 0.094749
0.098095 0.343168 0.065636
0.118037 0.343784 0.066502
0.137979 0.344401 0.067368
0.157921 0.345018 0.068235
0.178815 0.345664 0.069142
0.204704 0.346464 0.070267
0.230594 0.347265 0.071392
0.256483 0.348065 0.072516
0.282373 0.348866 0.073641
0.308262 0.349666 0.074766
0.334152 0.350467 0.075890
0.360041 0.351267 0.077015
0.385931 0.352068 0.078140
0.411820 0.352868 0.079264
0.437710 0.353669 0.080389
0.463599 0.354469 0.081514
0.489489 0.355270 0.082639
0.515318 0.356069 0.083761
0.541148 0.356867 0.084883
0.566977 0.357666 0.086005
0.592807 0.358465 0.087127
0.618637 0.359263 0.088249
0.644466 0.360062 0.089371
0.670296 0.360861 0.090493
0.696125 0.361659 0.091615
0.721955 0.362458 0.092737
0.747784 0.363257 0.093859
0.773614 0.364055 0.094981
0.791542 0.364610 0.095760
0.807496 0.365103 0.096453
0.823450 0.365596 0.097146
0.839403 0.366089 0.097840
0.855357 0.366583 0.098533
0.099698 0.371274 0.069419
0.119640 0.371891 0.070286
0.139582 0.372507 0.071152
0.159524 0.373124 0.072018
0.180417 0.373770 0.072926
0.206307 0.374570 0.074051
0.232196 0.375371 0.075175
0.258086 0.376171 0.076300
0.283975 0.376972 0.077425
0.309865 0.377772 0.078549
0.335754 0.378573 0.079674
0.361644 0.379373 0.080799
0.387533 0.380174 0.081923
0.413423 0.380975 0.083048
0.439312 0.381775 0.084173
0.465202 0.382576 0.085297
0.491091 0.383376 0.086422
0.516921 0.384175 0.087544
0.542750 0.384973 0.088666
0.568580 0.385772 0.089788
0.594409 0.386571 0.090910
0.620239 0.387369 0.092033
0.646069 0.388168 0.093155
0.671898 0.388967 0.094277
0.697728 0.389765 0.095399
0.723557 0.390564 0.096521
0.749387 0.391363 0.097643
0.775216 0.392161 0.098765
0.793145 0.392716 0.099544
0.809098 0.393209 0.100237
0.825052 0.393702 0.100930
0.841006 0.394196 0.101623
0.856959 0.394689 0.102316
0.101300 0.399380 0.073203
0.121242 0.399997 0.074069
0.141184 0.400613 0.074935
0.161126 0.401230 0.075802
0.182020 0.401876 0.076709
0.207909 0.402677 0.077834
0.233799 0.403477 0.078959
0.259688 0.404278 0.080083
0.285578 0.405078 0.081208
0.311467 0.405879 0.082333
0.337357 0.406679 0.083457
0.363246 0.407480 0.084582
0.389136 0.408280 0.085707
0.415025 0.409081 0.086832
0.440915 0.409881 0.087956
0.466804 0.410682 0.089081
0.492694 0.411482 0.090206
0.518523 0.412281 0.091328
0.544353 0.413080 0.092450
0.570182 0.413878 0.093572
0.596012 0.414677 0.094694
0.621841 0.415476 0.095816
0.647671 0.416274 0.096938
0.673501 0.417073 0.098060
0.699330 0.417872 0.099182
0.725160 0.418670 0.100304
0.750989 0.419469 0.101426
0.776819 0.420268 0.102549
0.794747 0.420822 0.103327
0.810701 0.421315 0.104020
0.826654 0.421809 0.104714
0.842608 0.422302 0.105407
0.858562 0.422795 0.106100
0.102903 0.427486 0.076986
0.122845 0.428103 0.077853
0.142787 0.428720 0.078719
0.162729 0.429336 0.079585
0.183622 0.429982 0.080493
0.209512 0.430783 0.081618
0.235401 0.431583 0.082742
0.261291 0.432384 0.083867
0.287180 0.433184 0.084992
0.313070 0.433985 0.086116
0.338959 0.434785 0.087241
0.364849 0.435586 0.088366
0.390738 0.436386 0.089490
0.416628 0.437187 0.090615
0.442517 0.437987 0.091740
0.468407 0.438788 0.092864
0.494296 0.439588 0.093989
0.520126 0.440387 0.095111
0.545955 0.441186 0.096233
0.571785 0.441984 0.097355
0.597614 0.442783 0.098477
0.623444 0.443582 0.099600
0.649273 0.444380 0.100722
0.675103 0.445179 0.101844
0.700933 0.445978 0.102966
0.726762 0.446776 0.104088
0.752592 0.447575 0.105210
0.778421 0.448374 0.106332
0.796350 0.448928 0.107111
0.812338 0.449422 0.107771
0.828359 0.449917 0.108399
0.844381 0.450411 0.109027
0.860402 0.450906 0.109655
0.104505 0.455592 0.080770
0.124447 0.456209 0.081636
0.144389 0.456826 0.082502
0.164331 0.457442 0.083369
0.185225 0.458088 0.084276
0.211114 0.458889 0.085401
0.237004 0.459689 0.086526
0.262893 0.460490 0.087650
0.288783 0.461290 0.088775
0.314672 0.462091 0.089900
0.340562 0.462891 0.091025
0.366451 0.463692 0.092149
0.392341 0.464492 0.093274
0.418230 0.465293 0.094399
0.444120 0.466094 0.095523
0.470009 0.466894 0.096648
0.495899 0.467695 0.097773
0.521728 0.468493 0.098895
0.547558 0.469292 0.100017
0.573387 0.470091 0.101139
0.599217 0.470889 0.102261
0.625046 0.471688 0.103383
0.650876 0.472487 0.104505
0.676705 0.473285 0.105627
0.702535 0.474084 0.106749
0.728405 0.474883 0.107832
0.754345 0.475684 0.108849
0.780284 0.476485 0.109865
0.798290 0.477041 0.110571
0.814311 0.477536 0.111199
0.830333 0.478031 0.111827
0.846354 0.478525 0.112455
0.862376 0.479020 0.113082
0.106108 0.483699 0.084553
0.126050 0.484315 0.085420
0.145992 0.484932 0.086286
0.165934 0.485548 0.087152
0.186827 0.486194 0.088060
0.212717 0.486995 0.089185
0.238606 0.487796 0.090309
0.264496 0.488596 0.091434
0.290385 0.489397 0.092559
0.316275 0.490197 0.093683
0.342164 0.490998 0.094808
0.368054 0.491798 0.095933
0.393943 0.492599 0.097057
0.419833 0.493399 0.098182
0.445722 0.494200 0.099307
0.471612 0.495000 0.100432
0.497501 0.495801 0.101556
0.523331 0.496599 0.102678
0.549160 0.497398 0.103800
0.574990 0.498197 0.104922
0.600819 0.498995 0.106045
0.626649 0.499794 0.107167
0.652560 0.500594 0.108210
0.678500 0.501395 0.109227
0.704439 0.502196 0.110243
0.730379 0.502997 0.111260
0.756318 0.503798 0.112277
0.782258 0.504599 0.113293
0.800263 0.505155 0.113999
0.816285 0.505650 0.114627
0.832306 0.506144 0.115254
0.848328 0.506639 0.115882
0.864349 0.507134 0.116510
0.107707 0.511740 0.088328
0.127649 0.512356 0.089194
0.147590 0.512973 0.090061
0.167532 0.513589 0.090927
0.188426 0.514236 0.091835
0.214315 0.515036 0.092959
0.240205 0.515837 0.094084
0.266094 0.516637 0.095209
0.291984 0.517438 0.096333
0.317873 0.518238 0.097458
0.343763 0.519039 0.098583
0.369652 0.519839 0.099708
0.395542 0.520640 0.100832
0.421431 0.521440 0.101957
0.447321 0.522241 0.103082
0.473210 0.523041 0.104206
0.499100 0.523842 0.105331
0.524930 0.524640 0.106453
0.550771 0.525439 0.107564
0.576710 0.526240 0.108580
0.602650 0.527041 0.109597
0.628590 0.527842 0.110614
0.654529 0.528643 0.111630
0.680469 0.529444 0.112647
0.706408 0.530245 0.113663
0.732348 0.531046 0.114680
0.758288 0.531847 0.115696
0.784227 0.532648 0.116713
0.802232 0.533204 0.117418
0.818254 0.533698 0.118046
0.834275 0.534193 0.118674
0.850297 0.534688 0.119302
0.866318 0.535182 0.119930
0.109305 0.539781 0.092103
0.129247 0.540397 0.092969
0.149189 0.541014 0.093835
0.169131 0.541631 0.094702
0.190025 0.542277 0.095609
0.215914 0.543077 0.096734
0.241804 0.543878 0.097859
0.267693 0.544678 0.098984
0.293583 0.545479 0.100108
0.319472 0.546279 0.101233
0.345362 0.547080 0.102358
0.371251 0.547880 0.103482
0.397141 0.548681 0.104607
0.423030 0.549481 0.105732
0.448920 0.550282 0.106856
0.474861 0.551083 0.107932
0.500861 0.551886 0.108951
0.526800 0.552687 0.109967
0.552740 0.553488 0.110984
0.578679 0.554289 0.112000
0.604619 0.555090 0.113017
0.630559 0.555891 0.114033
0.656498 0.556692 0.115050
0.682438 0.557493 0.116066
0.708377 0.558294 0.117083
0.734317 0.559094 0.118099
0.760257 0.559895 0.119116
0.786196 0.560696 0.120132
0.804201 0.561252 0.120838
0.820223 0.561747 0.121466
0.836244 0.562242 0.122094
0.852266 0.562736 0.122722
0.868287 0.563231 0.123350
0.110904 0.567822 0.095878
0.130846 0.568438 0.096744
0.150788 0.569055 0.097610
0.170730 0.569672 0.098477
0.191623 0.570318 0.099384
0.217513 0.571118 0.100509
0.243402 0.571919 0.101634
0.269292 0.572719 0.102758
0.295181 0.573520 0.103883
0.321071 0.574320 0.105008
0.346960 0.575121 0.106132
0.372850 0.575921 0.107257
0.398830 0.576724 0.108295
0.424830 0.577526 0.109314
0.450830 0.578329 0.110332
0.476830 0.579132 0.111351
0.502830 0.579935 0.112370
0.528769 0.580736 0.113387
0.554709 0.581537 0.114403
0.580648 0.582338 0.115420
0.606588 0.583138 0.116436
0.632528 0.583939 0.117453
0.658467 0.584740 0.118470
0.684407 0.585541 0.119486
0.710346 0.586342 0.120503
0.736286 0.587143 0.121519
0.762226 0.587944 0.122536
0.788165 0.588745 0.123552
0.806170 0.589301 0.124258
0.822192 0.589796 0.124886
0.838213 0.590290 0.125514
0.854235 0.590785 0.126141
0.870256 0.591280 0.126769
0.112503 0.595863 0.099652
0.132445 0.596479 0.100519
0.152387 0.597096 0.101385
0.172329 0.597713 0.102251
0.193222 0.598359 0.103159
0.219112 0.599159 0.104284
0.245001 0.599960 0.105408
0.270891 0.600760 0.106533
0.296800 0.601561 0.107639
0.322800 0.602364 0.108658
0.348800 0.603167 0.109677
0.374799 0.603970 0.110695
0.400799 0.604772 0.111714
0.426799 0.605575 0.112733
0.452799 0.606378 0.113752
0.478799 0.607181 0.114771
0.504799 0.607983 0.115790
0.530738 0.608784 0.116807
0.556678 0.609585 0.117823
0.582617 0.610386 0.118840
0.608557 0.611187 0.119856
0.634497 0.611988 0.120873
0.660436 0.612789 0.121889
0.686376 0.613590 0.122906
0.712315 0.614391 0.123922
0.738255 0.615192 0.124939
0.764195 0.615993 0.125955
0.790134 0.616794 0.126972
0.808139 0.617350 0.127678
0.824161 0.617844 0.128305
0.840182 0.618339 0.128933
0.856204 0.618834 0.129561
0.872225 0.619328 0.130189
0.114102 0.623904 0.103427
0.134044 0.624520 0.104293
0.153985 0.625137 0.105160
0.173927 0.625754 0.106026
0.194821 0.626400 0.106934
0.220770 0.627201 0.108002
0.246769 0.628004 0.109021
0.272769 0.628807 0.110040
0.298769 0.629610 0.111058
0.324769 0.630413 0.112077
0.350769 0.631215 0.113096
0.376769 0.632018 0.114115
0.402768 0.632821 0.115134
0.428768 0.633624 0.116153
0.454768 0.634427 0.117172
0.480768 0.635229 0.118191
0.506768 0.636032 0.119210
0.532707 0.636833 0.120226
0.558647 0.637634 0.121243
0.584586 0.638435 0.122259
0.610526 0.639236 0.123276
0.636466 0.640037 0.124292
0.662405 0.640838 0.125309
0.688345 0.641639 0.126325
0.714284 0.642440 0.127342
0.740224 0.643240 0.128359
0.766164 0.644041 0.129375
0.792103 0.644842 0.130392
0.810108 0.645398 0.131097
0.826130 0.645893 0.131725
0.842151 0.646388 0.132353
0.858173 0.646882 0.132981
0.874194 0.647377 0.133609
0.115700 0.651945 0.107202
0.135702 0.652563 0.108011
0.155729 0.653181 0.108795
0.175756 0.653799 0.109580
0.196739 0.654447 0.110403
0.222739 0.655250 0.111421
0.248738 0.656053 0.112440
0.274738 0.656856 0.113459
0.300738 0.657658 0.114478
0.326738 0.658461 0.115497
0.352738 0.659264 0.116516
0.378738 0.660067 0.117535
0.404737 0.660870 0.118554
0.430737 0.661672 0.119573
0.456737 0.662475 0.120592
0.482737 0.663278 0.121610
0.508737 0.664081 0.122629
0.534676 0.664882 0.123646
0.560616 0.665683 0.124662
0.586555 0.666484 0.125679
0.612495 0.667284 0.126696
0.638435 0.668085 0.127712
0.664374 0.668886 0.128729
0.690314 0.669687 0.129745
0.716253 0.670488 0.130762
0.742193 0.671289 0.131778
0.768133 0.672090 0.132795
0.794072 0.672891 0.133811
0.812077 0.673447 0.134517
0.828099 0.673942 0.135145
0.844120 0.674436 0.135773
0.860142 0.674931 0.136401
0.876163 0.675426 0.137028
0.117644 0.679993 0.110646
0.137671 0.680611 0.111430
0.157698 0.681230 0.112215
0.177725 0.681848 0.113000
0.198708 0.682496 0.113822
0.224708 0.683299 0.114841
0.250707 0.684102 0.115860
0.276707 0.684904 0.116879
0.302707 0.685707 0.117898
0.328707 0.686510 0.118917
0.354707 0.687313 0.119936
0.380707 0.688115 0.120955
0.406706 0.688918 0.121973
0.432706 0.689721 0.122992
0.458706 0.690524 0.124011
0.484706 0.691327 0.125030
0.510706 0.692129 0.126049
0.536645 0.692930 0.127066
0.562585 0.693731 0.128082
0.588525 0.694532 0.129099
0.614464 0.695333 0.130115
0.640404 0.696134 0.131132
0.666343 0.696935 0.132148
0.692283 0.697736 0.133165
0.718223 0.698537 0.134181
0.744162 0.699338 0.135198
0.770102 0.700139 0.136214
0.796041 0.700940 0.137231
0.814046 0.701496 0.137937
0.830068 0.701990 0.138564
0.846089 0.702485 0.139192
0.862111 0.702980 0.139820
0.878133 0.703474 0.140448
0.119614 0.708042 0.114065
0.139640 0.708660 0.114850
0.159667 0.709278 0.115635
0.179694 0.709897 0.116420
0.200677 0.710545 0.117242
0.226677 0.711347 0.118261
0.252676 0.712150 0.119280
0.278676 0.712953 0.120299
0.304676 0.713756 0.121318
0.330676 0.714559 0.122336
0.356676 0.715361 0.123355
0.382676 0.716164 0.124374
0.408675 0.716967 0.125393
0.434675 0.717770 0.126412
0.460675 0.718572 0.127431
0.486675 0.719375 0.128450
0.512675 0.720178 0.129469
0.538614 0.720979 0.130485
0.564554 0.721780 0.131502
0.590494 0.722581 0.132518
0.616433 0.723382 0.133535
0.642373 0.724183 0.134551
0.668312 0.724984 0.135568
0.694252 0.725785 0.136585
0.720192 0.726585 0.137601
0.746131 0.727386 0.138618
0.772071 0.728187 0.139634
0.798010 0.728988 0.140651
0.816015 0.729544 0.141356
0.832037 0.730039 0.141984
0.848059 0.730534 0.142612
0.864080 0.731028 0.143240
0.880102 0.731523 0.143868
0.121583 0.736090 0.117485
0.141609 0.736709 0.118270
0.161636 0.737327 0.119055
0.181663 0.737945 0.119839
0.202646 0.738593 0.120662
0.228646 0.739396 0.121681
0.254645 0.740199 0.122699
0.280645 0.741002 0.123718
0.306645 0.741804 0.124737
0.332645 0.742607 0.125756
0.358645 0.743410 0.126775
0.384645 0.744213 0.127794
0.410644 0.745016 0.128813
0.436644 0.745818 0.129832
0.462644 0.746621 0.130851
0.488644 0.747424 0.131870
0.514644 0.748227 0.132888
0.540583 0.749028 0.133905
0.566523 0.749829 0.134922
0.592463 0.750629 0.135938
0.618402 0.751430 0.136955
0.644342 0.752231 0.137971
0.670281 0.753032 0.138988
0.696221 0.753833 0.140004
0.722161 0.754634 0.141021
0.748100 0.755435 0.142037
0.774040 0.756236 0.143054
0.799979 0.757037 0.144070
0.817985 0.757593 0.144776
0.834006 0.758088 0.145404
0.850028 0.758582 0.146032
0.866049 0.759077 0.146660
0.882071 0.759572 0.147287
0.123552 0.764139 0.120905
0.143578 0.764757 0.121689
0.163605 0.765376 0.122474
0.183632 0.765994 0.123259
0.204615 0.766642 0.124081
0.230615 0.767445 0.125100
0.256615 0.768248 0.126119
0.282614 0.769050 0.127138
0.308614 0.769853 0.128157
0.334614 0.770656 0.129176
0.360614 0.771459 0.130195
0.386614 0.772261 0.131214
0.412614 0.773064 0.132233
0.438613 0.773867 0.133251
0.464613 0.774670 0.134270
0.490613 0.775473 0.135289
0.516613 0.776275 0.136308
0.542552 0.777076 0.137325
0.568492 0.777877 0.138341
0.594432 0.778678 0.139358
0.620371 0.779479 0.140374
0.646311 0.780280 0.141391
0.672250 0.781081 0.142407
0.698190 0.781882 0.143424
0.724130 0.782683 0.144441
0.750069 0.783484 0.145457
0.776009 0.784285 0.146474
0.801948 0.785086 0.147490
0.819954 0.785642 0.148196
