luts/cinema_filmic.cube
TITLE "Camera Blackmagic"
LUT_3D_SIZE 33
0.111298 0.104278 0.097258
0.132226 0.105462 0.098442
0.153153 0.106646 0.099626
0.174081 0.107830 0.100810
0.195009 0.109014 0.101994
0.215936 0.110198 0.103178
0.236864 0.111381 0.104361
0.257792 0.112565 0.105545
0.278719 0.113749 0.106729
0.299647 0.114933 0.107913
0.320575 0.116117 0.109097
0.341502 0.117301 0.110281
0.362430 0.118485 0.111465
0.383358 0.119669 0.112649
0.404285 0.120853 0.113833
0.425213 0.122037 0.115017
0.446141 0.123221 0.116201
0.467068 0.124405 0.117385
0.487996 0.125588 0.118568
0.508924 0.126772 0.119752
0.529851 0.127956 0.120936
0.550779 0.129140 0.122120
0.571707 0.130324 0.123304
0.589844 0.131350 0.124330
0.606121 0.132271 0.125251
0.622398 0.133192 0.126172
0.638675 0.134113 0.127093
0.654952 0.135034 0.128014
0.671229 0.135954 0.128934
0.687506 0.136875 0.129855
0.703783 0.137796 0.130776
0.720061 0.138717 0.131697
0.736338 0.139638 0.132618
0.115281 0.128005 0.101241
0.136208 0.129188 0.102425
0.157136 0.130372 0.103609
0.178064 0.131556 0.104793
0.198991 0.132740 0.105976
0.219919 0.133924 0.107160
0.240847 0.135108 0.108344
0.261774 0.136292 0.109528
0.282702 0.137476 0.110712
0.303630 0.138660 0.111896
0.324557 0.139844 0.113080
0.345485 0.141028 0.114264
0.366413 0.142212 0.115448
0.387340 0.143395 0.116632
0.408268 0.144579 0.117816
0.429196 0.145763 0.119000
0.450123 0.146947 0.120183
0.471051 0.148131 0.121367
0.491979 0.149315 0.122551
0.512906 0.150499 0.123735
0.533834 0.151683 0.124919
0.554762 0.152867 0.126103
0.575689 0.154051 0.127287
0.593827 0.155077 0.128313
0.610104 0.155998 0.129234
0.626381 0.156918 0.130155
0.642658 0.157839 0.131075
0.658935 0.158760 0.131996
0.675212 0.159681 0.132917
0.691489 0.160602 0.133838
0.707766 0.161522 0.134759
0.724043 0.162443 0.135680
0.740320 0.163364 0.136600
0.119264 0.151731 0.105224
0.140191 0.152915 0.106407
0.161119 0.154099 0.107591
0.182047 0.155283 0.108775
0.202974 0.156467 0.109959
0.223902 0.157651 0.111143
0.244830 0.158835 0.112327
0.265757 0.160018 0.113511
0.286685 0.161202 0.114695
0.307613 0.162386 0.115879
0.328540 0.163570 0.117063
0.349468 0.164754 0.118247
0.370396 0.165938 0.119431
0.391323 0.167122 0.120614
0.412251 0.168306 0.121798
0.433179 0.169490 0.122982
0.454106 0.170674 0.124166
0.475034 0.171858 0.125350
0.495962 0.173042 0.126534
0.516889 0.174225 0.127718
0.537817 0.175409 0.128902
0.558745 0.176593 0.130086
0.579672 0.177777 0.131270
0.597810 0.178803 0.132296
0.614087 0.179724 0.133217
0.630364 0.180645 0.134137
0.646641 0.181566 0.135058
0.662918 0.182487 0.135979
0.679195 0.183407 0.136900
0.695472 0.184328 0.137821
0.711749 0.185249 0.138742
0.728026 0.186170 0.139662
0.744303 0.187091 0.140583
0.123246 0.175458 0.109206
0.144174 0.176641 0.110390
0.165102 0.177825 0.111574
0.186029 0.179009 0.112758
0.206957 0.180193 0.113942
0.227885 0.181377 0.115126
0.248812 0.182561 0.116310
0.269740 0.183745 0.117494
0.290668 0.184929 0.118678
0.311595 0.186113 0.119862
0.332523 0.187297 0.121045
0.353451 0.188481 0.122229
0.374378 0.189665 0.123413
0.395306 0.190848 0.124597
0.416234 0.192032 0.125781
0.437161 0.193216 0.126965
0.458089 0.194400 0.128149
0.479017 0.195584 0.129333
0.499944 0.196768 0.130517
0.520872 0.197952 0.131701
0.541800 0.199136 0.132885
0.562727 0.200320 0.134069
0.583655 0.201504 0.135252
0.601792 0.202530 0.136279
0.618069 0.203451 0.137199
0.634346 0.204371 0.138120
0.650623 0.205292 0.139041
0.666901 0.206213 0.139962
0.683178 0.207134 0.140883
0.699455 0.208055 0.141803
0.715732 0.208976 0.142724
0.732009 0.209896 0.143645
0.748286 0.210817 0.144566
0.127229 0.199184 0.113189
0.148157 0.200368 0.114373
0.169084 0.201552 0.115557
0.190012 0.202736 0.116741
0.210940 0.203920 0.117925
0.231867 0.205104 0.119109
0.252795 0.206288 0.120293
0.273723 0.207471 0.121476
0.294650 0.208655 0.122660
0.315578 0.209839 0.123844
0.336506 0.211023 0.125028
0.357433 0.212207 0.126212
0.378361 0.213391 0.127396
0.399289 0.214575 0.128580
0.420216 0.215759 0.129764
0.441144 0.216943 0.130948
0.462072 0.218127 0.132132
0.482999 0.219311 0.133316
0.503927 0.220495 0.134500
0.524855 0.221678 0.135683
0.545782 0.222862 0.136867
0.566710 0.224046 0.138051
0.587638 0.225230 0.139235
0.605775 0.226256 0.140261
0.622052 0.227177 0.141182
0.638329 0.228098 0.142103
0.654606 0.229019 0.143024
0.670883 0.229940 0.143945
0.687160 0.230860 0.144865
0.703437 0.231781 0.145786
0.719715 0.232702 0.146707
0.735992 0.233623 0.147628
0.752269 0.234544 0.148549
0.131212 0.222911 0.117172
0.152140 0.224095 0.118356
0.173067 0.225278 0.119540
0.193995 0.226462 0.120724
0.214923 0.227646 0.121908
0.235850 0.228830 0.123091
0.256778 0.230014 0.124275
0.277706 0.231198 0.125459
0.298633 0.232382 0.126643
0.319561 0.233566 0.127827
0.340489 0.234750 0.129011
0.361416 0.235934 0.130195
0.382344 0.237118 0.131379
0.403272 0.238302 0.132563
0.424199 0.239485 0.133747
0.445127 0.240669 0.134931
0.466055 0.241853 0.136115
0.486982 0.243037 0.137298
0.507910 0.244221 0.138482
0.528838 0.245405 0.139666
0.549765 0.246589 0.140850
0.570693 0.247773 0.142034
0.591620 0.248957 0.143218
0.609758 0.249983 0.144244
0.626035 0.250904 0.145165
0.642312 0.251824 0.146086
0.658589 0.252745 0.147007
0.674866 0.253666 0.147927
0.691143 0.254587 0.148848
0.707420 0.255508 0.149769
0.723697 0.256429 0.150690
0.739974 0.257349 0.151611
0.756251 0.258270 0.152531
0.135195 0.246637 0.121155
0.156122 0.247821 0.122339
0.177050 0.249005 0.123522
0.197978 0.250189 0.124706
0.218905 0.251373 0.125890
0.239833 0.252557 0.127074
0.260761 0.253741 0.128258
0.281688 0.254925 0.129442
0.302616 0.256108 0.130626
0.323544 0.257292 0.131810
0.344471 0.258476 0.132994
0.365399 0.259660 0.134178
0.386327 0.260844 0.135362
0.407254 0.262028 0.136546
0.428182 0.263212 0.137729
0.449110 0.264396 0.138913
0.470037 0.265580 0.140097
0.490965 0.266764 0.141281
0.511893 0.267948 0.142465
0.532820 0.269132 0.143649
0.553748 0.270315 0.144833
0.574676 0.271499 0.146017
0.595603 0.272683 0.147201
0.613741 0.273709 0.148227
0.630018 0.274630 0.149148
0.646295 0.275551 0.150068
0.662572 0.276472 0.150989
0.678849 0.277393 0.151910
0.695126 0.278313 0.152831
0.711403 0.279234 0.153752
0.727680 0.280155 0.154673
0.743957 0.281076 0.155593
0.760234 0.281997 0.156514
0.139177 0.270364 0.125137
0.160105 0.271548 0.126321
0.181033 0.272731 0.127505
0.201960 0.273915 0.128689
0.222888 0.275099 0.129873
0.243816 0.276283 0.131057
0.264743 0.277467 0.132241
0.285671 0.278651 0.133425
0.306599 0.279835 0.134609
0.327526 0.281019 0.135793
0.348454 0.282203 0.136977
0.369382 0.283387 0.138160
0.390309 0.284571 0.139344
0.411237 0.285755 0.140528
0.432165 0.286938 0.141712
0.453092 0.288122 0.142896
0.474020 0.289306 0.144080
0.494948 0.290490 0.145264
0.515875 0.291674 0.146448
0.536803 0.292858 0.147632
0.557731 0.294042 0.148816
0.578658 0.295226 0.150000
0.599586 0.296410 0.151184
0.617723 0.297436 0.152210
0.634000 0.298357 0.153130
0.650277 0.299277 0.154051
0.666555 0.300198 0.154972
0.682832 0.301119 0.155893
0.699109 0.302040 0.156814
0.715386 0.302961 0.157735
0.731663 0.303882 0.158655
0.747940 0.304802 0.159576
0.764217 0.305723 0.160497
0.143160 0.294090 0.129120
0.164088 0.295274 0.130304
0.185015 0.296458 0.131488
0.205943 0.297642 0.132672
0.226871 0.298826 0.133856
0.247798 0.300010 0.135040
0.268726 0.301194 0.136224
0.289654 0.302378 0.137408
0.310581 0.303561 0.138591
0.331509 0.304745 0.139775
0.352437 0.305929 0.140959
0.373364 0.307113 0.142143
0.394292 0.308297 0.143327
0.415220 0.309481 0.144511
0.436147 0.310665 0.145695
0.457075 0.311849 0.146879
0.478003 0.313033 0.148063
0.498930 0.314217 0.149247
0.519858 0.315401 0.150431
0.540786 0.316585 0.151615
0.561713 0.317768 0.152798
0.582641 0.318952 0.153982
0.603569 0.320136 0.155166
0.621706 0.321162 0.156192
0.637983 0.322083 0.157113
0.654260 0.323004 0.158034
0.670537 0.323925 0.158955
0.686814 0.324846 0.159876
0.703091 0.325766 0.160796
0.719369 0.326687 0.161717
0.735646 0.327608 0.162638
0.751923 0.328529 0.163559
0.768200 0.329450 0.164480
0.147143 0.317817 0.133103
0.168071 0.319001 0.134287
0.188998 0.320185 0.135471
0.209926 0.321368 0.136655
0.230854 0.322552 0.137839
0.251781 0.323736 0.139023
0.272709 0.324920 0.140206
0.293637 0.326104 0.141390
0.314564 0.327288 0.142574
0.335492 0.328472 0.143758
0.356420 0.329656 0.144942
0.377347 0.330840 0.146126
0.398275 0.332024 0.147310
0.419203 0.333208 0.148494
0.440130 0.334391 0.149678
0.461058 0.335575 0.150862
0.481986 0.336759 0.152046
0.502913 0.337943 0.153229
0.523841 0.339127 0.154413
0.544769 0.340311 0.155597
0.565696 0.341495 0.156781
0.586624 0.342679 0.157965
0.607552 0.343863 0.159149
0.625689 0.344889 0.160175
0.641966 0.345810 0.161096
0.658243 0.346731 0.162017
0.674520 0.347651 0.162938
0.690797 0.348572 0.163858
0.707074 0.349493 0.164779
0.723351 0.350414 0.165700
0.739628 0.351335 0.166621
0.755905 0.352255 0.167542
0.772183 0.353176 0.168463
0.151126 0.341543 0.137086
0.172053 0.342727 0.138270
0.192981 0.343911 0.139454
0.213909 0.345095 0.140637
0.234836 0.346279 0.141821
0.255764 0.347463 0.143005
0.276692 0.348647 0.144189
0.297619 0.349831 0.145373
0.318547 0.351015 0.146557
0.339475 0.352198 0.147741
0.360402 0.353382 0.148925
0.381330 0.354566 0.150109
0.402258 0.355750 0.151293
0.423185 0.356934 0.152477
0.444113 0.358118 0.153661
0.465041 0.359302 0.154844
0.485968 0.360486 0.156028
0.506896 0.361670 0.157212
0.527824 0.362854 0.158396
0.548751 0.364038 0.159580
0.569679 0.365222 0.160764
0.590607 0.366405 0.161948
0.611534 0.367589 0.163132
0.629672 0.368615 0.164158
0.645949 0.369536 0.165079
0.662226 0.370457 0.166000
0.678503 0.371378 0.166920
0.694780 0.372299 0.167841
0.711057 0.373220 0.168762
0.727334 0.374140 0.169683
0.743611 0.375061 0.170604
0.759888 0.375982 0.171525
0.776165 0.376903 0.172445
0.155108 0.365270 0.141068
0.176036 0.366454 0.142252
0.196964 0.367638 0.143436
0.217891 0.368821 0.144620
0.238819 0.370005 0.145804
0.259747 0.371189 0.146988
0.280674 0.372373 0.148172
0.301602 0.373557 0.149356
0.322530 0.374741 0.150540
0.343457 0.375925 0.151724
0.364385 0.377109 0.152908
0.385313 0.378293 0.154092
0.406240 0.379477 0.155275
0.427168 0.380661 0.156459
0.448096 0.381845 0.157643
0.469023 0.383028 0.158827
0.489951 0.384212 0.160011
0.510879 0.385396 0.161195
0.531806 0.386580 0.162379
0.552734 0.387764 0.163563
0.573662 0.388948 0.164747
0.594589 0.390132 0.165931
0.615517 0.391316 0.167115
0.633654 0.392342 0.168141
0.649932 0.393263 0.169062
0.666209 0.394184 0.169982
0.682486 0.395104 0.170903
0.698763 0.396025 0.171824
0.715040 0.396946 0.172745
0.731317 0.397867 0.173666
0.747594 0.398788 0.174586
0.763871 0.399709 0.175507
0.780148 0.400629 0.176428
0.159091 0.388996 0.145051
0.180019 0.390180 0.146235
0.200947 0.391364 0.147419
0.221874 0.392548 0.148603
0.242802 0.393732 0.149787
0.263730 0.394916 0.150971
0.284657 0.396100 0.152155
0.305585 0.397284 0.153339
0.326513 0.398468 0.154523
0.347440 0.399651 0.155706
0.368368 0.400835 0.156890
0.389296 0.402019 0.158074
0.410223 0.403203 0.159258
0.431151 0.404387 0.160442
0.452079 0.405571 0.161626
0.473006 0.406755 0.162810
0.493934 0.407939 0.163994
0.514862 0.409123 0.165178
0.535789 0.410307 0.166362
0.556717 0.411491 0.167546
0.577645 0.412675 0.168730
0.598572 0.413858 0.169913
0.619500 0.415042 0.171097
0.637637 0.416068 0.172123
0.653914 0.416989 0.173044
0.670191 0.417910 0.173965
0.686468 0.418831 0.174886
0.702745 0.419752 0.175807
0.719023 0.420673 0.176728
0.735300 0.421593 0.177648
0.751577 0.422514 0.178569
0.767854 0.423435 0.179490
0.784131 0.424356 0.180411
0.163074 0.412723 0.149034
0.184002 0.413907 0.150218
0.204929 0.415091 0.151402
0.225857 0.416275 0.152586
0.246785 0.417458 0.153770
0.267712 0.418642 0.154954
0.288640 0.419826 0.156137
0.309568 0.421010 0.157321
0.330495 0.422194 0.158505
0.351423 0.423378 0.159689
0.372351 0.424562 0.160873
0.393278 0.425746 0.162057
0.414206 0.426930 0.163241
0.435134 0.428114 0.164425
0.456061 0.429298 0.165609
0.476989 0.430481 0.166793
0.497917 0.431665 0.167977
0.518844 0.432849 0.169161
0.539772 0.434033 0.170344
0.560700 0.435217 0.171528
0.581627 0.436401 0.172712
0.602555 0.437585 0.173896
0.623483 0.438769 0.175080
0.641620 0.439795 0.176106
0.657897 0.440716 0.177027
0.674174 0.441637 0.177948
0.690451 0.442557 0.178869
0.706728 0.443478 0.179790
0.723005 0.444399 0.180710
0.739282 0.445320 0.181631
0.755559 0.446241 0.182552
0.771837 0.447162 0.183473
0.788114 0.448082 0.184394
0.167057 0.436449 0.153017
0.187984 0.437633 0.154201
0.208912 0.438817 0.155385
0.229840 0.440001 0.156569
0.250767 0.441185 0.157752
0.271695 0.442369 0.158936
0.292623 0.443553 0.160120
0.313550 0.444737 0.161304
0.334478 0.445921 0.162488
0.355406 0.447105 0.163672
0.376333 0.448288 0.164856
0.397261 0.449472 0.166040
0.418189 0.450656 0.167224
0.439116 0.451840 0.168408
0.460044 0.453024 0.169592
0.480972 0.454208 0.170776
0.501899 0.455392 0.171959
0.522827 0.456576 0.173143
0.543755 0.457760 0.174327
0.564682 0.458944 0.175511
0.585610 0.460128 0.176695
0.606538 0.461312 0.177879
0.627465 0.462495 0.179063
0.645603 0.463521 0.180089
0.661880 0.464442 0.181010
0.678157 0.465363 0.181931
0.694434 0.466284 0.182851
0.710711 0.467205 0.183772
0.726988 0.468126 0.184693
0.743265 0.469046 0.185614
0.759542 0.469967 0.186535
0.775819 0.470888 0.187456
0.792096 0.471809 0.188376
0.171040 0.460176 0.157000
0.191967 0.461360 0.158183
0.212895 0.462544 0.159367
0.233823 0.463728 0.160551
0.254750 0.464911 0.161735
0.275678 0.466095 0.162919
0.296606 0.467279 0.164103
0.317533 0.468463 0.165287
0.338461 0.469647 0.166471
0.359389 0.470831 0.167655
0.380316 0.472015 0.168839
0.401244 0.473199 0.170023
0.422172 0.474383 0.171207
0.443099 0.475567 0.172390
0.464027 0.476751 0.173574
0.484955 0.477935 0.174758
0.505882 0.479118 0.175942
0.526810 0.480302 0.177126
0.547738 0.481486 0.178310
0.568665 0.482670 0.179494
0.589593 0.483854 0.180678
0.610521 0.485038 0.181862
0.631448 0.486222 0.183046
0.649586 0.487248 0.184072
0.665863 0.488169 0.184993
0.682140 0.489090 0.185913
0.698417 0.490010 0.186834
0.714694 0.490931 0.187755
0.730971 0.491852 0.188676
0.747248 0.492773 0.189597
0.763525 0.493694 0.190518
0.779802 0.494615 0.191438
0.796079 0.495535 0.192359
0.175022 0.483902 0.160982
0.195950 0.485086 0.162166
0.216878 0.486270 0.163350
0.237805 0.487454 0.164534
0.258733 0.488638 0.165718
0.279661 0.489822 0.166902
0.300588 0.491006 0.168086
0.321516 0.492190 0.169270
0.342444 0.493374 0.170454
0.363371 0.494558 0.171638
0.384299 0.495741 0.172821
0.405227 0.496925 0.174005
0.426154 0.498109 0.175189
0.447082 0.499293 0.176373
0.468010 0.500477 0.177557
0.488937 0.501661 0.178741
0.509865 0.502845 0.179925
0.530793 0.504029 0.181109
0.551720 0.505213 0.182293
0.572648 0.506397 0.183477
0.593576 0.507581 0.184661
0.614503 0.508765 0.185845
0.635431 0.509948 0.187028
0.653568 0.510975 0.188055
0.669845 0.511895 0.188975
0.686122 0.512816 0.189896
0.702400 0.513737 0.190817
0.718677 0.514658 0.191738
0.734954 0.515579 0.192659
0.751231 0.516499 0.193579
0.767508 0.517420 0.194500
0.783785 0.518341 0.195421
0.800062 0.519262 0.196342
0.179005 0.507629 0.164965
0.199933 0.508813 0.166149
0.220860 0.509997 0.167333
0.241788 0.511181 0.168517
0.262716 0.512364 0.169701
0.283643 0.513548 0.170885
0.304571 0.514732 0.172069
0.325499 0.515916 0.173252
0.346426 0.517100 0.174436
0.367354 0.518284 0.175620
0.388282 0.519468 0.176804
0.409209 0.520652 0.177988
0.430137 0.521836 0.179172
0.451065 0.523020 0.180356
0.471992 0.524204 0.181540
0.492920 0.525388 0.182724
0.513848 0.526571 0.183908
0.534775 0.527755 0.185092
0.555703 0.528939 0.186276
0.576631 0.530123 0.187459
0.597558 0.531307 0.188643
0.618486 0.532491 0.189827
0.639414 0.533675 0.191011
0.657551 0.534701 0.192037
0.673828 0.535622 0.192958
0.690105 0.536543 0.193879
0.706382 0.537464 0.194800
0.722659 0.538384 0.195721
0.738936 0.539305 0.196641
0.755213 0.540226 0.197562
0.771491 0.541147 0.198483
0.787768 0.542068 0.199404
0.804045 0.542988 0.200325
0.182988 0.531355 0.168948
0.203916 0.532539 0.170132
0.224843 0.533723 0.171316
0.245771 0.534907 0.172500
0.266699 0.536091 0.173684
0.287626 0.537275 0.174867
0.308554 0.538459 0.176051
0.329482 0.539643 0.177235
0.350409 0.540827 0.178419
0.371337 0.542011 0.179603
0.392265 0.543195 0.180787
0.413192 0.544378 0.181971
0.434120 0.545562 0.183155
0.455048 0.546746 0.184339
0.475975 0.547930 0.185523
0.496903 0.549114 0.186707
0.517831 0.550298 0.187891
0.538758 0.551482 0.189074
0.559686 0.552666 0.190258
0.580614 0.553850 0.191442
0.601541 0.555034 0.192626
0.622469 0.556218 0.193810
0.643397 0.557402 0.194994
0.661534 0.558428 0.196020
0.677811 0.559348 0.196941
0.694088 0.560269 0.197862
0.710365 0.561190 0.198783
0.726642 0.562111 0.199703
0.742919 0.563032 0.200624
0.759196 0.563953 0.201545
0.775473 0.564873 0.202466
0.791750 0.565794 0.203387
0.808027 0.566715 0.204307
0.186971 0.555082 0.172931
0.207898 0.556266 0.174115
0.228826 0.557450 0.175298
0.249754 0.558634 0.176482
0.270681 0.559818 0.177666
0.291609 0.561001 0.178850
0.312537 0.562185 0.180034
0.333464 0.563369 0.181218
0.354392 0.564553 0.182402
0.375320 0.565737 0.183586
0.396247 0.566921 0.184770
0.417175 0.568105 0.185954
0.438103 0.569289 0.187138
0.459030 0.570473 0.188322
0.479958 0.571657 0.189505
0.500886 0.572841 0.190689
0.521813 0.574025 0.191873
0.542741 0.575208 0.193057
0.563669 0.576392 0.194241
0.584596 0.577576 0.195425
0.605524 0.578760 0.196609
0.626452 0.579944 0.197793
0.647379 0.581128 0.198977
0.665517 0.582154 0.200003
0.681794 0.583075 0.200924
0.698071 0.583996 0.201844
0.714348 0.584917 0.202765
0.730625 0.585837 0.203686
0.746902 0.586758 0.204607
0.763179 0.587679 0.205528
0.779456 0.588600 0.206449
0.795733 0.589521 0.207369
0.812010 0.590442 0.208290
0.190953 0.578808 0.176913
0.211881 0.579992 0.178097
0.232809 0.581176 0.179281
0.253736 0.582360 0.180465
0.274664 0.583544 0.181649
0.295592 0.584728 0.182833
0.316519 0.585912 0.184017
0.337447 0.587096 0.185201
0.358375 0.588280 0.186385
0.379302 0.589464 0.187569
0.400230 0.590648 0.188753
0.421158 0.591831 0.189936
0.442085 0.593015 0.191120
0.463013 0.594199 0.192304
0.483941 0.595383 0.193488
0.504868 0.596567 0.194672
0.525796 0.597751 0.195856
0.546724 0.598935 0.197040
0.567651 0.600119 0.198224
0.588579 0.601303 0.199408
0.609507 0.602487 0.200592
0.630434 0.603671 0.201776
0.651362 0.604855 0.202960
0.669499 0.605881 0.203986
0.685776 0.606801 0.204906
0.702054 0.607722 0.205827
0.718331 0.608643 0.206748
0.734608 0.609564 0.207669
0.750885 0.610485 0.208590
0.767162 0.611406 0.209511
0.783439 0.612326 0.210431
0.799716 0.613247 0.211352
0.815993 0.614168 0.212273
0.194936 0.602535 0.180896
0.215864 0.603719 0.182080
0.236791 0.604903 0.183264
0.257719 0.606087 0.184448
0.278647 0.607271 0.185632
0.299574 0.608454 0.186816
0.320502 0.609638 0.188000
0.341430 0.610822 0.189184
0.362357 0.612006 0.190367
0.383285 0.613190 0.191551
0.404213 0.614374 0.192735
0.425140 0.615558 0.193919
0.446068 0.616742 0.195103
0.466996 0.617926 0.196287
0.487923 0.619110 0.197471
0.508851 0.620294 0.198655
0.529779 0.621478 0.199839
0.550706 0.622661 0.201023
0.571634 0.623845 0.202207
0.592562 0.625029 0.203391
0.613489 0.626213 0.204574
0.634417 0.627397 0.205758
0.655345 0.628581 0.206942
0.673482 0.629607 0.207968
0.689759 0.630528 0.208889
0.706036 0.631449 0.209810
0.722313 0.632370 0.210731
0.738590 0.633290 0.211652
0.754867 0.634211 0.212572
0.771145 0.635132 0.213493
0.787422 0.636053 0.214414
0.803699 0.636974 0.215335
0.819976 0.637895 0.216256
0.198919 0.626261 0.184879
0.219847 0.627445 0.186063
0.240774 0.628629 0.187247
0.261702 0.629813 0.188431
0.282630 0.630997 0.189615
0.303557 0.632181 0.190799
0.324485 0.633365 0.191982
0.345413 0.634549 0.193166
0.366340 0.635733 0.194350
0.387268 0.636917 0.195534
0.408196 0.638101 0.196718
0.429123 0.639285 0.197902
0.450051 0.640468 0.199086
0.470979 0.641652 0.200270
0.491906 0.642836 0.201454
0.512834 0.644020 0.202638
0.533762 0.645204 0.203822
0.554689 0.646388 0.205006
0.575617 0.647572 0.206189
0.596545 0.648756 0.207373
0.617472 0.649940 0.208557
0.638400 0.651124 0.209741
0.659328 0.652308 0.210925
0.677465 0.653334 0.211951
0.693742 0.654254 0.212872
0.710019 0.655175 0.213793
0.726296 0.656096 0.214714
0.742573 0.657017 0.215634
0.758850 0.657938 0.216555
0.775127 0.658859 0.217476
0.791404 0.659779 0.218397
0.807681 0.660700 0.219318
0.823959 0.661621 0.220239
0.202459 0.647352 0.188419
0.223387 0.648536 0.189603
0.244315 0.649720 0.190787
0.265242 0.650903 0.191971
0.286170 0.652087 0.193155
0.307098 0.653271 0.194339
0.328025 0.654455 0.195523
0.348953 0.655639 0.196707
0.369881 0.656823 0.197891
0.390808 0.658007 0.199074
0.411736 0.659191 0.200258
0.432664 0.660375 0.201442
0.453591 0.661559 0.202626
0.474519 0.662743 0.203810
0.495446 0.663926 0.204994
0.516374 0.665110 0.206178
0.537302 0.666294 0.207362
0.558229 0.667478 0.208546
0.579157 0.668662 0.209730
0.600085 0.669846 0.210914
0.621012 0.671030 0.212097
0.641940 0.672214 0.213281
0.662868 0.673398 0.214465
0.681005 0.674424 0.215491
0.697282 0.675345 0.216412
0.713559 0.676266 0.217333
0.729836 0.677186 0.218254
0.746113 0.678107 0.219175
0.762391 0.679028 0.220096
0.778668 0.679949 0.221016
0.794945 0.680870 0.221937
0.811222 0.681790 0.222858
0.827499 0.682711 0.223779
0.205704 0.666684 0.191664
0.226632 0.667868 0.192848
0.247560 0.669052 0.194032
0.268487 0.670236 0.195216
0.289415 0.671420 0.196400
0.310343 0.672604 0.197584
0.331270 0.673788 0.198768
0.352198 0.674972 0.199952
0.373126 0.676156 0.201136
0.394053 0.677340 0.202320
0.414981 0.678524 0.203504
0.435909 0.679707 0.204687
0.456836 0.680891 0.205871
0.477764 0.682075 0.207055
0.498692 0.683259 0.208239
0.519619 0.684443 0.209423
0.540547 0.685627 0.210607
0.561475 0.686811 0.211791
0.582402 0.687995 0.212975
0.603330 0.689179 0.214159
0.624258 0.690363 0.215343
0.645185 0.691547 0.216527
0.666113 0.692731 0.217711
0.684250 0.693757 0.218737
0.700527 0.694677 0.219657
0.716805 0.695598 0.220578
0.733082 0.696519 0.221499
0.749359 0.697440 0.222420
0.765636 0.698361 0.223341
0.781913 0.699282 0.224262
0.798190 0.700202 0.225182
0.814467 0.701123 0.226103
0.830744 0.702044 0.227024
0.208950 0.686017 0.194910
0.229877 0.687201 0.196094
0.250805 0.688385 0.197277
0.271733 0.689569 0.198461
0.292660 0.690753 0.199645
0.313588 0.691937 0.200829
0.334516 0.693121 0.202013
0.355443 0.694305 0.203197
0.376371 0.695488 0.204381
0.397299 0.696672 0.205565
0.418226 0.697856 0.206749
0.439154 0.699040 0.207933
0.460082 0.700224 0.209117
0.481009 0.701408 0.210301
0.501937 0.702592 0.211484
0.522865 0.703776 0.212668
0.543792 0.704960 0.213852
0.564720 0.706144 0.215036
0.585648 0.707328 0.216220
0.606575 0.708512 0.217404
0.627503 0.709695 0.218588
0.648431 0.710879 0.219772
0.669358 0.712063 0.220956
0.687496 0.713089 0.221982
0.703773 0.714010 0.222903
0.720050 0.714931 0.223823
0.736327 0.715852 0.224744
0.752604 0.716773 0.225665
0.768881 0.717693 0.226586
0.785158 0.718614 0.227507
0.801435 0.719535 0.228428
0.817712 0.720456 0.229348
0.833989 0.721377 0.230269
0.212195 0.705350 0.198155
0.233122 0.706534 0.199339
0.254050 0.707718 0.200523
0.274978 0.708902 0.201707
0.295905 0.710085 0.202890
0.316833 0.711269 0.204074
0.337761 0.712453 0.205258
0.358688 0.713637 0.206442
0.379616 0.714821 0.207626
0.400544 0.716005 0.208810
0.421471 0.717189 0.209994
0.442399 0.718373 0.211178
0.463327 0.719557 0.212362
0.484254 0.720741 0.213546
0.505182 0.721925 0.214730
0.526110 0.723109 0.215914
0.547037 0.724292 0.217097
0.567965 0.725476 0.218281
0.588893 0.726660 0.219465
0.609820 0.727844 0.220649
0.630748 0.729028 0.221833
0.651676 0.730212 0.223017
0.672603 0.731396 0.224201
0.690741 0.732422 0.225227
0.707018 0.733343 0.226148
0.723295 0.734264 0.227069
0.739572 0.735185 0.227990
0.755849 0.736105 0.228910
0.772126 0.737026 0.229831
