luts/cinema_neutral.cube
TITLE "Camera Arri Alexa"
LUT_3D_SIZE 5
0.081882 0.058794 0.027355
0.266159 0.064492 0.035360
0.473275 0.070896 0.044357
0.679912 0.077286 0.053334
0.839143 0.082209 0.060251
0.093288 0.258849 0.054285
0.277565 0.264547 0.062290
0.484681 0.270951 0.071288
0.691318 0.277341 0.080265
0.850549 0.282264 0.087182
0.106108 0.483699 0.084553
0.290385 0.489397 0.092559
0.497501 0.495801 0.101556
0.704439 0.502196 0.110243
0.864349 0.507134 0.116510
0.119614 0.708042 0.114065
0.304676 0.713756 0.121318
0.512675 0.720178 0.129469
0.720192 0.726585 0.137601
0.880102 0.731523 0.143868
0.131752 0.880953 0.135147
0.316815 0.886667 0.142399
0.524813 0.893090 0.150550
0.732330 0.899497 0.158683
0.892240 0.904435 0.164949
0.083052 0.060760 0.213860
0.267329 0.066458 0.221866
0.474445 0.072862 0.230863
0.681081 0.079251 0.239840
0.840313 0.084175 0.246757
0.094458 0.260815 0.240791
0.278735 0.266513 0.248796
0.485851 0.272917 0.257794
0.692487 0.279306 0.266770
0.851719 0.284230 0.273688
0.107277 0.485664 0.271059
0.291555 0.491362 0.279064
0.498671 0.497766 0.288062
0.705880 0.504167 0.296489
0.865790 0.509105 0.302756
0.121054 0.710013 0.300311
0.306117 0.715727 0.307563
0.514115 0.722149 0.315715
0.721632 0.728557 0.323847
0.881542 0.733494 0.330114
0.133193 0.882925 0.321393
0.318255 0.888639 0.328645
0.526254 0.895061 0.336796
0.733771 0.901468 0.344928
0.893681 0.906406 0.351195
0.084381 0.062994 0.425798
0.268658 0.068692 0.433804
0.475774 0.075096 0.442801
0.682410 0.081485 0.451778
0.841642 0.086409 0.458695
0.095787 0.263049 0.452729
0.280064 0.268747 0.460734
0.487180 0.275151 0.469732
0.693816 0.281540 0.478708
0.853048 0.286464 0.485626
0.108607 0.487898 0.482997
0.292884 0.493596 0.491002
0.500000 0.500000 0.500000
0.707517 0.506407 0.508132
0.867427 0.511345 0.514399
0.122691 0.712253 0.511954
0.307754 0.717967 0.519206
0.515752 0.724389 0.527358
0.723269 0.730797 0.535490
0.883179 0.735734 0.541757
0.134830 0.885165 0.533036
0.319892 0.890879 0.540288
0.527891 0.897301 0.548439
0.735408 0.903708 0.556571
0.895318 0.908646 0.562838
0.085634 0.065100 0.625626
0.269911 0.070798 0.633631
0.477027 0.077202 0.642629
0.683664 0.083591 0.651605
0.842895 0.088515 0.658523
0.097040 0.265155 0.652556
0.281317 0.270853 0.660562
0.488433 0.277257 0.669559
0.695070 0.283646 0.678536
0.854301 0.288570 0.685453
0.109860 0.490004 0.682825
0.294137 0.495702 0.690830
0.501543 0.502112 0.699549
0.709060 0.508519 0.707681
0.868970 0.513457 0.713948
0.124234 0.714365 0.711503
0.309297 0.720079 0.718756
0.517296 0.726501 0.726907
0.724813 0.732909 0.735039
0.884723 0.737846 0.741306
0.136373 0.887277 0.732585
0.321436 0.892991 0.739837
0.529434 0.899413 0.747988
0.736951 0.905820 0.756121
0.896861 0.910758 0.762387
0.086614 0.066746 0.781854
0.270891 0.072444 0.789860
0.478007 0.078848 0.798857
0.684643 0.085238 0.807834
0.843875 0.090161 0.814751
0.098020 0.266801 0.808785
0.282297 0.272499 0.816790
0.489413 0.278903 0.825788
0.696049 0.285293 0.834765
0.855281 0.290216 0.841682
0.110840 0.491650 0.839053
0.295117 0.497348 0.847059
0.502750 0.503763 0.855560
0.710267 0.510171 0.863693
0.870177 0.515108 0.869959
0.125441 0.716016 0.867514
0.310504 0.721730 0.874767
0.518502 0.728152 0.882918
0.726019 0.734560 0.891050
0.885929 0.739497 0.897317
0.137580 0.888928 0.888596
0.322642 0.894642 0.895848
0.530641 0.901064 0.903999
0.738158 0.907472 0.912132
0.898068 0.912409 0.918398
