luts/cinema_filmic.cube
TITLE "Camera Blackmagic"
LUT_3D_SIZE 5
0.111298 0.104278 0.097258
0.278719 0.113749 0.106729
0.446141 0.123221 0.116201
0.606121 0.132271 0.125251
0.736338 0.139638 0.132618
0.143160 0.294090 0.129120
0.310581 0.303561 0.138591
0.478003 0.313033 0.148063
0.637983 0.322083 0.157113
0.768200 0.329450 0.164480
0.175022 0.483902 0.160982
0.342444 0.493374 0.170454
0.509865 0.502845 0.179925
0.669845 0.511895 0.188975
0.800062 0.519262 0.196342
0.205704 0.666684 0.191664
0.373126 0.676156 0.201136
0.540547 0.685627 0.210607
0.700527 0.694677 0.219657
0.830744 0.702044 0.227024
0.231666 0.821346 0.217626
0.399087 0.830817 0.227097
0.566509 0.840289 0.236569
0.726489 0.849339 0.245619
0.856706 0.856706 0.252986
0.114515 0.107495 0.258425
0.281936 0.116966 0.267896
0.449357 0.126437 0.277367
0.609338 0.135488 0.286418
0.739554 0.142854 0.293784
0.146377 0.297307 0.290287
0.313798 0.306778 0.299758
0.481219 0.316249 0.309229
0.641200 0.325300 0.318280
0.771416 0.332666 0.325646
0.178239 0.487119 0.322149
0.345660 0.496590 0.331620
0.513081 0.506061 0.341091
0.673062 0.515112 0.350142
0.803278 0.522478 0.357508
0.208921 0.669901 0.352831
0.376342 0.679372 0.362302
0.543764 0.688844 0.371774
0.703744 0.697894 0.380824
0.833961 0.705261 0.388191
0.234883 0.824563 0.378793
0.402304 0.834034 0.388264
0.569725 0.843505 0.397735
0.729706 0.852556 0.406786
0.859922 0.859922 0.414152
0.117660 0.110640 0.416010
0.285081 0.120111 0.425481
0.452502 0.129582 0.434952
0.612483 0.138633 0.444003
0.742699 0.145999 0.451369
0.149522 0.300452 0.447872
0.316943 0.309923 0.457343
0.484364 0.319394 0.466814
0.644345 0.328445 0.475865
0.774561 0.335811 0.483231
0.181384 0.490264 0.479734
0.348805 0.499735 0.489205
0.516227 0.509207 0.498677
0.676207 0.518257 0.507727
0.806423 0.525623 0.515093
0.212066 0.673046 0.510416
0.379487 0.682517 0.519887
0.546909 0.691989 0.529359
0.706889 0.701039 0.538409
0.837106 0.708406 0.545776
0.238028 0.827708 0.536378
0.405449 0.837179 0.545849
0.572870 0.846650 0.555320
0.732851 0.855701 0.564371
0.863067 0.863067 0.571737
0.120709 0.113689 0.568819
0.288131 0.123161 0.578291
0.455552 0.132632 0.587762
0.615532 0.141682 0.596812
0.745749 0.149049 0.604179
0.152571 0.303501 0.600681
0.319993 0.312973 0.610153
0.487414 0.322444 0.619624
0.647394 0.331494 0.628674
0.777611 0.338861 0.636041
0.184434 0.493314 0.632544
0.351855 0.502785 0.642015
0.519276 0.512256 0.651486
0.679257 0.521307 0.660537
0.809473 0.528673 0.667903
0.215116 0.676096 0.663226
0.382537 0.685567 0.672697
0.549958 0.695038 0.682168
0.709939 0.704089 0.691219
0.840155 0.711455 0.698585
0.241077 0.830757 0.689187
0.408499 0.840229 0.698659
0.575920 0.849700 0.708130
0.735900 0.858750 0.717180
0.866117 0.866117 0.724547
0.123449 0.116429 0.706109
0.290871 0.125901 0.715581
0.458292 0.135372 0.725052
0.618272 0.144422 0.734102
0.748489 0.151789 0.741469
0.155311 0.306241 0.737971
0.322733 0.315713 0.747443
0.490154 0.325184 0.756914
0.650134 0.334234 0.765964
0.780351 0.341601 0.773331
0.187174 0.496054 0.769834
0.354595 0.505525 0.779305
0.522016 0.514996 0.788776
0.681997 0.524047 0.797827
0.812213 0.531413 0.805193
0.217856 0.678836 0.800516
0.385277 0.688307 0.809987
0.552698 0.697778 0.819458
0.712679 0.706829 0.828509
0.842895 0.714195 0.835875
0.243817 0.833497 0.826477
0.411239 0.842969 0.835949
0.578660 0.852440 0.845420
0.738640 0.861490 0.854470
0.868857 0.868857 0.861837
