luts/cinema_warm.cube
TITLE "Camera Sony Venice"
LUT_3D_SIZE 33
0.028826 0.019894 0.010963
0.057641 0.020349 0.011538
0.086455 0.020803 0.012114
0.115270 0.021258 0.012689
0.144085 0.021712 0.013265
0.172899 0.022167 0.013841
0.201714 0.022621 0.014416
0.230529 0.023076 0.014992
0.259343 0.023530 0.015567
0.288158 0.023985 0.016143
0.316643 0.024434 0.016712
0.344634 0.024876 0.017271
0.372626 0.025317 0.017830
0.400617 0.025758 0.018389
0.428609 0.026200 0.018948
0.456600 0.026641 0.019508
0.484591 0.027083 0.020067
0.512583 0.027524 0.020626
0.540574 0.027966 0.021185
0.568565 0.028407 0.021744
0.596557 0.028849 0.022303
0.624548 0.029290 0.022862
0.652539 0.029732 0.023422
0.680531 0.030173 0.023981
0.708522 0.030615 0.024540
0.736513 0.031056 0.025099
0.764505 0.031498 0.025658
0.792496 0.031939 0.026217
0.820487 0.032381 0.026776
0.848479 0.032822 0.027336
0.876470 0.033264 0.027895
0.904462 0.033705 0.028454
0.932453 0.034147 0.029013
0.029948 0.049905 0.012899
0.058762 0.050359 0.013475
0.087577 0.050814 0.014050
0.116392 0.051268 0.014626
0.145206 0.051722 0.015201
0.174021 0.052177 0.015777
0.202835 0.052631 0.016352
0.231650 0.053086 0.016928
0.260465 0.053540 0.017504
0.289279 0.053995 0.018079
0.317765 0.054444 0.018648
0.345756 0.054886 0.019207
0.373747 0.055327 0.019767
0.401739 0.055769 0.020326
0.429730 0.056210 0.020885
0.457721 0.056652 0.021444
0.485713 0.057093 0.022003
0.513704 0.057535 0.022562
0.541695 0.057976 0.023121
0.569687 0.058418 0.023680
0.597678 0.058859 0.024240
0.625669 0.059301 0.024799
0.653661 0.059742 0.025358
0.681652 0.060184 0.025917
0.709644 0.060625 0.026476
0.737635 0.061067 0.027035
0.765626 0.061508 0.027594
0.793618 0.061950 0.028154
0.821609 0.062391 0.028713
0.849600 0.062833 0.029272
0.877592 0.063274 0.029831
0.905583 0.063716 0.030390
0.933574 0.064157 0.030949
0.031069 0.079915 0.014835
0.059884 0.080369 0.015411
0.088698 0.080824 0.015986
0.117513 0.081278 0.016562
0.146328 0.081733 0.017138
0.175142 0.082187 0.017713
0.203957 0.082642 0.018289
0.232772 0.083096 0.018864
0.261586 0.083551 0.019440
0.290401 0.084005 0.020016
0.318886 0.084454 0.020585
0.346877 0.084896 0.021144
0.374869 0.085337 0.021703
0.402860 0.085779 0.022262
0.430852 0.086220 0.022821
0.458843 0.086662 0.023380
0.486834 0.087103 0.023939
0.514826 0.087545 0.024498
0.542817 0.087986 0.025058
0.570808 0.088428 0.025617
0.598800 0.088869 0.026176
0.626791 0.089311 0.026735
0.654782 0.089752 0.027294
0.682774 0.090194 0.027853
0.710765 0.090635 0.028412
0.738756 0.091077 0.028972
0.766748 0.091518 0.029531
0.794739 0.091960 0.030090
0.822730 0.092401 0.030649
0.850722 0.092843 0.031208
0.878713 0.093284 0.031767
0.906705 0.093726 0.032326
0.934696 0.094167 0.032886
0.032191 0.109925 0.016772
0.061005 0.110379 0.017347
0.089820 0.110834 0.017923
0.118635 0.111288 0.018498
0.147449 0.111743 0.019074
0.176264 0.112197 0.019649
0.205078 0.112652 0.020225
0.233893 0.113106 0.020801
0.262708 0.113561 0.021376
0.291522 0.114015 0.021952
0.320008 0.114464 0.022521
0.347999 0.114906 0.023080
0.375990 0.115347 0.023639
0.403982 0.115789 0.024198
0.431973 0.116230 0.024757
0.459964 0.116672 0.025317
0.487956 0.117113 0.025876
0.515947 0.117555 0.026435
0.543938 0.117996 0.026994
0.571930 0.118438 0.027553
0.599921 0.118879 0.028112
0.627913 0.119321 0.028671
0.655904 0.119762 0.029230
0.683895 0.120204 0.029790
0.711887 0.120645 0.030349
0.739878 0.121087 0.030908
0.767869 0.121528 0.031467
0.795861 0.121970 0.032026
0.823852 0.122411 0.032585
0.851843 0.122853 0.033144
0.879835 0.123294 0.033704
0.907826 0.123736 0.034263
0.935817 0.124177 0.034822
0.033312 0.139935 0.018708
0.062127 0.140389 0.019283
0.090941 0.140844 0.019859
0.119756 0.141298 0.020435
0.148571 0.141753 0.021010
0.177385 0.142207 0.021586
0.206200 0.142662 0.022161
0.235015 0.143116 0.022737
0.263829 0.143571 0.023313
0.292644 0.144025 0.023888
0.321129 0.144475 0.024457
0.349120 0.144916 0.025016
0.377112 0.145358 0.025575
0.405103 0.145799 0.026135
0.433095 0.146241 0.026694
0.461086 0.146682 0.027253
0.489077 0.147124 0.027812
0.517069 0.147565 0.028371
0.545060 0.148007 0.028930
0.573051 0.148448 0.029489
0.601043 0.148890 0.030049
0.629034 0.149331 0.030608
0.657025 0.149773 0.031167
0.685017 0.150214 0.031726
0.713008 0.150656 0.032285
0.740999 0.151097 0.032844
0.768991 0.151539 0.033403
0.796982 0.151980 0.033962
0.824973 0.152422 0.034522
0.852965 0.152863 0.035081
0.880956 0.153305 0.035640
0.908948 0.153746 0.036199
0.936939 0.154188 0.036758
0.034434 0.169945 0.020644
0.063248 0.170400 0.021220
0.092063 0.170854 0.021795
0.120878 0.171309 0.022371
0.149692 0.171763 0.022947
0.178507 0.172218 0.023522
0.207321 0.172672 0.024098
0.236136 0.173127 0.024673
0.264951 0.173581 0.025249
0.293765 0.174035 0.025824
0.322251 0.174485 0.026393
0.350242 0.174926 0.026953
0.378233 0.175368 0.027512
0.406225 0.175809 0.028071
0.434216 0.176251 0.028630
0.462207 0.176692 0.029189
0.490199 0.177134 0.029748
0.518190 0.177575 0.030307
0.546181 0.178017 0.030867
0.574173 0.178458 0.031426
0.602164 0.178900 0.031985
0.630156 0.179341 0.032544
0.658147 0.179783 0.033103
0.686138 0.180224 0.033662
0.714130 0.180666 0.034221
0.742121 0.181107 0.034781
0.770112 0.181549 0.035340
0.798104 0.181990 0.035899
0.826095 0.182432 0.036458
0.854086 0.182873 0.037017
0.882078 0.183315 0.037576
0.910069 0.183756 0.038135
0.938060 0.184198 0.038694
0.035555 0.199955 0.022580
0.064370 0.200410 0.023156
0.093184 0.200864 0.023732
0.121999 0.201319 0.024307
0.150814 0.201773 0.024883
0.179628 0.202228 0.025458
0.208443 0.202682 0.026034
0.237258 0.203137 0.026610
0.266072 0.203591 0.027185
0.294887 0.204046 0.027761
0.323372 0.204495 0.028330
0.351363 0.204936 0.028889
0.379355 0.205378 0.029448
0.407346 0.205819 0.030007
0.435338 0.206261 0.030566
0.463329 0.206702 0.031125
0.491320 0.207144 0.031685
0.519312 0.207585 0.032244
0.547303 0.208027 0.032803
0.575294 0.208468 0.033362
0.603286 0.208910 0.033921
0.631277 0.209351 0.034480
0.659268 0.209793 0.035039
0.687260 0.210234 0.035599
0.715251 0.210676 0.036158
0.743242 0.211117 0.036717
0.771234 0.211559 0.037276
0.799225 0.212000 0.037835
0.827217 0.212442 0.038394
0.855208 0.212883 0.038953
0.883199 0.213325 0.039513
0.911191 0.213766 0.040072
0.939182 0.214208 0.040631
0.036677 0.229965 0.024517
0.065491 0.230420 0.025092
0.094306 0.230874 0.025668
0.123121 0.231329 0.026244
0.151935 0.231783 0.026819
0.180750 0.232238 0.027395
0.209564 0.232692 0.027970
0.238379 0.233147 0.028546
0.267194 0.233601 0.029121
0.296008 0.234056 0.029697
0.324494 0.234505 0.030266
0.352485 0.234947 0.030825
0.380476 0.235388 0.031384
0.408468 0.235830 0.031943
0.436459 0.236271 0.032503
0.464450 0.236713 0.033062
0.492442 0.237154 0.033621
0.520433 0.237596 0.034180
0.548424 0.238037 0.034739
0.576416 0.238479 0.035298
0.604407 0.238920 0.035857
0.632399 0.239362 0.036417
0.660390 0.239803 0.036976
0.688381 0.240245 0.037535
0.716373 0.240686 0.038094
0.744364 0.241128 0.038653
0.772355 0.241569 0.039212
0.800347 0.242011 0.039771
0.828338 0.242452 0.040331
0.856329 0.242894 0.040890
0.884321 0.243335 0.041449
0.912312 0.243777 0.042008
0.940303 0.244218 0.042567
0.037798 0.259976 0.026453
0.066613 0.260430 0.027029
0.095427 0.260885 0.027604
0.124242 0.261339 0.028180
0.153057 0.261794 0.028755
0.181871 0.262248 0.029331
0.210686 0.262703 0.029907
0.239501 0.263157 0.030482
0.268315 0.263611 0.031058
0.297130 0.264066 0.031633
0.325615 0.264515 0.032202
0.353607 0.264957 0.032761
0.381598 0.265398 0.033321
0.409589 0.265840 0.033880
0.437581 0.266281 0.034439
0.465572 0.266723 0.034998
0.493563 0.267164 0.035557
0.521555 0.267606 0.036116
0.549546 0.268047 0.036675
0.577537 0.268489 0.037235
0.605529 0.268930 0.037794
0.633520 0.269372 0.038353
0.661511 0.269813 0.038912
0.689503 0.270255 0.039471
0.717494 0.270696 0.040030
0.745485 0.271138 0.040589
0.773477 0.271579 0.041149
0.801468 0.272021 0.041708
0.829460 0.272462 0.042267
0.857451 0.272904 0.042826
0.885442 0.273345 0.043385
0.913434 0.273787 0.043944
0.941425 0.274228 0.044503
0.038920 0.289986 0.028389
0.067734 0.290440 0.028965
0.096549 0.290895 0.029541
0.125364 0.291349 0.030116
0.154178 0.291804 0.030692
0.182993 0.292258 0.031267
0.211807 0.292713 0.031843
0.240622 0.293167 0.032418
0.269437 0.293622 0.032994
0.298251 0.294076 0.033570
0.326737 0.294525 0.034139
0.354728 0.294967 0.034698
0.382719 0.295408 0.035257
0.410711 0.295850 0.035816
0.438702 0.296291 0.036375
0.466693 0.296733 0.036934
0.494685 0.297174 0.037493
0.522676 0.297616 0.038053
0.550668 0.298057 0.038612
0.578659 0.298499 0.039171
0.606650 0.298940 0.039730
0.634642 0.299382 0.040289
0.662633 0.299823 0.040848
0.690624 0.300265 0.041407
0.718616 0.300706 0.041967
0.746607 0.301148 0.042526
0.774598 0.301589 0.043085
0.802590 0.302031 0.043644
0.830581 0.302472 0.044203
0.858572 0.302914 0.044762
0.886564 0.303355 0.045321
0.914555 0.303797 0.045881
0.942546 0.304238 0.046440
0.040028 0.319653 0.030304
0.068843 0.320107 0.030879
0.097658 0.320562 0.031455
0.126472 0.321016 0.032030
0.155287 0.321471 0.032606
0.184102 0.321925 0.033181
0.212916 0.322380 0.033757
0.241731 0.322834 0.034333
0.270545 0.323289 0.034908
0.299360 0.323743 0.035484
0.327845 0.324193 0.036053
0.355837 0.324634 0.036612
0.383828 0.325076 0.037171
0.411819 0.325517 0.037730
0.439811 0.325959 0.038289
0.467802 0.326400 0.038848
0.495793 0.326842 0.039408
0.523785 0.327283 0.039967
0.551776 0.327725 0.040526
0.579768 0.328166 0.041085
0.607759 0.328608 0.041644
0.635750 0.329049 0.042203
0.663742 0.329491 0.042762
0.691733 0.329932 0.043322
0.719724 0.330374 0.043881
0.747716 0.330815 0.044440
0.775707 0.331257 0.044999
0.803698 0.331698 0.045558
0.831690 0.332140 0.046117
0.859681 0.332581 0.046676
0.887672 0.333023 0.047236
0.915664 0.333464 0.047795
0.943655 0.333906 0.048354
0.041118 0.348806 0.032185
0.069932 0.349260 0.032760
0.098747 0.349715 0.033336
0.127562 0.350169 0.033911
0.156376 0.350624 0.034487
0.185191 0.351078 0.035062
0.214006 0.351533 0.035638
0.242820 0.351987 0.036214
0.271635 0.352442 0.036789
0.300450 0.352896 0.037365
0.328935 0.353345 0.037934
0.356926 0.353787 0.038493
0.384918 0.354228 0.039052
0.412909 0.354670 0.039611
0.440900 0.355111 0.040170
0.468892 0.355553 0.040729
0.496883 0.355994 0.041289
0.524874 0.356436 0.041848
0.552866 0.356877 0.042407
0.580857 0.357319 0.042966
0.608848 0.357760 0.043525
0.636840 0.358202 0.044084
0.664831 0.358643 0.044643
0.692822 0.359085 0.045203
0.720814 0.359526 0.045762
0.748805 0.359968 0.046321
0.776796 0.360409 0.046880
0.804788 0.360851 0.047439
0.832779 0.361292 0.047998
0.860771 0.361734 0.048557
0.888762 0.362175 0.049117
0.916753 0.362617 0.049676
0.944745 0.363058 0.050235
0.042207 0.377958 0.034065
0.071022 0.378413 0.034641
0.099837 0.378867 0.035217
0.128651 0.379322 0.035792
0.157466 0.379776 0.036368
0.186280 0.380231 0.036943
0.215095 0.380685 0.037519
0.243910 0.381140 0.038095
0.272724 0.381594 0.038670
0.301539 0.382049 0.039246
0.330024 0.382498 0.039815
0.358016 0.382940 0.040374
0.386007 0.383381 0.040933
0.413998 0.383823 0.041492
0.441990 0.384264 0.042051
0.469981 0.384706 0.042610
0.497972 0.385147 0.043170
0.525964 0.385589 0.043729
0.553955 0.386030 0.044288
0.581946 0.386471 0.044847
0.609938 0.386913 0.045406
0.637929 0.387354 0.045965
0.665921 0.387796 0.046524
0.693912 0.388237 0.047084
0.721903 0.388679 0.047643
0.749895 0.389120 0.048202
0.777886 0.389562 0.048761
0.805877 0.390003 0.049320
0.833869 0.390445 0.049879
0.861860 0.390886 0.050438
0.889851 0.391328 0.050998
0.917843 0.391769 0.051557
0.945834 0.392211 0.052116
0.043297 0.407111 0.035946
0.072111 0.407566 0.036522
0.100926 0.408020 0.037098
0.129741 0.408475 0.037673
0.158555 0.408929 0.038249
0.187370 0.409384 0.038824
0.216185 0.409838 0.039400
0.244999 0.410292 0.039976
0.273814 0.410747 0.040551
0.302628 0.411201 0.041127
0.331114 0.411651 0.041696
0.359105 0.412092 0.042255
0.387096 0.412534 0.042814
0.415088 0.412975 0.043373
0.443079 0.413417 0.043932
0.471071 0.413858 0.044491
0.499062 0.414300 0.045051
0.527053 0.414741 0.045610
0.555045 0.415183 0.046169
0.583036 0.415624 0.046728
0.611027 0.416066 0.047287
0.639019 0.416507 0.047846
0.667010 0.416949 0.048405
0.695001 0.417390 0.048965
0.722993 0.417832 0.049524
0.750984 0.418273 0.050083
0.778975 0.418715 0.050642
0.806967 0.419156 0.051201
0.834958 0.419598 0.051760
0.862949 0.420039 0.052319
0.890941 0.420481 0.052879
0.918937 0.420922 0.053433
0.947047 0.421365 0.053875
0.044386 0.436264 0.037827
0.073201 0.436718 0.038403
0.102016 0.437173 0.038979
0.130830 0.437627 0.039554
0.159645 0.438082 0.040130
0.188459 0.438536 0.040705
0.217274 0.438991 0.041281
0.246089 0.439445 0.041857
0.274903 0.439900 0.042432
0.303718 0.440354 0.043008
0.332203 0.440803 0.043577
0.360195 0.441245 0.044136
0.388186 0.441686 0.044695
0.416177 0.442128 0.045254
0.444169 0.442569 0.045813
0.472160 0.443011 0.046372
0.500151 0.443452 0.046932
0.528143 0.443894 0.047491
0.556134 0.444335 0.048050
0.584125 0.444777 0.048609
0.612117 0.445218 0.049168
0.640108 0.445660 0.049727
0.668099 0.446101 0.050286
0.696091 0.446543 0.050846
0.724082 0.446984 0.051405
0.752074 0.447426 0.051964
0.780065 0.447867 0.052523
0.808056 0.448309 0.053082
0.836096 0.448751 0.053594
0.864206 0.449194 0.054037
0.892316 0.449636 0.054479
0.920427 0.450079 0.054922
0.948537 0.450522 0.055365
0.045476 0.465417 0.039708
0.074290 0.465871 0.040284
0.103105 0.466326 0.040860
0.131920 0.466780 0.041435
0.160734 0.467234 0.042011
0.189549 0.467689 0.042586
0.218363 0.468143 0.043162
0.247178 0.468598 0.043738
0.275993 0.469052 0.044313
0.304807 0.469507 0.044889
0.333293 0.469956 0.045458
0.361284 0.470398 0.046017
0.389275 0.470839 0.046576
0.417267 0.471281 0.047135
0.445258 0.471722 0.047694
0.473249 0.472164 0.048253
0.501241 0.472605 0.048813
0.529232 0.473047 0.049372
0.557224 0.473488 0.049931
0.585215 0.473930 0.050490
0.613206 0.474371 0.051049
0.641198 0.474813 0.051608
0.669189 0.475254 0.052167
0.697180 0.475696 0.052726
0.725172 0.476137 0.053286
0.753255 0.476580 0.053755
0.781365 0.477022 0.054198
0.809475 0.477465 0.054641
0.837585 0.477908 0.055083
0.865696 0.478351 0.055526
0.893806 0.478793 0.055969
0.921916 0.479236 0.056412
0.950026 0.479679 0.056854
0.046565 0.494569 0.041589
0.075380 0.495024 0.042165
0.104194 0.495478 0.042741
0.133009 0.495933 0.043316
0.161824 0.496387 0.043892
0.190638 0.496842 0.044467
0.219453 0.497296 0.045043
0.248268 0.497751 0.045618
0.277082 0.498205 0.046194
0.305897 0.498660 0.046770
0.334382 0.499109 0.047339
0.362374 0.499550 0.047898
0.390365 0.499992 0.048457
0.418356 0.500433 0.049016
0.446348 0.500875 0.049575
0.474339 0.501316 0.050134
0.502330 0.501758 0.050694
0.530322 0.502199 0.051253
0.558313 0.502641 0.051812
0.586304 0.503082 0.052371
0.614296 0.503524 0.052930
0.642303 0.503966 0.053474
0.670413 0.504408 0.053916
0.698524 0.504851 0.054359
0.726634 0.505294 0.054802
0.754744 0.505736 0.055244
0.782854 0.506179 0.055687
0.810964 0.506622 0.056130
0.839075 0.507065 0.056573
0.867185 0.507507 0.057015
0.895295 0.507950 0.057458
0.923405 0.508393 0.057901
0.951516 0.508836 0.058344
0.047655 0.523722 0.043470
0.076469 0.524176 0.044046
0.105284 0.524631 0.044622
0.134099 0.525085 0.045197
0.162913 0.525540 0.045773
0.191728 0.525994 0.046348
0.220542 0.526449 0.046924
0.249357 0.526903 0.047499
0.278172 0.527358 0.048075
0.306986 0.527812 0.048651
0.335472 0.528262 0.049220
0.363463 0.528703 0.049779
0.391454 0.529145 0.050338
0.419446 0.529586 0.050897
0.447437 0.530028 0.051456
0.475428 0.530469 0.052015
0.503420 0.530911 0.052574
0.531411 0.531352 0.053134
0.559462 0.531794 0.053635
0.587572 0.532237 0.054077
0.615682 0.532680 0.054520
0.643792 0.533122 0.054963
0.671903 0.533565 0.055406
0.700013 0.534008 0.055848
0.728123 0.534451 0.056291
0.756233 0.534893 0.056734
0.784344 0.535336 0.057177
0.812454 0.535779 0.057619
0.840564 0.536222 0.058062
0.868674 0.536664 0.058505
0.896785 0.537107 0.058948
0.924895 0.537550 0.059390
0.953005 0.537993 0.059833
0.048744 0.552875 0.045351
0.077559 0.553329 0.045927
0.106373 0.553784 0.046503
0.135188 0.554238 0.047078
0.164003 0.554693 0.047654
0.192817 0.555147 0.048229
0.221632 0.555602 0.048805
0.250447 0.556056 0.049380
0.279261 0.556511 0.049956
0.308076 0.556965 0.050532
0.336561 0.557414 0.051101
0.364552 0.557856 0.051660
0.392544 0.558297 0.052219
0.420535 0.558739 0.052778
0.448527 0.559180 0.053337
0.476620 0.559623 0.053796
0.504731 0.560066 0.054239
0.532841 0.560508 0.054681
0.560951 0.560951 0.055124
0.589061 0.561394 0.055567
0.617172 0.561837 0.056010
0.645282 0.562279 0.056452
0.673392 0.562722 0.056895
0.701502 0.563165 0.057338
0.729613 0.563608 0.057781
0.757723 0.564050 0.058223
0.785833 0.564493 0.058666
0.813943 0.564936 0.059109
0.842054 0.565379 0.059552
0.870164 0.565821 0.059994
0.898274 0.566264 0.060437
0.926384 0.566707 0.060880
0.954494 0.567149 0.061322
0.049834 0.582027 0.047232
0.078648 0.582482 0.047808
0.107463 0.582936 0.048384
0.136277 0.583391 0.048959
0.165092 0.583845 0.049535
0.193907 0.584300 0.050110
0.222721 0.584754 0.050686
0.251536 0.585209 0.051261
0.280351 0.585663 0.051837
0.309165 0.586118 0.052413
0.337651 0.586567 0.052982
0.365669 0.587009 0.053514
0.393779 0.587452 0.053957
0.421889 0.587894 0.054400
0.450000 0.588337 0.054843
0.478110 0.588780 0.055285
0.506220 0.589223 0.055728
0.534330 0.589665 0.056171
0.562441 0.590108 0.056614
0.590551 0.590551 0.057056
0.618661 0.590994 0.057499
0.646771 0.591436 0.057942
0.674881 0.591879 0.058384
0.702992 0.592322 0.058827
0.731102 0.592764 0.059270
0.759212 0.593207 0.059713
0.787322 0.593650 0.060155
0.815433 0.594093 0.060598
0.843543 0.594535 0.061041
0.871653 0.594978 0.061484
0.899763 0.595421 0.061926
0.927874 0.595864 0.062369
0.955984 0.596306 0.062812
0.050923 0.611180 0.049113
0.079738 0.611635 0.049689
0.108552 0.612089 0.050264
0.137367 0.612544 0.050840
0.166182 0.612998 0.051416
0.194996 0.613453 0.051991
0.223811 0.613907 0.052567
0.252625 0.614362 0.053142
0.281505 0.614817 0.053655
0.310442 0.615272 0.054110
0.339048 0.615723 0.054561
0.367158 0.616166 0.055004
0.395269 0.616609 0.055447
0.423379 0.617051 0.055889
0.451489 0.617494 0.056332
0.479599 0.617937 0.056775
0.507709 0.618379 0.057217
0.535820 0.618822 0.057660
0.563930 0.619265 0.058103
0.592040 0.619708 0.058546
0.620150 0.620150 0.058988
0.648261 0.620593 0.059431
0.676371 0.621036 0.059874
0.704481 0.621479 0.060317
0.732591 0.621921 0.060759
0.760702 0.622364 0.061202
0.788812 0.622807 0.061645
0.816922 0.623250 0.062088
0.845032 0.623692 0.062530
0.873143 0.624135 0.062973
0.901253 0.624578 0.063416
0.929363 0.625021 0.063859
0.957473 0.625463 0.064301
0.052013 0.640333 0.050994
0.080827 0.640787 0.051570
0.109642 0.641242 0.052145
0.138456 0.641696 0.052721
0.167271 0.642151 0.053297
0.196183 0.642606 0.053777
0.225120 0.643062 0.054233
0.254057 0.643518 0.054688
0.282994 0.643974 0.055144
0.311931 0.644429 0.055600
0.340537 0.644880 0.056050
0.368648 0.645323 0.056493
0.396758 0.645765 0.056936
0.424868 0.646208 0.057379
0.452978 0.646651 0.057821
0.481089 0.647094 0.058264
0.509199 0.647536 0.058707
0.537309 0.647979 0.059150
0.565419 0.648422 0.059592
0.593530 0.648865 0.060035
0.621640 0.649307 0.060478
0.649750 0.649750 0.060921
0.677860 0.650193 0.061363
0.705971 0.650636 0.061806
0.734081 0.651078 0.062249
0.762191 0.651521 0.062692
0.790301 0.651964 0.063134
0.818411 0.652406 0.063577
0.846522 0.652849 0.064020
0.874632 0.653292 0.064462
0.902742 0.653735 0.064905
0.930852 0.654177 0.065348
0.958963 0.654620 0.065791
0.053102 0.669486 0.052875
0.081924 0.669940 0.053443
0.110861 0.670396 0.053899
0.139798 0.670852 0.054355
0.168735 0.671307 0.054810
0.197672 0.671763 0.055266
0.226609 0.672219 0.055722
0.255547 0.672675 0.056178
0.284484 0.673131 0.056634
0.313421 0.673586 0.057089
0.342027 0.674037 0.057540
0.370137 0.674480 0.057983
0.398247 0.674922 0.058425
0.426358 0.675365 0.058868
0.454468 0.675808 0.059311
0.482578 0.676251 0.059754
0.510688 0.676693 0.060196
0.538799 0.677136 0.060639
0.566909 0.677579 0.061082
0.595019 0.678021 0.061524
0.623129 0.678464 0.061967
0.651239 0.678907 0.062410
0.679350 0.679350 0.062853
0.707460 0.679792 0.063295
0.735570 0.680235 0.063738
0.763680 0.680678 0.064181
0.791791 0.681121 0.064624
0.819901 0.681563 0.065066
0.848011 0.682006 0.065509
0.876121 0.682449 0.065952
0.904232 0.682892 0.066395
0.932342 0.683334 0.066837
0.960452 0.683777 0.067280
0.054477 0.698641 0.054477
0.083414 0.699097 0.054933
0.112351 0.699553 0.055388
0.141288 0.700009 0.055844
0.170225 0.700464 0.056300
0.199162 0.700920 0.056756
0.228099 0.701376 0.057211
0.257036 0.701832 0.057667
0.285973 0.702287 0.058123
0.314910 0.702743 0.058579
0.343516 0.703194 0.059029
0.371626 0.703636 0.059472
0.399737 0.704079 0.059915
0.427847 0.704522 0.060357
0.455957 0.704965 0.060800
0.484067 0.705407 0.061243
0.512178 0.705850 0.061686
0.540288 0.706293 0.062128
0.568398 0.706736 0.062571
0.596508 0.707178 0.063014
0.624619 0.707621 0.063457
0.652729 0.708064 0.063899
0.680839 0.708507 0.064342
0.708949 0.708949 0.064785
0.737060 0.709392 0.065228
0.765170 0.709835 0.065670
0.793280 0.710278 0.066113
0.821390 0.710720 0.066556
0.849501 0.711163 0.066999
0.877611 0.711606 0.067441
0.905721 0.712049 0.067884
0.933831 0.712491 0.068327
0.961942 0.712934 0.068770
0.055966 0.727798 0.055966
0.084903 0.728254 0.056422
0.113840 0.728710 0.056878
0.142777 0.729166 0.057334
0.171714 0.729621 0.057789
0.200651 0.730077 0.058245
0.229588 0.730533 0.058701
0.258525 0.730989 0.059157
0.287462 0.731444 0.059612
0.316399 0.731900 0.060068
0.345006 0.732351 0.060519
0.373116 0.732793 0.060961
0.401226 0.733236 0.061404
0.429336 0.733679 0.061847
0.457447 0.734122 0.062290
0.485557 0.734564 0.062732
0.513667 0.735007 0.063175
0.541777 0.735450 0.063618
0.569888 0.735893 0.064061
0.597998 0.736335 0.064503
0.626108 0.736778 0.064946
0.654218 0.737221 0.065389
0.682329 0.737664 0.065832
0.710439 0.738106 0.066274
0.738549 0.738549 0.066717
0.766659 0.738992 0.067160
0.794769 0.739434 0.067602
0.822880 0.739877 0.068045
0.850990 0.740320 0.068488
0.879100 0.740763 0.068931
0.907210 0.741205 0.069373
0.935321 0.741648 0.069816
0.963431 0.742091 0.070259
0.057456 0.756955 0.057456
0.086393 0.757411 0.057911
0.115330 0.757867 0.058367
0.144267 0.758322 0.058823
0.173204 0.758778 0.059279
0.202141 0.759234 0.059734
0.231078 0.759690 0.060190
0.260015 0.760145 0.060646
0.288952 0.760601 0.061102
0.317889 0.761057 0.061557
0.346495 0.761508 0.062008
0.374605 0.761950 0.062451
0.402716 0.762393 0.062894
0.430826 0.762836 0.063336
0.458936 0.763278 0.063779
0.487046 0.763721 0.064222
0.515156 0.764164 0.064664
0.543267 0.764607 0.065107
0.571377 0.765049 0.065550
0.599487 0.765492 0.065993
0.627597 0.765935 0.066435
0.655708 0.766378 0.066878
0.683818 0.766820 0.067321
0.711928 0.767263 0.067764
0.740038 0.767706 0.068206
0.768149 0.768149 0.068649
0.796259 0.768591 0.069092
0.824369 0.769034 0.069535
0.852479 0.769477 0.069977
0.880590 0.769920 0.070420
0.908700 0.770362 0.070863
0.936810 0.770805 0.071306
0.964920 0.771248 0.071748
0.058945 0.786112 0.058945
0.087882 0.786568 0.059401
0.116819 0.787024 0.059857
0.145756 0.787479 0.060312
0.174693 0.787935 0.060768
0.203630 0.788391 0.061224
0.232567 0.788847 0.061680
0.261504 0.789302 0.062135
0.290441 0.789758 0.062591
0.319378 0.790214 0.063047
0.347984 0.790664 0.063497
0.376095 0.791107 0.063940
0.404205 0.791550 0.064383
0.432315 0.791993 0.064826
0.460425 0.792435 0.065268
0.488536 0.792878 0.065711
0.516646 0.793321 0.066154
0.544756 0.793764 0.066597
0.572866 0.794206 0.067039
0.600977 0.794649 0.067482
0.629087 0.795092 0.067925
0.657197 0.795535 0.068368
0.685307 0.795977 0.068810
0.713418 0.796420 0.069253
0.741528 0.796863 0.069696
0.769638 0.797306 0.070139
0.797748 0.797748 0.070581
0.825859 0.798191 0.071024
0.853969 0.798634 0.071467
