luts/cinema_warm.cube
TITLE "Camera Sony Venice"
LUT_3D_SIZE 5
0.028826 0.019894 0.010963
0.259343 0.023530 0.015567
0.484591 0.027083 0.020067
0.708522 0.030615 0.024540
0.932453 0.034147 0.029013
0.037798 0.259976 0.026453
0.268315 0.263611 0.031058
0.493563 0.267164 0.035557
0.717494 0.270696 0.040030
0.941425 0.274228 0.044503
0.046565 0.494569 0.041589
0.277082 0.498205 0.046194
0.502330 0.501758 0.050694
0.726634 0.505294 0.054802
0.951516 0.508836 0.058344
0.055966 0.727798 0.055966
0.287462 0.731444 0.059612
0.513667 0.735007 0.063175
0.738549 0.738549 0.066717
0.963431 0.742091 0.070259
0.067881 0.961053 0.067881
0.299378 0.964700 0.071528
0.525582 0.968262 0.075090
0.750464 0.971804 0.078632
0.975346 0.975346 0.082174
0.029732 0.021129 0.240376
0.260249 0.024765 0.244981
0.485497 0.028318 0.249481
0.709428 0.031850 0.253954
0.933359 0.035382 0.258427
0.038704 0.261210 0.255867
0.269221 0.264846 0.260472
0.494469 0.268399 0.264971
0.718400 0.271931 0.269444
0.942331 0.275463 0.273917
0.047471 0.495804 0.271003
0.277988 0.499440 0.275608
0.503236 0.502993 0.280107
0.727872 0.506532 0.283890
0.952754 0.510074 0.287432
0.057204 0.729036 0.285054
0.288701 0.732683 0.288701
0.514905 0.736245 0.292263
0.739787 0.739787 0.295805
0.964669 0.743329 0.299347
0.069120 0.962292 0.296970
0.300616 0.965938 0.300616
0.526821 0.969501 0.304179
0.751702 0.973042 0.307720
0.976584 0.976584 0.311262
0.030617 0.022336 0.464546
0.261134 0.025972 0.469151
0.486382 0.029524 0.473651
0.710313 0.033056 0.478124
0.934244 0.036588 0.482597
0.039589 0.262417 0.480037
0.270106 0.266053 0.484642
0.495354 0.269606 0.489141
0.719285 0.273137 0.493614
0.943216 0.276669 0.498087
0.048356 0.497011 0.495173
0.278873 0.500646 0.499778
0.504200 0.504200 0.504200
0.729082 0.507742 0.507742
0.953964 0.511284 0.511284
0.058414 0.730246 0.508906
0.289910 0.733892 0.512552
0.516115 0.737455 0.516115
0.740997 0.740997 0.519657
0.965879 0.744539 0.523199
0.070330 0.963502 0.520822
0.301826 0.967148 0.524468
0.528030 0.970710 0.528030
0.752912 0.974252 0.531572
0.977794 0.977794 0.535114
0.031497 0.023535 0.687406
0.262014 0.027171 0.692010
0.487262 0.030724 0.696510
0.711193 0.034256 0.700983
0.935124 0.037788 0.705456
0.040469 0.263616 0.702896
0.270986 0.267252 0.707501
0.496234 0.270805 0.712000
0.720165 0.274337 0.716473
0.944096 0.277869 0.720946
0.049236 0.498210 0.718032
0.279753 0.501846 0.722637
0.505403 0.505403 0.726743
0.730285 0.508945 0.730285
0.955167 0.512487 0.733827
0.059617 0.731449 0.731449
0.291113 0.735095 0.735095
0.517318 0.738658 0.738658
0.742200 0.742200 0.742200
0.967082 0.745742 0.745742
0.071532 0.964704 0.743364
0.303029 0.968351 0.747011
0.529233 0.971913 0.750573
0.754115 0.975455 0.754115
0.978997 0.978997 0.757657
0.032377 0.024735 0.910265
0.262894 0.028370 0.914869
0.488142 0.031923 0.919369
0.712073 0.035455 0.923842
0.936003 0.038987 0.928315
0.041349 0.264816 0.925755
0.271866 0.268452 0.930360
0.497114 0.272004 0.934859
0.721045 0.275536 0.939332
0.944975 0.279068 0.943805
0.050116 0.499410 0.940891
0.280633 0.503045 0.945496
0.506606 0.506606 0.949286
0.731488 0.510148 0.952828
0.956370 0.513690 0.956370
0.060820 0.732652 0.953992
0.292316 0.736298 0.957638
0.518521 0.739861 0.961201
0.743403 0.743403 0.964743
0.968285 0.746945 0.968285
0.072735 0.965907 0.965907
0.304231 0.969553 0.969553
0.530436 0.973116 0.973116
0.755318 0.976658 0.976658
0.980200 0.980200 0.980200
