luts/cinema_warm.cube
TITLE "Camera Sony Venice"
LUT_3D_SIZE 9
0.028826 0.019894 0.010963
0.144085 0.021712 0.013265
0.259343 0.023530 0.015567
0.372626 0.025317 0.017830
0.484591 0.027083 0.020067
0.596557 0.028849 0.022303
0.708522 0.030615 0.024540
0.820487 0.032381 0.026776
0.932453 0.034147 0.029013
0.033312 0.139935 0.018708
0.148571 0.141753 0.021010
0.263829 0.143571 0.023313
0.377112 0.145358 0.025575
0.489077 0.147124 0.027812
0.601043 0.148890 0.030049
0.713008 0.150656 0.032285
0.824973 0.152422 0.034522
0.936939 0.154188 0.036758
0.037798 0.259976 0.026453
0.153057 0.261794 0.028755
0.268315 0.263611 0.031058
0.381598 0.265398 0.033321
0.493563 0.267164 0.035557
0.605529 0.268930 0.037794
0.717494 0.270696 0.040030
0.829460 0.272462 0.042267
0.941425 0.274228 0.044503
0.042207 0.377958 0.034065
0.157466 0.379776 0.036368
0.272724 0.381594 0.038670
0.386007 0.383381 0.040933
0.497972 0.385147 0.043170
0.609938 0.386913 0.045406
0.721903 0.388679 0.047643
0.833869 0.390445 0.049879
0.945834 0.392211 0.052116
0.046565 0.494569 0.041589
0.161824 0.496387 0.043892
0.277082 0.498205 0.046194
0.390365 0.499992 0.048457
0.502330 0.501758 0.050694
0.614296 0.503524 0.052930
0.726634 0.505294 0.054802
0.839075 0.507065 0.056573
0.951516 0.508836 0.058344
0.050923 0.611180 0.049113
0.166182 0.612998 0.051416
0.281505 0.614817 0.053655
0.395269 0.616609 0.055447
0.507709 0.618379 0.057217
0.620150 0.620150 0.058988
0.732591 0.621921 0.060759
0.845032 0.623692 0.062530
0.957473 0.625463 0.064301
0.055966 0.727798 0.055966
0.171714 0.729621 0.057789
0.287462 0.731444 0.059612
0.401226 0.733236 0.061404
0.513667 0.735007 0.063175
0.626108 0.736778 0.064946
0.738549 0.738549 0.066717
0.850990 0.740320 0.068488
0.963431 0.742091 0.070259
0.061924 0.844426 0.061924
0.177672 0.846249 0.063747
0.293420 0.848072 0.065570
0.407184 0.849864 0.067362
0.519625 0.851635 0.069133
0.632066 0.853406 0.070904
0.744507 0.855177 0.072675
0.856948 0.856948 0.074446
0.969389 0.858719 0.076217
0.067881 0.961053 0.067881
0.183630 0.962877 0.069705
0.299378 0.964700 0.071528
0.413141 0.966491 0.073319
0.525582 0.968262 0.075090
0.638023 0.970033 0.076861
0.750464 0.971804 0.078632
0.862905 0.973575 0.080403
0.975346 0.975346 0.082174
0.029279 0.020512 0.125670
0.144537 0.022330 0.127972
0.259796 0.024148 0.130274
0.373079 0.025934 0.132537
0.485044 0.027700 0.134774
0.597009 0.029466 0.137010
0.708975 0.031232 0.139247
0.820940 0.032998 0.141483
0.932906 0.034764 0.143720
0.033765 0.140552 0.133415
0.149024 0.142370 0.135717
0.264282 0.144188 0.138019
0.377565 0.145975 0.140282
0.489530 0.147741 0.142519
0.601496 0.149507 0.144755
0.713461 0.151273 0.146992
0.825426 0.153039 0.149229
0.937392 0.154805 0.151465
0.038251 0.260593 0.141160
0.153510 0.262411 0.143462
0.268768 0.264229 0.145765
0.382051 0.266016 0.148027
0.494016 0.267782 0.150264
0.605982 0.269548 0.152501
0.717947 0.271314 0.154737
0.829912 0.273080 0.156974
0.941878 0.274846 0.159210
0.042660 0.378576 0.148772
0.157919 0.380394 0.151075
0.273177 0.382212 0.153377
0.386460 0.383998 0.155640
0.498425 0.385764 0.157876
0.610391 0.387530 0.160113
0.722356 0.389296 0.162350
0.834322 0.391062 0.164586
0.946287 0.392828 0.166823
0.047018 0.495187 0.156296
0.162277 0.497005 0.158599
0.277535 0.498823 0.160901
0.390818 0.500609 0.163164
0.502783 0.502375 0.165400
0.614812 0.504142 0.167575
0.727253 0.505913 0.169346
0.839694 0.507684 0.171117
0.952135 0.509455 0.172888
0.051376 0.611798 0.163820
0.166634 0.613615 0.166123
0.282124 0.615436 0.168199
0.395888 0.617228 0.169991
0.508329 0.618999 0.171762
0.620770 0.620770 0.173533
0.733210 0.622540 0.175303
0.845651 0.624311 0.177074
0.958092 0.626082 0.178845
0.056585 0.728417 0.170510
0.172333 0.730240 0.172333
0.288081 0.732063 0.174156
0.401845 0.733855 0.175948
0.514286 0.735626 0.177719
0.626727 0.737397 0.179490
0.739168 0.739168 0.181261
0.851609 0.740939 0.183032
0.964050 0.742710 0.184803
0.062543 0.845045 0.176468
0.178291 0.846868 0.178291
0.294039 0.848691 0.180114
0.407803 0.850483 0.181906
0.520244 0.852254 0.183677
0.632685 0.854025 0.185448
0.745126 0.855796 0.187219
0.857567 0.857567 0.188990
0.970008 0.859338 0.190761
0.068501 0.961673 0.182426
0.184249 0.963496 0.184249
0.299997 0.965319 0.186072
0.413760 0.967110 0.187863
0.526201 0.968881 0.189634
0.638642 0.970652 0.191405
0.751083 0.972423 0.193176
0.863524 0.974194 0.194947
0.975965 0.975965 0.196718
0.029732 0.021129 0.240376
0.144990 0.022947 0.242679
0.260249 0.024765 0.244981
0.373532 0.026552 0.247244
0.485497 0.028318 0.249481
0.597462 0.030084 0.251717
0.709428 0.031850 0.253954
0.821393 0.033616 0.256190
0.933359 0.035382 0.258427
0.034218 0.141170 0.248122
0.149476 0.142988 0.250424
0.264735 0.144806 0.252726
0.378018 0.146592 0.254989
0.489983 0.148358 0.257226
0.601948 0.150124 0.259462
0.713914 0.151890 0.261699
0.825879 0.153656 0.263935
0.937845 0.155422 0.266172
0.038704 0.261210 0.255867
0.153962 0.263028 0.258169
0.269221 0.264846 0.260472
0.382504 0.266633 0.262734
0.494469 0.268399 0.264971
0.606434 0.270165 0.267207
0.718400 0.271931 0.269444
0.830365 0.273697 0.271681
0.942331 0.275463 0.273917
0.043113 0.379193 0.263479
0.158372 0.381011 0.265782
0.273630 0.382829 0.268084
0.386913 0.384616 0.270347
0.498878 0.386382 0.272583
0.610844 0.388148 0.274820
0.722809 0.389914 0.277056
0.834774 0.391680 0.279293
0.946796 0.393446 0.281474
0.047471 0.495804 0.271003
0.162729 0.497622 0.273306
0.277988 0.499440 0.275608
0.391271 0.501227 0.277871
0.503236 0.502993 0.280107
0.615431 0.504761 0.282119
0.727872 0.506532 0.283890
0.840313 0.508303 0.285661
0.952754 0.510074 0.287432
0.051829 0.612415 0.278527
0.167087 0.614233 0.280829
0.282743 0.616055 0.282743
0.396507 0.617847 0.284535
0.508948 0.619618 0.286306
0.621389 0.621389 0.288077
0.733830 0.623160 0.289848
0.846271 0.624931 0.291619
0.958712 0.626702 0.293390
0.057204 0.729036 0.285054
0.172953 0.730860 0.286878
0.288701 0.732683 0.288701
0.402464 0.734474 0.290492
0.514905 0.736245 0.292263
0.627346 0.738016 0.294034
0.739787 0.739787 0.295805
0.852228 0.741558 0.297576
0.964669 0.743329 0.299347
0.063162 0.845664 0.291012
0.178910 0.847487 0.292835
0.294658 0.849310 0.294658
0.408422 0.851102 0.296450
0.520863 0.852873 0.298221
0.633304 0.854644 0.299992
0.745745 0.856415 0.301763
0.858186 0.858186 0.303534
0.970627 0.859957 0.305305
0.069120 0.962292 0.296970
0.184868 0.964115 0.298793
0.300616 0.965938 0.300616
0.414380 0.967730 0.302408
0.526821 0.969501 0.304179
0.639261 0.971271 0.305949
0.751702 0.973042 0.307720
0.864143 0.974813 0.309491
0.976584 0.976584 0.311262
0.030177 0.021736 0.353117
0.145435 0.023554 0.355419
0.260694 0.025372 0.357722
0.373977 0.027159 0.359984
0.485942 0.028925 0.362221
0.597907 0.030691 0.364458
0.709873 0.032457 0.366694
0.821838 0.034222 0.368931
0.933804 0.035988 0.371167
0.034663 0.141777 0.360862
0.149922 0.143594 0.363164
0.265180 0.145412 0.365467
0.378463 0.147199 0.367730
0.490428 0.148965 0.369966
0.602394 0.150731 0.372203
0.714359 0.152497 0.374439
0.826324 0.154263 0.376676
0.938290 0.156029 0.378912
0.039149 0.261817 0.368607
0.154408 0.263635 0.370910
0.269666 0.265453 0.373212
0.382949 0.267240 0.375475
0.494914 0.269006 0.377711
0.606880 0.270772 0.379948
0.718845 0.272538 0.382185
0.830810 0.274304 0.384421
0.942776 0.276070 0.386658
0.043558 0.379800 0.376220
0.158817 0.381618 0.378522
0.274075 0.383436 0.380824
0.387358 0.385223 0.383087
0.499323 0.386989 0.385324
0.611289 0.388755 0.387560
0.723254 0.390521 0.389797
0.835220 0.392287 0.392034
0.947405 0.394055 0.394055
0.047916 0.496411 0.383744
0.163175 0.498229 0.386046
0.278433 0.500047 0.388348
0.391716 0.501833 0.390611
0.503681 0.503599 0.392848
0.616040 0.505370 0.394700
0.728480 0.507140 0.396470
0.840921 0.508911 0.398241
0.953362 0.510682 0.400012
0.052274 0.613022 0.391268
0.167603 0.614840 0.393500
0.283351 0.616663 0.395323
0.397115 0.618455 0.397115
0.509556 0.620226 0.398886
0.621997 0.621997 0.400657
0.734438 0.623768 0.402428
0.846879 0.625539 0.404199
0.959320 0.627310 0.405970
0.057813 0.729645 0.397635
0.173561 0.731468 0.399458
0.289309 0.733291 0.401281
0.403073 0.735083 0.403073
0.515514 0.736854 0.404844
0.627955 0.738625 0.406615
0.740396 0.740396 0.408386
0.852837 0.742167 0.410157
0.965278 0.743938 0.411928
0.063771 0.846273 0.403593
0.179519 0.848096 0.405416
0.295267 0.849919 0.407239
0.409030 0.851710 0.409030
0.521471 0.853481 0.410801
0.633912 0.855252 0.412572
0.746353 0.857023 0.414343
0.858794 0.858794 0.416114
0.971235 0.860565 0.417885
0.069728 0.962900 0.409550
0.185476 0.964723 0.411373
0.301224 0.966546 0.413196
0.414988 0.968338 0.414988
0.527429 0.970109 0.416759
0.639870 0.971880 0.418530
0.752311 0.973651 0.420301
0.864752 0.975422 0.422072
0.977193 0.977193 0.423843
0.030617 0.022336 0.464546
0.145875 0.024154 0.466849
0.261134 0.025972 0.469151
0.374417 0.027758 0.471414
0.486382 0.029524 0.473651
0.598347 0.031290 0.475887
0.710313 0.033056 0.478124
0.822278 0.034822 0.480360
0.934244 0.036588 0.482597
0.035103 0.142376 0.472292
0.150361 0.144194 0.474594
0.265620 0.146012 0.476896
0.378903 0.147799 0.479159
0.490868 0.149565 0.481396
0.602833 0.151331 0.483632
0.714799 0.153097 0.485869
0.826764 0.154863 0.488105
0.938730 0.156629 0.490342
0.039589 0.262417 0.480037
0.154847 0.264235 0.482339
0.270106 0.266053 0.484642
0.383389 0.267840 0.486904
0.495354 0.269606 0.489141
0.607319 0.271371 0.491378
0.719285 0.273137 0.493614
0.831250 0.274903 0.495851
0.943216 0.276669 0.498087
0.043998 0.380400 0.487649
0.159257 0.382218 0.489952
0.274515 0.384036 0.492254
0.387798 0.385822 0.494517
0.499763 0.387588 0.496753
0.611729 0.389354 0.498990
0.723694 0.391120 0.501226
0.835659 0.392886 0.503463
0.948006 0.394656 0.505326
0.048356 0.497011 0.495173
0.163614 0.498829 0.497476
0.278873 0.500646 0.499778
0.392156 0.502433 0.502041
0.504200 0.504200 0.504200
0.616641 0.505971 0.505971
0.729082 0.507742 0.507742
0.841523 0.509513 0.509513
0.953964 0.511284 0.511284
0.052714 0.613621 0.502697
0.168205 0.615442 0.504772
0.283953 0.617265 0.506595
0.397717 0.619057 0.508387
0.510158 0.620828 0.510158
0.622599 0.622599 0.511929
0.735040 0.624370 0.513700
0.847480 0.626140 0.515470
0.959921 0.627911 0.517241
0.058414 0.730246 0.508906
0.174162 0.732069 0.510729
0.289910 0.733892 0.512552
0.403674 0.735684 0.514344
0.516115 0.737455 0.516115
0.628556 0.739226 0.517886
0.740997 0.740997 0.519657
0.853438 0.742768 0.521428
0.965879 0.744539 0.523199
0.064372 0.846874 0.514864
0.180120 0.848697 0.516687
0.295868 0.850520 0.518510
0.409632 0.852312 0.520302
0.522073 0.854083 0.522073
0.634514 0.855854 0.523844
0.746955 0.857625 0.525615
0.859396 0.859396 0.527386
0.971837 0.861167 0.529157
0.070330 0.963502 0.520822
0.186078 0.965325 0.522645
0.301826 0.967148 0.524468
0.415590 0.968940 0.526260
0.528030 0.970710 0.528030
0.640471 0.972481 0.529801
0.752912 0.974252 0.531572
0.865353 0.976023 0.533343
0.977794 0.977794 0.535114
0.031057 0.022935 0.575976
0.146315 0.024753 0.578278
0.261574 0.026571 0.580581
0.374857 0.028358 0.582844
0.486822 0.030124 0.585080
0.598787 0.031890 0.587317
0.710753 0.033656 0.589553
0.822718 0.035422 0.591790
0.934684 0.037188 0.594026
0.035543 0.142976 0.583721
0.150801 0.144794 0.586024
0.266060 0.146612 0.588326
0.379343 0.148399 0.590589
0.491308 0.150165 0.592825
0.603273 0.151931 0.595062
0.715239 0.153697 0.597298
0.827204 0.155463 0.599535
0.939170 0.157229 0.601772
0.040029 0.263017 0.591466
0.155287 0.264835 0.593769
0.270546 0.266652 0.596071
0.383829 0.268439 0.598334
0.495794 0.270205 0.600571
0.607759 0.271971 0.602807
0.719725 0.273737 0.605044
0.831690 0.275503 0.607280
0.943656 0.277269 0.609517
0.044438 0.380999 0.599079
0.159697 0.382817 0.601381
0.274955 0.384635 0.603684
0.388238 0.386422 0.605946
0.500203 0.388188 0.608183
0.612169 0.389954 0.610419
0.724134 0.391720 0.612656
0.836167 0.393487 0.614827
0.948608 0.395258 0.616598
0.048796 0.497610 0.606603
0.164054 0.499428 0.608905
0.279313 0.501246 0.611207
0.392596 0.503033 0.613470
0.504801 0.504801 0.615471
0.617242 0.506572 0.617242
0.729683 0.508343 0.619013
0.842124 0.510114 0.620784
0.954565 0.511885 0.622555
0.053154 0.614221 0.614127
0.168806 0.616043 0.616043
0.284554 0.617866 0.617866
0.398318 0.619658 0.619658
0.510759 0.621429 0.621429
0.623200 0.623200 0.623200
0.735641 0.624971 0.624971
0.848082 0.626742 0.626742
0.960523 0.628513 0.628513
0.059016 0.730848 0.620178
0.174764 0.732671 0.622001
0.290512 0.734494 0.623824
0.404276 0.736286 0.625616
0.516717 0.738057 0.627387
0.629158 0.739828 0.629158
0.741599 0.741599 0.630929
0.854040 0.743370 0.632700
0.966480 0.745140 0.634470
0.064973 0.847475 0.626135
0.180721 0.849298 0.627958
0.296470 0.851122 0.629782
0.410233 0.852913 0.631573
0.522674 0.854684 0.633344
0.635115 0.856455 0.635115
0.747556 0.858226 0.636886
0.859997 0.859997 0.638657
0.972438 0.861768 0.640428
0.070931 0.964103 0.632093
0.186679 0.965926 0.633916
0.302427 0.967749 0.635739
0.416191 0.969541 0.637531
0.528632 0.971312 0.639302
0.641073 0.973083 0.641073
0.753514 0.974854 0.642844
0.865955 0.976625 0.644615
0.978396 0.978396 0.646386
0.031497 0.023535 0.687406
0.146755 0.025353 0.689708
0.262014 0.027171 0.692010
0.375296 0.028958 0.694273
0.487262 0.030724 0.696510
0.599227 0.032490 0.698746
0.711193 0.034256 0.700983
0.823158 0.036022 0.703219
0.935124 0.037788 0.705456
0.035983 0.143576 0.695151
0.151241 0.145394 0.697453
0.266500 0.147212 0.699755
0.379782 0.148998 0.702018
0.491748 0.150764 0.704255
0.603713 0.152530 0.706491
0.715679 0.154296 0.708728
0.827644 0.156062 0.710965
0.939610 0.157828 0.713201
0.040469 0.263616 0.702896
0.155727 0.265434 0.705198
0.270986 0.267252 0.707501
0.384269 0.269039 0.709763
0.496234 0.270805 0.712000
0.608199 0.272571 0.714237
0.720165 0.274337 0.716473
0.832130 0.276103 0.718710
0.944096 0.277869 0.720946
0.044878 0.381599 0.710508
0.160136 0.383417 0.712811
0.275395 0.385235 0.715113
0.388678 0.387022 0.717376
0.500643 0.388788 0.719612
0.612608 0.390554 0.721849
0.724574 0.392320 0.724086
0.836768 0.394088 0.726098
0.949209 0.395859 0.727869
0.049236 0.498210 0.718032
0.164494 0.500028 0.720335
0.279753 0.501846 0.722637
0.393035 0.503633 0.724900
0.505403 0.505403 0.726743
0.617844 0.507174 0.728514
0.730285 0.508945 0.730285
0.842726 0.510716 0.732056
0.955167 0.512487 0.733827
0.053660 0.614822 0.725492
0.169408 0.616645 0.727315
0.285156 0.618468 0.729138
0.398920 0.620260 0.730930
0.511360 0.622030 0.732700
0.623801 0.623801 0.734471
0.736242 0.625572 0.736242
0.848683 0.627343 0.738013
0.961124 0.629114 0.739784
0.059617 0.731449 0.731449
0.175365 0.733272 0.733272
0.291113 0.735095 0.735095
0.404877 0.736887 0.736887
0.517318 0.738658 0.738658
0.629759 0.740429 0.740429
0.742200 0.742200 0.742200
0.854641 0.743971 0.743971
0.967082 0.745742 0.745742
0.065575 0.848077 0.737407
0.181323 0.849900 0.739230
0.297071 0.851723 0.741053
0.410835 0.853515 0.742845
0.523276 0.855286 0.744616
0.635717 0.857057 0.746387
0.748158 0.858828 0.748158
0.860599 0.860599 0.749929
0.973040 0.862370 0.751700
0.071532 0.964704 0.743364
0.187281 0.966528 0.745188
0.303029 0.968351 0.747011
0.416792 0.970142 0.748802
0.529233 0.971913 0.750573
0.641674 0.973684 0.752344
0.754115 0.975455 0.754115
0.866556 0.977226 0.755886
0.978997 0.978997 0.757657
0.031937 0.024135 0.798835
0.147195 0.025953 0.801137
0.262454 0.027771 0.803440
0.375736 0.029557 0.805703
0.487702 0.031323 0.807939
0.599667 0.033089 0.810176
0.711633 0.034855 0.812412
0.823598 0.036621 0.814649
0.935563 0.038387 0.816885
0.036423 0.144176 0.806580
0.151681 0.145993 0.808883
0.266940 0.147811 0.811185
0.380222 0.149598 0.813448
0.492188 0.151364 0.815684
0.604153 0.153130 0.817921
0.716119 0.154896 0.820157
0.828084 0.156662 0.822394
0.940049 0.158428 0.824631
0.040909 0.264216 0.814326
0.156167 0.266034 0.816628
0.271426 0.267852 0.818930
0.384708 0.269639 0.821193
0.496674 0.271405 0.823430
0.608639 0.273171 0.825666
0.720605 0.274937 0.827903
0.832570 0.276703 0.830139
0.944536 0.278469 0.832376
0.045318 0.382199 0.821938
0.160576 0.384017 0.824240
0.275835 0.385835 0.826543
0.389118 0.387622 0.828805
0.501083 0.389387 0.831042
0.613048 0.391153 0.833279
0.725014 0.392919 0.835515
0.837370 0.394690 0.837370
0.949810 0.396460 0.839140
0.049676 0.498810 0.829462
0.164934 0.500628 0.831764
0.280193 0.502446 0.834067
0.393563 0.504233 0.836243
0.506004 0.506004 0.838014
0.618445 0.507775 0.839785
0.730886 0.509546 0.841556
0.843327 0.511317 0.843327
0.955768 0.513088 0.845098
0.054261 0.615423 0.836763
0.170009 0.617246 0.838586
0.285757 0.619069 0.840409
0.399521 0.620861 0.842201
0.511962 0.622632 0.843972
0.624403 0.624403 0.845743
0.736844 0.626174 0.847514
0.849285 0.627945 0.849285
0.961726 0.629716 0.851056
0.060219 0.732051 0.842721
0.175967 0.733874 0.844544
0.291715 0.735697 0.846367
0.405479 0.737489 0.848159
0.517920 0.739260 0.849930
0.630360 0.741030 0.851700
0.742801 0.742801 0.853471
0.855242 0.744572 0.855242
0.967683 0.746343 0.857013
0.066176 0.848678 0.848678
0.181924 0.850501 0.850501
0.297672 0.852324 0.852324
0.411436 0.854116 0.854116
0.523877 0.855887 0.855887
0.636318 0.857658 0.857658
0.748759 0.859429 0.859429
0.861200 0.861200 0.861200
0.973641 0.862971 0.862971
0.072134 0.965306 0.854636
0.187882 0.967129 0.856459
0.303630 0.968952 0.858282
0.417394 0.970744 0.860074
0.529835 0.972515 0.861845
0.642276 0.974286 0.863616
0.754717 0.976057 0.865387
0.867158 0.977828 0.867158
0.979599 0.979599 0.868929
0.032377 0.024735 0.910265
0.147635 0.026553 0.912567
0.262894 0.028370 0.914869
0.376176 0.030157 0.917132
0.488142 0.031923 0.919369
0.600107 0.033689 0.921605
0.712073 0.035455 0.923842
0.824038 0.037221 0.926078
0.936003 0.038987 0.928315
0.036863 0.144775 0.918010
0.152121 0.146593 0.920312
0.267380 0.148411 0.922615
0.380662 0.150198 0.924877
0.492628 0.151964 0.927114
0.604593 0.153730 0.929350
0.716559 0.155496 0.931587
0.828524 0.157262 0.933824
0.940489 0.159028 0.936060
0.041349 0.264816 0.925755
0.156607 0.266634 0.928057
0.271866 0.268452 0.930360
0.385148 0.270238 0.932623
0.497114 0.272004 0.934859
0.609079 0.273770 0.937096
0.721045 0.275536 0.939332
0.833010 0.277302 0.941569
0.944975 0.279068 0.943805
0.045758 0.382799 0.933367
0.161016 0.384617 0.935670
0.276275 0.386434 0.937972
0.389557 0.388221 0.940235
0.501523 0.389987 0.942472
0.613488 0.391753 0.944708
0.725530 0.393520 0.946870
0.837971 0.395291 0.948641
0.950412 0.397062 0.950412
0.050116 0.499410 0.940891
0.165374 0.501227 0.943194
0.280633 0.503045 0.945496
0.394165 0.504835 0.947515
0.506606 0.506606 0.949286
0.619047 0.508377 0.951057
0.731488 0.510148 0.952828
0.843929 0.511919 0.954599
0.956370 0.513690 0.956370
0.054862 0.616024 0.948034
0.170611 0.617848 0.949858
0.286359 0.619671 0.951681
0.400122 0.621462 0.953472
0.512563 0.623233 0.955243
0.625004 0.625004 0.957014
0.737445 0.626775 0.958785
0.849886 0.628546 0.960556
0.962327 0.630317 0.962327
0.060820 0.732652 0.953992
0.176568 0.734475 0.955815
0.292316 0.736298 0.957638
0.406080 0.738090 0.959430
0.518521 0.739861 0.961201
0.630962 0.741632 0.962972
0.743403 0.743403 0.964743
0.855844 0.745174 0.966514
0.968285 0.746945 0.968285
0.066778 0.849280 0.959950
0.182526 0.851103 0.961773
0.298274 0.852926 0.963596
0.412038 0.854718 0.965388
0.524479 0.856489 0.967159
0.636920 0.858260 0.968930
0.749360 0.860030 0.970700
0.861801 0.861801 0.972471
0.974242 0.863572 0.974242
0.072735 0.965907 0.965907
0.188483 0.967730 0.967730
0.304231 0.969553 0.969553
0.417995 0.971345 0.971345
0.530436 0.973116 0.973116
0.642877 0.974887 0.974887
0.755318 0.976658 0.976658
0.867759 0.978429 0.978429
0.980200 0.980200 0.980200
