luts/cinema_filmic.cube
TITLE "Camera Blackmagic"
LUT_3D_SIZE 9
0.111298 0.104278 0.097258
0.195009 0.109014 0.101994
0.278719 0.113749 0.106729
0.362430 0.118485 0.111465
0.446141 0.123221 0.116201
0.529851 0.127956 0.120936
0.606121 0.132271 0.125251
0.671229 0.135954 0.128934
0.736338 0.139638 0.132618
0.127229 0.199184 0.113189
0.210940 0.203920 0.117925
0.294650 0.208655 0.122660
0.378361 0.213391 0.127396
0.462072 0.218127 0.132132
0.545782 0.222862 0.136867
0.622052 0.227177 0.141182
0.687160 0.230860 0.144865
0.752269 0.234544 0.148549
0.143160 0.294090 0.129120
0.226871 0.298826 0.133856
0.310581 0.303561 0.138591
0.394292 0.308297 0.143327
0.478003 0.313033 0.148063
0.561713 0.317768 0.152798
0.637983 0.322083 0.157113
0.703091 0.325766 0.160796
0.768200 0.329450 0.164480
0.159091 0.388996 0.145051
0.242802 0.393732 0.149787
0.326513 0.398468 0.154523
0.410223 0.403203 0.159258
0.493934 0.407939 0.163994
0.577645 0.412675 0.168730
0.653914 0.416989 0.173044
0.719023 0.420673 0.176728
0.784131 0.424356 0.180411
0.175022 0.483902 0.160982
0.258733 0.488638 0.165718
0.342444 0.493374 0.170454
0.426154 0.498109 0.175189
0.509865 0.502845 0.179925
0.593576 0.507581 0.184661
0.669845 0.511895 0.188975
0.734954 0.515579 0.192659
0.800062 0.519262 0.196342
0.190953 0.578808 0.176913
0.274664 0.583544 0.181649
0.358375 0.588280 0.186385
0.442085 0.593015 0.191120
0.525796 0.597751 0.195856
0.609507 0.602487 0.200592
0.685776 0.606801 0.204906
0.750885 0.610485 0.208590
0.815993 0.614168 0.212273
0.205704 0.666684 0.191664
0.289415 0.671420 0.196400
0.373126 0.676156 0.201136
0.456836 0.680891 0.205871
0.540547 0.685627 0.210607
0.624258 0.690363 0.215343
0.700527 0.694677 0.219657
0.765636 0.698361 0.223341
0.830744 0.702044 0.227024
0.218685 0.744015 0.204645
0.302396 0.748751 0.209381
0.386107 0.753487 0.214117
0.469817 0.758222 0.218852
0.553528 0.762958 0.223588
0.637239 0.767694 0.228324
0.713508 0.772008 0.232638
0.778617 0.775692 0.236322
0.843725 0.779375 0.240005
0.231666 0.821346 0.217626
0.315377 0.826082 0.222362
0.399087 0.830817 0.227097
0.482798 0.835553 0.231833
0.566509 0.840289 0.236569
0.650219 0.845024 0.241304
0.726489 0.849339 0.245619
0.791597 0.853022 0.249302
0.856706 0.856706 0.252986
0.112906 0.105886 0.177841
0.196617 0.110622 0.182577
0.280328 0.115358 0.187313
0.364038 0.120093 0.192048
0.447749 0.124829 0.196784
0.531460 0.129565 0.201520
0.607729 0.133879 0.205834
0.672838 0.137563 0.209518
0.737946 0.141246 0.213201
0.128837 0.200792 0.193772
0.212548 0.205528 0.198508
0.296259 0.210264 0.203244
0.379969 0.214999 0.207979
0.463680 0.219735 0.212715
0.547391 0.224471 0.217451
0.623660 0.228785 0.221765
0.688769 0.232469 0.225449
0.753877 0.236152 0.229132
0.144768 0.295698 0.209703
0.228479 0.300434 0.214439
0.312190 0.305170 0.219175
0.395900 0.309905 0.223910
0.479611 0.314641 0.228646
0.563322 0.319377 0.233382
0.639591 0.323691 0.237696
0.704700 0.327375 0.241380
0.769808 0.331058 0.245063
0.160699 0.390604 0.225634
0.244410 0.395340 0.230370
0.328121 0.400076 0.235106
0.411831 0.404811 0.239841
0.495542 0.409547 0.244577
0.579253 0.414283 0.249313
0.655523 0.418598 0.253628
0.720631 0.422281 0.257311
0.785739 0.425964 0.260994
0.176631 0.485511 0.241566
0.260341 0.490246 0.246301
0.344052 0.494982 0.251037
0.427763 0.499718 0.255773
0.511473 0.504453 0.260508
0.595184 0.509189 0.265244
0.671454 0.513504 0.269559
0.736562 0.517187 0.273242
0.801670 0.520870 0.276925
0.192562 0.580417 0.257497
0.276272 0.585152 0.262232
0.359983 0.589888 0.266968
0.443694 0.594624 0.271704
0.527404 0.599359 0.276439
0.611115 0.604095 0.281175
0.687385 0.608410 0.285490
0.752493 0.612093 0.289173
0.817601 0.615776 0.292856
0.207313 0.668293 0.272248
0.291023 0.673028 0.276983
0.374734 0.677764 0.281719
0.458445 0.682500 0.286455
0.542155 0.687235 0.291190
0.625866 0.691971 0.295926
0.702136 0.696286 0.300241
0.767244 0.699969 0.303924
0.832352 0.703652 0.307607
0.220294 0.745624 0.285229
0.304004 0.750359 0.289964
0.387715 0.755095 0.294700
0.471426 0.759831 0.299436
0.555136 0.764566 0.304171
0.638847 0.769302 0.308907
0.715117 0.773617 0.313222
0.780225 0.777300 0.316905
0.845333 0.780983 0.320588
0.233274 0.822954 0.298209
0.316985 0.827690 0.302945
0.400696 0.832426 0.307681
0.484406 0.837161 0.312416
0.568117 0.841897 0.317152
0.651828 0.846633 0.321888
0.728097 0.850947 0.326202
0.793206 0.854631 0.329886
0.858314 0.858314 0.333569
0.114515 0.107495 0.258425
0.198225 0.112230 0.263160
0.281936 0.116966 0.267896
0.365646 0.121701 0.272631
0.449357 0.126437 0.277367
0.533068 0.131173 0.282103
0.609338 0.135488 0.286418
0.674446 0.139171 0.290101
0.739554 0.142854 0.293784
0.130446 0.202401 0.274356
0.214156 0.207136 0.279091
0.297867 0.211872 0.283827
0.381578 0.216608 0.288563
0.465288 0.221343 0.293298
0.548999 0.226079 0.298034
0.625269 0.230394 0.302349
0.690377 0.234077 0.306032
0.755485 0.237760 0.309715
0.146377 0.297307 0.290287
0.230087 0.302042 0.295022
0.313798 0.306778 0.299758
0.397509 0.311514 0.304494
0.481219 0.316249 0.309229
0.564930 0.320985 0.313965
0.641200 0.325300 0.318280
0.706308 0.328983 0.321963
0.771416 0.332666 0.325646
0.162308 0.392213 0.306218
0.246018 0.396948 0.310953
0.329729 0.401684 0.315689
0.413440 0.406420 0.320425
0.497150 0.411155 0.325160
0.580861 0.415891 0.329896
0.657131 0.420206 0.334211
0.722239 0.423889 0.337894
0.787347 0.427572 0.341577
0.178239 0.487119 0.322149
0.261949 0.491854 0.326884
0.345660 0.496590 0.331620
0.429371 0.501326 0.336356
0.513081 0.506061 0.341091
0.596792 0.510797 0.345827
0.673062 0.515112 0.350142
0.738170 0.518795 0.353825
0.803278 0.522478 0.357508
0.194170 0.582025 0.338080
0.277881 0.586761 0.342816
0.361591 0.591496 0.347551
0.445302 0.596232 0.352287
0.529013 0.600968 0.357023
0.612723 0.605703 0.361758
0.688993 0.610018 0.366073
0.754101 0.613701 0.369756
0.819210 0.617385 0.373440
0.208921 0.669901 0.352831
0.292632 0.674637 0.357567
0.376342 0.679372 0.362302
0.460053 0.684108 0.367038
0.543764 0.688844 0.371774
0.627474 0.693579 0.376509
0.703744 0.697894 0.380824
0.768852 0.701577 0.384507
0.833961 0.705261 0.388191
0.221902 0.747232 0.365812
0.305612 0.751967 0.370547
0.389323 0.756703 0.375283
0.473034 0.761439 0.380019
0.556744 0.766174 0.384754
0.640455 0.770910 0.389490
0.716725 0.775225 0.393805
0.781833 0.778908 0.397488
0.846941 0.782591 0.401171
0.234883 0.824563 0.378793
0.318593 0.829298 0.383528
0.402304 0.834034 0.388264
0.486015 0.838770 0.393000
0.569725 0.843505 0.397735
0.653436 0.848241 0.402471
0.729706 0.852556 0.406786
0.794814 0.856239 0.410469
0.859922 0.859922 0.414152
0.116096 0.109076 0.337665
0.199807 0.113812 0.342400
0.283517 0.118547 0.347136
0.367228 0.123283 0.351872
0.450939 0.128019 0.356607
0.534649 0.132754 0.361343
0.610919 0.137069 0.365658
0.676027 0.140752 0.369341
0.741136 0.144436 0.373024
0.132027 0.203982 0.353596
0.215738 0.208718 0.358331
0.299448 0.213453 0.363067
0.383159 0.218189 0.367803
0.466870 0.222925 0.372538
0.550580 0.227660 0.377274
0.626850 0.231975 0.381589
0.691958 0.235658 0.385272
0.757067 0.239342 0.388955
0.147958 0.298888 0.369527
0.231669 0.303624 0.374263
0.315379 0.308359 0.378998
0.399090 0.313095 0.383734
0.482801 0.317831 0.388470
0.566511 0.322566 0.393205
0.642781 0.326881 0.397520
0.707889 0.330564 0.401203
0.772998 0.334248 0.404886
0.163889 0.393794 0.385458
0.247600 0.398530 0.390194
0.331311 0.403266 0.394929
0.415021 0.408001 0.399665
0.498732 0.412737 0.404401
0.582443 0.417473 0.409136
0.658712 0.421787 0.413451
0.723821 0.425471 0.417134
0.788929 0.429154 0.420818
0.179820 0.488700 0.401389
0.263531 0.493436 0.406125
0.347242 0.498172 0.410860
0.430952 0.502907 0.415596
0.514663 0.507643 0.420332
0.598374 0.512379 0.425067
0.674643 0.516693 0.429382
0.739752 0.520377 0.433065
0.804860 0.524060 0.436749
0.195751 0.583606 0.417320
0.279462 0.588342 0.422056
0.363173 0.593078 0.426791
0.446883 0.597813 0.431527
0.530594 0.602549 0.436263
0.614305 0.607285 0.440998
0.690574 0.611599 0.445313
0.755683 0.615283 0.448996
0.820791 0.618966 0.452680
0.210502 0.671482 0.432071
0.294213 0.676218 0.436807
0.377924 0.680954 0.441542
0.461634 0.685689 0.446278
0.545345 0.690425 0.451014
0.629056 0.695161 0.455749
0.705325 0.699475 0.460064
0.770434 0.703159 0.463747
0.835542 0.706842 0.467431
0.223483 0.748813 0.445052
0.307194 0.753549 0.449788
0.390905 0.758285 0.454523
0.474615 0.763020 0.459259
0.558326 0.767756 0.463995
0.642037 0.772492 0.468730
0.718306 0.776806 0.473045
0.783415 0.780490 0.476728
0.848523 0.784173 0.480412
0.236464 0.826144 0.458033
0.320175 0.830880 0.462769
0.403885 0.835615 0.467504
0.487596 0.840351 0.472240
0.571307 0.845087 0.476976
0.655017 0.849822 0.481711
0.731287 0.854137 0.486026
0.796395 0.857820 0.489709
0.861504 0.861504 0.493392
0.117660 0.110640 0.416010
0.201370 0.115375 0.420745
0.285081 0.120111 0.425481
0.368792 0.124847 0.430217
0.452502 0.129582 0.434952
0.536213 0.134318 0.439688
0.612483 0.138633 0.444003
0.677591 0.142316 0.447686
0.742699 0.145999 0.451369
0.133591 0.205546 0.431941
0.217301 0.210281 0.436676
0.301012 0.215017 0.441412
0.384723 0.219753 0.446148
0.468433 0.224488 0.450883
0.552144 0.229224 0.455619
0.628414 0.233539 0.459934
0.693522 0.237222 0.463617
0.758630 0.240905 0.467300
0.149522 0.300452 0.447872
0.233232 0.305187 0.452607
0.316943 0.309923 0.457343
0.400654 0.314659 0.462079
0.484364 0.319394 0.466814
0.568075 0.324130 0.471550
0.644345 0.328445 0.475865
0.709453 0.332128 0.479548
0.774561 0.335811 0.483231
0.165453 0.395358 0.463803
0.249163 0.400093 0.468538
0.332874 0.404829 0.473274
0.416585 0.409565 0.478010
0.500295 0.414300 0.482745
0.584006 0.419036 0.487481
0.660276 0.423351 0.491796
0.725384 0.427034 0.495479
0.790492 0.430717 0.499162
0.181384 0.490264 0.479734
0.265095 0.495000 0.484470
0.348805 0.499735 0.489205
0.432516 0.504471 0.493941
0.516227 0.509207 0.498677
0.599937 0.513942 0.503412
0.676207 0.518257 0.507727
0.741315 0.521940 0.511410
0.806423 0.525623 0.515093
0.197315 0.585170 0.495665
0.281026 0.589906 0.500401
0.364736 0.594641 0.505136
0.448447 0.599377 0.509872
0.532158 0.604113 0.514608
0.615868 0.608848 0.519343
0.692138 0.613163 0.523658
0.757246 0.616846 0.527341
0.822355 0.620530 0.531025
0.212066 0.673046 0.510416
0.295777 0.677782 0.515152
0.379487 0.682517 0.519887
0.463198 0.687253 0.524623
0.546909 0.691989 0.529359
0.630619 0.696724 0.534094
0.706889 0.701039 0.538409
0.771997 0.704722 0.542092
0.837106 0.708406 0.545776
0.225047 0.750377 0.523397
0.308757 0.755112 0.528132
0.392468 0.759848 0.532868
0.476179 0.764584 0.537604
0.559889 0.769319 0.542339
0.643600 0.774055 0.547075
0.719870 0.778370 0.551390
0.784978 0.782053 0.555073
0.850086 0.785736 0.558756
0.238028 0.827708 0.536378
0.321738 0.832443 0.541113
0.405449 0.837179 0.545849
0.489160 0.841915 0.550585
0.572870 0.846650 0.555320
0.656581 0.851386 0.560056
0.732851 0.855701 0.564371
0.797959 0.859384 0.568054
0.863067 0.863067 0.571737
0.119223 0.112203 0.494354
0.202934 0.116939 0.499090
0.286644 0.121674 0.503826
0.370355 0.126410 0.508561
0.454066 0.131146 0.513297
0.537776 0.135881 0.518033
0.614046 0.140196 0.522347
0.679154 0.143879 0.526031
0.744263 0.147563 0.529714
0.135154 0.207109 0.510285
0.218865 0.211845 0.515021
0.302576 0.216581 0.519757
0.386286 0.221316 0.524492
0.469997 0.226052 0.529228
0.553708 0.230788 0.533964
0.629977 0.235102 0.538278
0.695086 0.238786 0.541962
0.760194 0.242469 0.545645
0.151085 0.302015 0.526217
0.234796 0.306751 0.530952
0.318507 0.311487 0.535688
0.402217 0.316222 0.540424
0.485928 0.320958 0.545159
0.569639 0.325694 0.549895
0.645908 0.330008 0.554210
0.711017 0.333692 0.557893
0.776125 0.337375 0.561576
0.167016 0.396921 0.542148
0.250727 0.401657 0.546883
0.334438 0.406393 0.551619
0.418148 0.411128 0.556355
0.501859 0.415864 0.561090
0.585570 0.420600 0.565826
0.661839 0.424914 0.570141
0.726948 0.428598 0.573824
0.792056 0.432281 0.577507
0.182947 0.491827 0.558079
0.266658 0.496563 0.562814
0.350369 0.501299 0.567550
0.434079 0.506034 0.572286
0.517790 0.510770 0.577021
0.601501 0.515506 0.581757
0.677770 0.519820 0.586072
0.742879 0.523504 0.589755
0.807987 0.527187 0.593438
0.198879 0.586734 0.574010
0.282589 0.591469 0.578745
0.366300 0.596205 0.583481
0.450011 0.600941 0.588217
0.533721 0.605676 0.592952
0.617432 0.610412 0.597688
0.693702 0.614727 0.602003
0.758810 0.618410 0.605686
0.823918 0.622093 0.609369
0.213630 0.674610 0.588761
0.297340 0.679345 0.593496
0.381051 0.684081 0.598232
0.464762 0.688817 0.602968
0.548472 0.693552 0.607703
0.632183 0.698288 0.612439
0.708453 0.702603 0.616754
0.773561 0.706286 0.620437
0.838669 0.709969 0.624120
0.226610 0.751940 0.601742
0.310321 0.756676 0.606477
0.394032 0.761412 0.611213
0.477742 0.766147 0.615949
0.561453 0.770883 0.620684
0.645164 0.775619 0.625420
0.721433 0.779933 0.629735
0.786542 0.783617 0.633418
0.851650 0.787300 0.637101
0.239591 0.829271 0.614723
0.323302 0.834007 0.619458
0.407013 0.838743 0.624194
0.490723 0.843478 0.628930
0.574434 0.848214 0.633665
0.658145 0.852950 0.638401
0.734414 0.857264 0.642716
0.799523 0.860948 0.646399
0.864631 0.864631 0.650082
0.120709 0.113689 0.568819
0.204420 0.118425 0.573555
0.288131 0.123161 0.578291
0.371841 0.127896 0.583026
0.455552 0.132632 0.587762
0.539263 0.137368 0.592498
0.615532 0.141682 0.596812
0.680641 0.145366 0.600496
0.745749 0.149049 0.604179
0.136640 0.208595 0.584750
0.220351 0.213331 0.589486
0.304062 0.218067 0.594222
0.387772 0.222802 0.598957
0.471483 0.227538 0.603693
0.555194 0.232274 0.608429
0.631463 0.236588 0.612743
0.696572 0.240272 0.616427
0.761680 0.243955 0.620110
0.152571 0.303501 0.600681
0.236282 0.308237 0.605417
0.319993 0.312973 0.610153
0.403703 0.317708 0.614888
0.487414 0.322444 0.619624
0.571125 0.327180 0.624360
0.647394 0.331494 0.628674
0.712503 0.335178 0.632358
0.777611 0.338861 0.636041
0.168503 0.398408 0.616613
0.252213 0.403143 0.621348
0.335924 0.407879 0.626084
0.419634 0.412614 0.630819
0.503345 0.417350 0.635555
0.587056 0.422086 0.640291
0.663326 0.426401 0.644606
0.728434 0.430084 0.648289
0.793542 0.433767 0.651972
0.184434 0.493314 0.632544
0.268144 0.498049 0.637279
0.351855 0.502785 0.642015
0.435566 0.507521 0.646751
0.519276 0.512256 0.651486
0.602987 0.516992 0.656222
0.679257 0.521307 0.660537
0.744365 0.524990 0.664220
0.809473 0.528673 0.667903
0.200365 0.588220 0.648475
0.284075 0.592955 0.653210
0.367786 0.597691 0.657946
0.451497 0.602427 0.662682
0.535207 0.607162 0.667417
0.618918 0.611898 0.672153
0.695188 0.616213 0.676468
0.760296 0.619896 0.680151
0.825404 0.623579 0.683834
0.215116 0.676096 0.663226
0.298826 0.680831 0.667961
0.382537 0.685567 0.672697
0.466248 0.690303 0.677433
0.549958 0.695038 0.682168
0.633669 0.699774 0.686904
0.709939 0.704089 0.691219
0.775047 0.707772 0.694902
0.840155 0.711455 0.698585
0.228097 0.753427 0.676207
0.311807 0.758162 0.680942
0.395518 0.762898 0.685678
0.479229 0.767634 0.690414
0.562939 0.772369 0.695149
0.646650 0.777105 0.699885
0.722920 0.781420 0.704200
0.788028 0.785103 0.707883
0.853136 0.788786 0.711566
0.241077 0.830757 0.689187
0.324788 0.835493 0.693923
0.408499 0.840229 0.698659
0.492209 0.844964 0.703394
0.575920 0.849700 0.708130
0.659631 0.854436 0.712866
0.735900 0.858750 0.717180
0.801009 0.862434 0.720864
0.866117 0.866117 0.724547
0.122079 0.115059 0.637464
0.205790 0.119795 0.642200
0.289501 0.124531 0.646936
0.373211 0.129266 0.651671
0.456922 0.134002 0.656407
0.540633 0.138738 0.661143
0.616902 0.143052 0.665457
0.682011 0.146736 0.669141
0.747119 0.150419 0.672824
0.138010 0.209965 0.653395
0.221721 0.214701 0.658131
0.305432 0.219437 0.662867
0.389142 0.224172 0.667602
0.472853 0.228908 0.672338
0.556564 0.233644 0.677074
0.632833 0.237958 0.681388
0.697942 0.241642 0.685072
0.763050 0.245325 0.688755
0.153941 0.304871 0.669326
0.237652 0.309607 0.674062
0.321363 0.314343 0.678798
0.405073 0.319078 0.683533
0.488784 0.323814 0.688269
0.572495 0.328550 0.693005
0.648764 0.332864 0.697319
0.713873 0.336548 0.701003
0.778981 0.340231 0.704686
0.169872 0.399777 0.685257
0.253583 0.404513 0.689993
0.337294 0.409249 0.694729
0.421004 0.413984 0.699464
0.504715 0.418720 0.704200
0.588426 0.423456 0.708936
0.664696 0.427771 0.713251
0.729804 0.431454 0.716934
0.794912 0.435137 0.720617
0.185804 0.494684 0.701189
0.269514 0.499419 0.705924
0.353225 0.504155 0.710660
0.436936 0.508891 0.715396
0.520646 0.513626 0.720131
0.604357 0.518362 0.724867
0.680627 0.522677 0.729182
0.745735 0.526360 0.732865
0.810843 0.530043 0.736548
0.201735 0.589590 0.717120
0.285445 0.594325 0.721855
0.369156 0.599061 0.726591
0.452867 0.603797 0.731327
0.536577 0.608532 0.736062
0.620288 0.613268 0.740798
0.696558 0.617583 0.745113
0.761666 0.621266 0.748796
0.826774 0.624949 0.752479
0.216486 0.677466 0.731871
0.300196 0.682201 0.736606
0.383907 0.686937 0.741342
0.467618 0.691673 0.746078
0.551328 0.696408 0.750813
0.635039 0.701144 0.755549
0.711309 0.705459 0.759864
0.776417 0.709142 0.763547
0.841525 0.712825 0.767230
0.229467 0.754797 0.744852
0.313177 0.759532 0.749587
0.396888 0.764268 0.754323
0.480599 0.769004 0.759059
0.564309 0.773739 0.763794
0.648020 0.778475 0.768530
0.724290 0.782790 0.772845
0.789398 0.786473 0.776528
0.854506 0.790156 0.780211
0.242447 0.832127 0.757832
0.326158 0.836863 0.762568
0.409869 0.841599 0.767304
0.493579 0.846334 0.772039
0.577290 0.851070 0.776775
0.661001 0.855806 0.781511
0.737270 0.860120 0.785825
0.802379 0.863804 0.789509
0.867487 0.867487 0.793192
0.123449 0.116429 0.706109
0.207160 0.121165 0.710845
0.290871 0.125901 0.715581
0.374581 0.130636 0.720316
0.458292 0.135372 0.725052
0.542003 0.140108 0.729788
0.618272 0.144422 0.734102
0.683381 0.148106 0.737786
0.748489 0.151789 0.741469
0.139380 0.211335 0.722040
0.223091 0.216071 0.726776
0.306802 0.220807 0.731512
0.390512 0.225542 0.736247
0.474223 0.230278 0.740983
0.557934 0.235014 0.745719
0.634203 0.239328 0.750033
0.699312 0.243012 0.753717
0.764420 0.246695 0.757400
0.155311 0.306241 0.737971
0.239022 0.310977 0.742707
0.322733 0.315713 0.747443
0.406443 0.320448 0.752178
0.490154 0.325184 0.756914
0.573865 0.329920 0.761650
0.650134 0.334234 0.765964
0.715243 0.337918 0.769648
0.780351 0.341601 0.773331
0.171242 0.401147 0.753902
0.254953 0.405883 0.758638
0.338664 0.410619 0.763374
0.422374 0.415354 0.768109
0.506085 0.420090 0.772845
0.589796 0.424826 0.777581
0.666066 0.429141 0.781896
0.731174 0.432824 0.785579
0.796282 0.436507 0.789262
0.187174 0.496054 0.769834
0.270884 0.500789 0.774569
0.354595 0.505525 0.779305
0.438306 0.510261 0.784041
0.522016 0.514996 0.788776
0.605727 0.519732 0.793512
0.681997 0.524047 0.797827
0.747105 0.527730 0.801510
0.812213 0.531413 0.805193
0.203105 0.590960 0.785765
0.286815 0.595695 0.790500
0.370526 0.600431 0.795236
0.454237 0.605167 0.799972
0.537947 0.609902 0.804707
0.621658 0.614638 0.809443
0.697928 0.618953 0.813758
0.763036 0.622636 0.817441
0.828144 0.626319 0.821124
0.217856 0.678836 0.800516
0.301566 0.683571 0.805251
0.385277 0.688307 0.809987
0.468988 0.693043 0.814723
0.552698 0.697778 0.819458
0.636409 0.702514 0.824194
0.712679 0.706829 0.828509
0.777787 0.710512 0.832192
0.842895 0.714195 0.835875
0.230837 0.756167 0.813497
0.314547 0.760902 0.818232
0.398258 0.765638 0.822968
0.481969 0.770374 0.827704
0.565679 0.775109 0.832439
0.649390 0.779845 0.837175
0.725660 0.784160 0.841490
0.790768 0.787843 0.845173
0.855876 0.791526 0.848856
0.243817 0.833497 0.826477
0.327528 0.838233 0.831213
0.411239 0.842969 0.835949
0.494949 0.847704 0.840684
0.578660 0.852440 0.845420
0.662371 0.857176 0.850156
0.738640 0.861490 0.854470
0.803749 0.865174 0.858154
0.868857 0.868857 0.861837
