luts/clean_slide_100.cube
TITLE "Kodak Ektachrome E100"
LUT_3D_SIZE 33
0.000000 0.000000 0.092079
0.000000 0.000000 0.090434
0.013310 0.000000 0.088125
0.052813 0.000000 0.085816
0.092316 0.000000 0.083508
0.131819 0.000000 0.081199
0.171321 0.000000 0.078890
0.210824 0.000000 0.076581
0.250327 0.000000 0.074272
0.289830 0.000000 0.071963
0.329260 0.000000 0.069659
0.368580 0.000000 0.067361
0.407901 0.000000 0.065063
0.447222 0.000000 0.062764
0.486542 0.000000 0.060466
0.525863 0.000000 0.058168
0.565184 0.000000 0.055870
0.604504 0.000000 0.053572
0.643825 0.000000 0.051273
0.683146 0.000000 0.048975
0.722466 0.000000 0.046677
0.760913 0.000000 0.044430
0.795865 0.000000 0.042387
0.830817 0.000000 0.040344
0.865769 0.000000 0.038301
0.900720 0.000000 0.036259
0.935672 0.000000 0.034216
0.970624 0.000000 0.032173
1.000000 0.000000 0.030130
1.000000 0.000000 0.028087
1.000000 0.000000 0.026044
1.000000 0.000000 0.024001
1.000000 0.000000 0.021959
0.000000 0.005223 0.084609
0.000000 0.004725 0.082918
0.011346 0.003610 0.080609
0.050848 0.002495 0.078300
0.090351 0.001380 0.075991
0.129854 0.000265 0.073682
0.169357 0.000000 0.071373
0.208859 0.000000 0.069065
0.248362 0.000000 0.066756
0.287865 0.000000 0.064447
0.327295 0.000000 0.062142
0.366615 0.000000 0.059844
0.405936 0.000000 0.057546
0.445257 0.000000 0.055248
0.484578 0.000000 0.052950
0.523898 0.000000 0.050651
0.563219 0.000000 0.048353
0.602540 0.000000 0.046055
0.641860 0.000000 0.043757
0.681181 0.000000 0.041459
0.720502 0.000000 0.039160
0.758949 0.000000 0.036913
0.793900 0.000000 0.034871
0.828852 0.000000 0.032828
0.863804 0.000000 0.030785
0.898756 0.000000 0.028742
0.933707 0.000000 0.026699
0.968659 0.000000 0.024656
1.000000 0.000000 0.022613
1.000000 0.000000 0.020571
1.000000 0.000000 0.018528
1.000000 0.000000 0.016485
1.000000 0.000000 0.014442
0.000000 0.040451 0.077139
0.000000 0.039908 0.075401
0.009381 0.038793 0.073092
0.048884 0.037677 0.070783
0.088386 0.036562 0.068475
0.127889 0.035447 0.066166
0.167392 0.034332 0.063857
0.206895 0.033217 0.061548
0.246397 0.032102 0.059239
0.285900 0.030987 0.056930
0.325330 0.029874 0.054626
0.364651 0.028764 0.052328
0.403971 0.027654 0.050030
0.443292 0.026544 0.047731
0.482613 0.025434 0.045433
0.521933 0.024324 0.043135
0.561254 0.023214 0.040837
0.600575 0.022104 0.038539
0.639896 0.020994 0.036240
0.679216 0.019884 0.033942
0.718537 0.018774 0.031644
0.756984 0.017689 0.029397
0.791936 0.016702 0.027354
0.826887 0.015715 0.025311
0.861839 0.014729 0.023268
0.896791 0.013742 0.021226
0.931743 0.012756 0.019183
0.966694 0.011769 0.017140
1.000000 0.010782 0.015097
1.000000 0.009796 0.013054
1.000000 0.008809 0.011011
1.000000 0.007822 0.008968
1.000000 0.006836 0.006926
0.000000 0.075680 0.069668
0.000000 0.075090 0.067885
0.007416 0.073975 0.065576
0.046919 0.072860 0.063267
0.086422 0.071745 0.060958
0.125924 0.070629 0.058649
0.165427 0.069514 0.056340
0.204930 0.068399 0.054032
0.244433 0.067284 0.051723
0.283935 0.066169 0.049414
0.323365 0.065056 0.047109
0.362686 0.063946 0.044811
0.402007 0.062836 0.042513
0.441327 0.061726 0.040215
0.480648 0.060616 0.037917
0.519969 0.059506 0.035618
0.559289 0.058396 0.033320
0.598610 0.057286 0.031022
0.637931 0.056176 0.028724
0.677252 0.055066 0.026426
0.716572 0.053956 0.024127
0.755019 0.052871 0.021880
0.789971 0.051884 0.019838
0.824923 0.050898 0.017795
0.859874 0.049911 0.015752
0.894826 0.048924 0.013709
0.929778 0.047938 0.011666
0.964729 0.046951 0.009623
0.999681 0.045964 0.007580
1.000000 0.044978 0.005538
1.000000 0.043991 0.003495
1.000000 0.043005 0.001452
1.000000 0.042018 0.000000
0.000000 0.110908 0.062198
0.000000 0.110272 0.060368
0.005451 0.109157 0.058059
0.044954 0.108042 0.055750
0.084457 0.106927 0.053442
0.123960 0.105812 0.051133
0.163462 0.104697 0.048824
0.202965 0.103581 0.046515
0.242468 0.102466 0.044206
0.281971 0.101351 0.041897
0.321400 0.100238 0.039593
0.360721 0.099128 0.037295
0.400042 0.098018 0.034996
0.439363 0.096908 0.032698
0.478683 0.095798 0.030400
0.518004 0.094688 0.028102
0.557325 0.093578 0.025804
0.596645 0.092468 0.023506
0.635966 0.091358 0.021207
0.675287 0.090248 0.018909
0.714607 0.089138 0.016611
0.753054 0.088053 0.014364
0.788006 0.087067 0.012321
0.822958 0.086080 0.010278
0.857910 0.085093 0.008235
0.892861 0.084107 0.006192
0.927813 0.083120 0.004150
0.962765 0.082133 0.002107
0.997716 0.081147 0.000064
1.000000 0.080160 0.000000
1.000000 0.079173 0.000000
1.000000 0.078187 0.000000
1.000000 0.077200 0.000000
0.000000 0.146137 0.054728
0.000000 0.145454 0.052852
0.003487 0.144339 0.050543
0.042989 0.143224 0.048234
0.082492 0.142109 0.045925
0.121995 0.140994 0.043616
0.161498 0.139879 0.041307
0.201000 0.138764 0.038999
0.240503 0.137649 0.036690
0.280006 0.136533 0.034381
0.319436 0.135420 0.032076
0.358756 0.134310 0.029778
0.398077 0.133200 0.027480
0.437398 0.132090 0.025182
0.476718 0.130981 0.022884
0.516039 0.129871 0.020585
0.555360 0.128761 0.018287
0.594681 0.127651 0.015989
0.634001 0.126541 0.013691
0.673322 0.125431 0.011393
0.712643 0.124321 0.009094
0.751090 0.123235 0.006847
0.786041 0.122249 0.004804
0.820993 0.121262 0.002762
0.855945 0.120275 0.000719
0.890896 0.119289 0.000000
0.925848 0.118302 0.000000
0.960800 0.117316 0.000000
0.995752 0.116329 0.000000
1.000000 0.115342 0.000000
1.000000 0.114356 0.000000
1.000000 0.113369 0.000000
1.000000 0.112382 0.000000
0.000000 0.181365 0.047257
0.000000 0.180637 0.045335
0.001522 0.179521 0.043026
0.041025 0.178406 0.040717
0.080527 0.177291 0.038409
0.120030 0.176176 0.036100
0.159533 0.175061 0.033791
0.199036 0.173946 0.031482
0.238538 0.172831 0.029173
0.278041 0.171716 0.026864
0.317471 0.170603 0.024560
0.356792 0.169493 0.022262
0.396112 0.168383 0.019963
0.435433 0.167273 0.017665
0.474754 0.166163 0.015367
0.514074 0.165053 0.013069
0.553395 0.163943 0.010771
0.592716 0.162833 0.008473
0.632037 0.161723 0.006174
0.671357 0.160613 0.003876
0.710678 0.159503 0.001578
0.749125 0.158418 0.000000
0.784077 0.157431 0.000000
0.819028 0.156444 0.000000
0.853980 0.155458 0.000000
0.888932 0.154471 0.000000
0.923883 0.153484 0.000000
0.958835 0.152498 0.000000
0.993787 0.151511 0.000000
1.000000 0.150524 0.000000
1.000000 0.149538 0.000000
1.000000 0.148551 0.000000
1.000000 0.147565 0.000000
0.000000 0.216593 0.039787
0.000000 0.215819 0.037819
0.000000 0.214704 0.035510
0.039060 0.213589 0.033201
0.078563 0.212473 0.030892
0.118065 0.211358 0.028583
0.157568 0.210243 0.026274
0.197071 0.209128 0.023966
0.236574 0.208013 0.021657
0.276076 0.206898 0.019348
0.315506 0.205785 0.017043
0.354827 0.204675 0.014745
0.394148 0.203565 0.012447
0.433468 0.202455 0.010149
0.472789 0.201345 0.007851
0.512110 0.200235 0.005552
0.551430 0.199125 0.003254
0.590751 0.198015 0.000956
0.630072 0.196905 0.000000
0.669392 0.195795 0.000000
0.708713 0.194685 0.000000
0.747160 0.193600 0.000000
0.782112 0.192613 0.000000
0.817064 0.191627 0.000000
0.852015 0.190640 0.000000
0.886967 0.189653 0.000000
0.921919 0.188667 0.000000
0.956870 0.187680 0.000000
0.991822 0.186693 0.000000
1.000000 0.185707 0.000000
1.000000 0.184720 0.000000
1.000000 0.183733 0.000000
1.000000 0.182747 0.000000
0.000000 0.251822 0.032317
0.000000 0.251001 0.030302
0.000000 0.249886 0.027993
0.037095 0.248771 0.025684
0.076598 0.247656 0.023376
0.116101 0.246541 0.021067
0.155603 0.245425 0.018758
0.195106 0.244310 0.016449
0.234609 0.243195 0.014140
0.274111 0.242080 0.011831
0.313541 0.240967 0.009527
0.352862 0.239857 0.007229
0.392183 0.238747 0.004930
0.431504 0.237637 0.002632
0.470824 0.236527 0.000334
0.510145 0.235417 0.000000
0.549466 0.234307 0.000000
0.588786 0.233197 0.000000
0.628107 0.232087 0.000000
0.667428 0.230977 0.000000
0.706748 0.229867 0.000000
0.745195 0.228782 0.000000
0.780147 0.227795 0.000000
0.815099 0.226809 0.000000
0.850050 0.225822 0.000000
0.885002 0.224835 0.000000
0.919954 0.223849 0.000000
0.954906 0.222862 0.000000
0.989857 0.221876 0.000000
1.000000 0.220889 0.000000
1.000000 0.219902 0.000000
1.000000 0.218916 0.000000
1.000000 0.217929 0.000000
0.000000 0.287050 0.024846
0.000000 0.286183 0.022786
0.000000 0.285068 0.020477
0.035130 0.283953 0.018168
0.074633 0.282838 0.015859
0.114136 0.281723 0.013550
0.153639 0.280608 0.011241
0.193141 0.279493 0.008933
0.232644 0.278377 0.006624
0.272147 0.277262 0.004315
0.311577 0.276149 0.002010
0.350897 0.275039 0.000000
0.390218 0.273929 0.000000
0.429539 0.272819 0.000000
0.468859 0.271709 0.000000
0.508180 0.270599 0.000000
0.547501 0.269489 0.000000
0.586822 0.268379 0.000000
0.626142 0.267269 0.000000
0.665463 0.266160 0.000000
0.704784 0.265050 0.000000
0.743231 0.263964 0.000000
0.778182 0.262978 0.000000
0.813134 0.261991 0.000000
0.848086 0.261004 0.000000
0.883037 0.260018 0.000000
0.917989 0.259031 0.000000
0.952941 0.258044 0.000000
0.987893 0.257058 0.000000
1.000000 0.256071 0.000000
1.000000 0.255084 0.000000
1.000000 0.254098 0.000000
1.000000 0.253111 0.000000
0.000000 0.322279 0.017376
0.000000 0.321365 0.015269
0.000000 0.320250 0.012960
0.033166 0.319135 0.010651
0.072668 0.318020 0.008343
0.112171 0.316905 0.006034
0.151674 0.315790 0.003725
0.191176 0.314675 0.001416
0.230679 0.313560 0.000000
0.270182 0.312445 0.000000
0.309612 0.311331 0.000000
0.348933 0.310221 0.000000
0.388253 0.309112 0.000000
0.427574 0.308002 0.000000
0.466895 0.306892 0.000000
0.506215 0.305782 0.000000
0.545536 0.304672 0.000000
0.584857 0.303562 0.000000
0.624177 0.302452 0.000000
0.663498 0.301342 0.000000
0.702819 0.300232 0.000000
0.741266 0.299146 0.000000
0.776217 0.298160 0.000000
0.811169 0.297173 0.000000
0.846121 0.296187 0.000000
0.881073 0.295200 0.000000
0.916024 0.294213 0.000000
0.950976 0.293227 0.000000
0.985928 0.292240 0.000000
1.000000 0.291253 0.000000
1.000000 0.290267 0.000000
1.000000 0.289280 0.000000
1.000000 0.288293 0.000000
0.000000 0.357507 0.009906
0.000000 0.356548 0.007753
0.000000 0.355432 0.005444
0.031201 0.354317 0.003135
0.070704 0.353202 0.000826
0.110206 0.352087 0.000000
0.149709 0.350972 0.000000
0.189212 0.349857 0.000000
0.228714 0.348742 0.000000
0.268217 0.347627 0.000000
0.307647 0.346514 0.000000
0.346968 0.345404 0.000000
0.386289 0.344294 0.000000
0.425609 0.343184 0.000000
0.464930 0.342074 0.000000
0.504251 0.340964 0.000000
0.543571 0.339854 0.000000
0.582892 0.338744 0.000000
0.622213 0.337634 0.000000
0.661533 0.336524 0.000000
0.700854 0.335414 0.000000
0.739301 0.334329 0.000000
0.774253 0.333342 0.000000
0.809204 0.332355 0.000000
0.844156 0.331369 0.000000
0.879108 0.330382 0.000000
0.914060 0.329395 0.000000
0.949011 0.328409 0.000000
0.983963 0.327422 0.000000
1.000000 0.326436 0.000000
1.000000 0.325449 0.000000
1.000000 0.324462 0.000000
1.000000 0.323476 0.000000
0.000000 0.392735 0.002435
0.000000 0.391730 0.000236
0.000000 0.390615 0.000000
0.029236 0.389500 0.000000
0.068739 0.388384 0.000000
0.108241 0.387269 0.000000
0.147744 0.386154 0.000000
0.187247 0.385039 0.000000
0.226750 0.383924 0.000000
0.266252 0.382809 0.000000
0.305682 0.381696 0.000000
0.345003 0.380586 0.000000
0.384324 0.379476 0.000000
0.423644 0.378366 0.000000
0.462965 0.377256 0.000000
0.502286 0.376146 0.000000
0.541607 0.375036 0.000000
0.580927 0.373926 0.000000
0.620248 0.372816 0.000000
0.659569 0.371706 0.000000
0.698889 0.370596 0.000000
0.737336 0.369511 0.000000
0.772288 0.368524 0.000000
0.807240 0.367538 0.000000
0.842191 0.366551 0.000000
0.877143 0.365564 0.000000
0.912095 0.364578 0.000000
0.947047 0.363591 0.000000
0.981998 0.362604 0.000000
1.000000 0.361618 0.000000
1.000000 0.360631 0.000000
1.000000 0.359644 0.000000
1.000000 0.358658 0.000000
0.000000 0.427964 0.000000
0.000000 0.426912 0.000000
0.000000 0.425797 0.000000
0.027271 0.424682 0.000000
0.066774 0.423567 0.000000
0.106277 0.422452 0.000000
0.145779 0.421336 0.000000
0.185282 0.420221 0.000000
0.224785 0.419106 0.000000
0.264288 0.417991 0.000000
0.303718 0.416878 0.000000
0.343038 0.415768 0.000000
0.382359 0.414658 0.000000
0.421680 0.413548 0.000000
0.461000 0.412438 0.000000
0.500321 0.411328 0.000000
0.539642 0.410218 0.000000
0.578962 0.409108 0.000000
0.618283 0.407998 0.000000
0.657604 0.406888 0.000000
0.696925 0.405778 0.000000
0.735371 0.404693 0.000000
0.770323 0.403706 0.000000
0.805275 0.402720 0.000000
0.840227 0.401733 0.000000
0.875178 0.400747 0.000000
0.910130 0.399760 0.000000
0.945082 0.398773 0.000000
0.980034 0.397787 0.000000
1.000000 0.396800 0.000000
1.000000 0.395814 0.000000
1.000000 0.394833 0.000000
1.000000 0.393852 0.000000
0.000000 0.463192 0.000000
0.000000 0.462094 0.000000
0.000000 0.460979 0.000000
0.025306 0.459864 0.000000
0.064809 0.458749 0.000000
0.104312 0.457634 0.000000
0.143815 0.456519 0.000000
0.183317 0.455404 0.000000
0.222820 0.454288 0.000000
0.262323 0.453173 0.000000
0.301753 0.452060 0.000000
0.341074 0.450950 0.000000
0.380394 0.449840 0.000000
0.419715 0.448730 0.000000
0.459036 0.447620 0.000000
0.498356 0.446510 0.000000
0.537677 0.445400 0.000000
0.576998 0.444291 0.000000
0.616318 0.443181 0.000000
0.655639 0.442071 0.000000
0.694960 0.440961 0.000000
0.733407 0.439875 0.000000
0.768358 0.438889 0.000000
0.803310 0.437902 0.000000
0.838262 0.436915 0.000000
0.873214 0.435929 0.000000
0.908165 0.434942 0.000000
0.942480 0.433960 0.000000
0.976682 0.432979 0.000000
1.000000 0.431997 0.000000
1.000000 0.431016 0.000000
1.000000 0.430035 0.000000
1.000000 0.429053 0.000000
0.000000 0.498392 0.000000
0.000000 0.497276 0.000000
0.000000 0.496161 0.000000
0.023342 0.495046 0.000000
0.062844 0.493931 0.000000
0.102347 0.492816 0.000000
0.141850 0.491701 0.000000
0.181353 0.490586 0.000000
0.220855 0.489471 0.000000
0.260358 0.488356 0.000000
0.299788 0.487243 0.000000
0.339109 0.486133 0.000000
0.378429 0.485023 0.000000
0.417750 0.483913 0.000000
0.457071 0.482803 0.000000
0.496392 0.481693 0.000000
0.535712 0.480583 0.000000
0.575033 0.479473 0.000000
0.614354 0.478363 0.000000
0.653674 0.477253 0.000000
0.692995 0.476143 0.000000
0.731442 0.475058 0.000000
0.766394 0.474071 0.000000
0.800948 0.473087 0.000000
0.835151 0.472106 0.000000
0.869353 0.471124 0.000000
0.903556 0.470143 0.000000
0.937758 0.469162 0.000000
0.971961 0.468180 0.000000
1.000000 0.467199 0.000000
1.000000 0.466218 0.000000
1.000000 0.465236 0.000000
1.000000 0.464255 0.000000
0.000000 0.533574 0.000000
0.000000 0.532459 0.000000
0.000000 0.531344 0.000000
0.021377 0.530228 0.000000
0.060880 0.529113 0.000000
0.100382 0.527998 0.000000
0.139885 0.526883 0.000000
0.179388 0.525768 0.000000
0.218891 0.524653 0.000000
0.258393 0.523538 0.000000
0.297823 0.522425 0.000000
0.337144 0.521315 0.000000
0.376465 0.520205 0.000000
0.415785 0.519095 0.000000
0.455106 0.517985 0.000000
0.494427 0.516875 0.000000
0.533747 0.515765 0.000000
0.573068 0.514655 0.000000
0.612389 0.513545 0.000000
0.651710 0.512435 0.000000
0.690199 0.511331 0.000000
0.727822 0.510251 0.000000
0.762024 0.509270 0.000000
0.796227 0.508289 0.000000
0.830430 0.507307 0.000000
0.864632 0.506326 0.000000
0.898835 0.505345 0.000000
0.933037 0.504363 0.000000
0.967240 0.503382 0.000000
1.000000 0.502401 0.000000
1.000000 0.501419 0.000000
1.000000 0.500438 0.000000
1.000000 0.499457 0.000000
0.000000 0.568756 0.000000
0.000000 0.567641 0.000000
0.000000 0.566526 0.000000
0.019412 0.565411 0.000000
0.058915 0.564296 0.000000
0.098418 0.563180 0.000000
0.137920 0.562065 0.000000
0.177423 0.560950 0.000000
0.216926 0.559835 0.000000
0.256429 0.558720 0.000000
0.295859 0.557607 0.000000
0.335179 0.556497 0.000000
0.374500 0.555387 0.000000
0.413821 0.554277 0.000000
0.453141 0.553167 0.000000
0.492462 0.552057 0.000000
0.531566 0.550949 0.000000
0.570044 0.549845 0.000000
0.608522 0.548741 0.000000
0.647000 0.547637 0.000000
0.685478 0.546533 0.000000
0.723101 0.545453 0.000000
0.757303 0.544472 0.000000
0.791506 0.543490 0.000000
0.825708 0.542509 0.000000
0.859911 0.541528 0.000000
0.894114 0.540546 0.000000
0.928316 0.539565 0.000000
0.962519 0.538584 0.000000
0.996721 0.537602 0.000000
1.000000 0.536621 0.000000
1.000000 0.535640 0.000000
1.000000 0.534658 0.000000
0.000000 0.603938 0.000000
0.000000 0.602823 0.000000
0.000000 0.601708 0.000000
0.017447 0.600593 0.000000
0.056950 0.599478 0.000000
0.096453 0.598363 0.000000
0.135956 0.597248 0.000000
0.175458 0.596132 0.000000
0.214961 0.595017 0.000000
0.254464 0.593902 0.000000
0.293894 0.592789 0.000000
0.333214 0.591679 0.000000
0.372535 0.590569 0.000000
0.411411 0.589462 0.000000
0.449889 0.588358 0.000000
0.488367 0.587254 0.000000
0.526845 0.586150 0.000000
0.565323 0.585046 0.000000
0.603801 0.583942 0.000000
0.642279 0.582838 0.000000
0.680757 0.581734 0.000000
0.718379 0.580655 0.000000
0.752582 0.579673 0.000000
0.786785 0.578692 0.000000
0.820987 0.577711 0.000000
0.855190 0.576729 0.000000
0.889392 0.575748 0.000000
0.923595 0.574767 0.000000
0.957798 0.573785 0.000000
0.992000 0.572804 0.000000
1.000000 0.571823 0.000000
1.000000 0.570841 0.000000
1.000000 0.569860 0.000000
0.000000 0.639120 0.000000
0.000000 0.638005 0.000000
0.000000 0.636890 0.000000
0.015483 0.635775 0.000000
0.054985 0.634660 0.000000
0.094488 0.633545 0.000000
0.133991 0.632430 0.000000
0.173494 0.631315 0.000000
0.212996 0.630200 0.000000
0.252499 0.629084 0.000000
0.291256 0.627976 0.000000
0.329734 0.626872 0.000000
0.368212 0.625768 0.000000
0.406690 0.624664 0.000000
0.445168 0.623560 0.000000
0.483646 0.622456 0.000000
0.522124 0.621352 0.000000
0.560602 0.620248 0.000000
0.599080 0.619144 0.000000
0.637557 0.618040 0.000000
0.676035 0.616936 0.000000
0.713658 0.615856 0.000000
0.747861 0.614875 0.000000
0.782063 0.613894 0.000000
0.816266 0.612912 0.000000
0.850469 0.611931 0.000000
0.884671 0.610950 0.000000
0.918874 0.609968 0.000000
0.953076 0.608987 0.000000
0.987279 0.608006 0.000000
1.000000 0.607024 0.000000
1.000000 0.606043 0.000000
1.000000 0.605062 0.000000
0.000000 0.674303 0.000000
0.000000 0.673188 0.000000
0.000000 0.672072 0.000000
0.013518 0.670957 0.000000
0.053021 0.669842 0.000000
0.092523 0.668727 0.000000
0.131982 0.667612 0.000000
0.170638 0.666503 0.000000
0.209294 0.665394 0.000000
0.247950 0.664285 0.000000
0.286535 0.663178 0.000000
0.325013 0.662074 0.000000
0.363491 0.660970 0.000000
0.401969 0.659866 0.000000
0.440447 0.658762 0.000000
0.478925 0.657658 0.000000
0.517403 0.656554 0.000000
0.555880 0.655450 0.000000
0.594358 0.654346 0.000000
0.632836 0.653242 0.000000
0.671314 0.652138 0.000000
0.708937 0.651058 0.000000
0.743140 0.650077 0.000000
0.777342 0.649095 0.000000
0.811545 0.648114 0.000000
0.845747 0.647133 0.000000
0.879950 0.646151 0.000000
0.914153 0.645170 0.000000
0.948355 0.644189 0.000000
0.982558 0.643207 0.000000
1.000000 0.642226 0.000000
1.000000 0.641245 0.000000
1.000000 0.640263 0.000000
0.000000 0.708882 0.000000
0.000000 0.707767 0.000000
0.000000 0.706651 0.000000
0.011374 0.705538 0.000000
0.050030 0.704429 0.000000
0.088686 0.703320 0.000000
0.127342 0.702211 0.000000
0.165998 0.701101 0.000000
0.204654 0.699992 0.000000
0.243310 0.698883 0.000000
0.281895 0.697776 0.000000
0.320373 0.696672 0.000000
0.358851 0.695568 0.000000
0.397329 0.694464 0.000000
0.435806 0.693360 0.000000
0.474284 0.692256 0.000000
0.512762 0.691152 0.000000
0.551240 0.690048 0.000000
0.589718 0.688944 0.000000
0.628196 0.687840 0.000000
0.666674 0.686736 0.000000
0.704297 0.685656 0.000000
0.738499 0.684675 0.000000
0.772702 0.683694 0.000000
0.806905 0.682712 0.000000
0.841107 0.681731 0.000000
0.875310 0.680750 0.000000
0.909512 0.679768 0.000000
0.943715 0.678787 0.000000
0.977918 0.677806 0.000000
1.000000 0.676824 0.000000
1.000000 0.675843 0.000000
1.000000 0.674862 0.000000
0.000000 0.741050 0.000000
0.000000 0.739941 0.000000
0.000000 0.738831 0.000000
0.007057 0.737722 0.000000
0.045713 0.736613 0.000000
0.084369 0.735504 0.000000
0.123025 0.734395 0.000000
0.161681 0.733286 0.000000
0.200337 0.732177 0.000000
0.238993 0.731068 0.000000
0.277578 0.729960 0.000000
0.316056 0.728856 0.000000
0.354534 0.727752 0.000000
0.393012 0.726648 0.000000
0.431490 0.725544 0.000000
0.469968 0.724440 0.000000
0.508446 0.723336 0.000000
0.546924 0.722232 0.000000
0.585402 0.721128 0.000000
0.623880 0.720024 0.000000
0.662357 0.718920 0.000000
0.699980 0.717841 0.000000
0.734183 0.716859 0.000000
0.768385 0.715878 0.000000
0.802588 0.714897 0.000000
0.836791 0.713915 0.000000
0.870993 0.712934 0.000000
0.905196 0.711953 0.000000
0.939398 0.710971 0.000000
0.973601 0.709990 0.000000
1.000000 0.709009 0.000000
1.000000 0.708027 0.000000
1.000000 0.707046 0.000000
0.000000 0.773234 0.000000
0.000000 0.772125 0.000000
0.000000 0.771016 0.000000
0.002741 0.769907 0.000000
0.041397 0.768798 0.000000
0.080053 0.767688 0.000000
0.118709 0.766579 0.000000
0.157365 0.765470 0.000000
0.196021 0.764361 0.000000
0.234677 0.763252 0.000000
0.273262 0.762145 0.000000
0.311740 0.761041 0.000000
0.350218 0.759937 0.000000
0.388696 0.758833 0.000000
0.427173 0.757729 0.000000
0.465651 0.756625 0.000000
0.504129 0.755521 0.000000
0.542607 0.754417 0.000000
0.581085 0.753313 0.000000
0.619563 0.752209 0.000000
0.658041 0.751105 0.000000
0.695664 0.750025 0.000000
0.729866 0.749044 0.000000
0.764069 0.748062 0.000000
0.798272 0.747081 0.000000
0.832474 0.746100 0.000000
0.866677 0.745118 0.000000
0.900879 0.744137 0.000000
0.935082 0.743156 0.000000
0.969285 0.742174 0.000000
1.000000 0.741193 0.000000
1.000000 0.740212 0.000000
1.000000 0.739230 0.000000
0.000000 0.805418 0.000000
0.000000 0.804309 0.000000
0.000000 0.803200 0.000000
0.000000 0.802091 0.000000
0.037080 0.800982 0.000000
0.075736 0.799873 0.000000
0.114392 0.798764 0.000000
0.153048 0.797655 0.000000
0.191704 0.796545 0.000000
0.230360 0.795436 0.000000
0.268945 0.794329 0.000000
0.307423 0.793225 0.000000
0.345901 0.792121 0.000000
0.384379 0.791017 0.000000
0.422857 0.789913 0.000000
0.461335 0.788809 0.000000
0.499813 0.787705 0.000000
0.538291 0.786601 0.000000
0.576769 0.785497 0.000000
0.615247 0.784393 0.000000
0.653724 0.783289 0.000000
0.691347 0.782210 0.000000
0.725550 0.781228 0.000000
0.759752 0.780247 0.000000
0.793955 0.779265 0.000000
0.828158 0.778284 0.000000
0.862360 0.777303 0.000000
0.896563 0.776321 0.000000
0.930765 0.775340 0.000000
0.964968 0.774359 0.000000
0.999171 0.773377 0.000000
1.000000 0.772396 0.000000
1.000000 0.771415 0.000000
0.000000 0.837603 0.000000
0.000000 0.836494 0.000000
0.000000 0.835385 0.000000
0.000000 0.834275 0.000000
0.032764 0.833166 0.000000
0.071420 0.832057 0.000000
0.110076 0.830948 0.000000
0.148732 0.829839 0.000000
0.187388 0.828730 0.000000
0.226044 0.827621 0.000000
0.264629 0.826514 0.000000
0.303107 0.825410 0.000000
0.341585 0.824306 0.000000
0.380063 0.823202 0.000000
0.418540 0.822098 0.000000
0.457018 0.820993 0.000000
0.495496 0.819889 0.000000
0.533974 0.818785 0.000000
0.572452 0.817681 0.000000
0.610930 0.816577 0.000000
0.649408 0.815473 0.000000
0.687031 0.814394 0.000000
0.721233 0.813413 0.000000
0.755436 0.812431 0.000000
0.789639 0.811450 0.000000
0.823841 0.810469 0.000000
0.858044 0.809487 0.000000
0.892246 0.808506 0.000000
0.926449 0.807524 0.000000
0.960652 0.806543 0.000000
0.994854 0.805562 0.000000
1.000000 0.804580 0.000000
1.000000 0.803599 0.000000
0.000000 0.869787 0.000000
0.000000 0.868678 0.000000
0.000000 0.867569 0.000000
0.000000 0.866460 0.000000
0.028447 0.865351 0.000000
0.067103 0.864242 0.000000
0.105759 0.863132 0.000000
0.144415 0.862023 0.000000
0.183071 0.860914 0.000000
0.221727 0.859805 0.000000
0.260312 0.858698 0.000000
0.298790 0.857594 0.000000
0.337268 0.856490 0.000000
0.375746 0.855386 0.000000
0.414224 0.854282 0.000000
0.452702 0.853178 0.000000
0.491180 0.852074 0.000000
0.529658 0.850970 0.000000
0.568136 0.849866 0.000000
0.606614 0.848762 0.000000
0.645091 0.847658 0.000000
0.682714 0.846578 0.000000
0.716917 0.845597 0.000000
0.751119 0.844616 0.000000
0.785322 0.843634 0.000000
0.819525 0.842653 0.000000
0.853727 0.841672 0.000000
0.887930 0.840690 0.000000
0.922132 0.839709 0.000000
