luts/clean_slide_100.cube
TITLE "Kodak Ektachrome E100"
LUT_3D_SIZE 9
0.000000 0.000000 0.092079
0.092316 0.000000 0.083508
0.250327 0.000000 0.074272
0.407901 0.000000 0.065063
0.565184 0.000000 0.055870
0.722466 0.000000 0.046677
0.865769 0.000000 0.038301
1.000000 0.000000 0.030130
1.000000 0.000000 0.021959
0.000000 0.110908 0.062198
0.084457 0.106927 0.053442
0.242468 0.102466 0.044206
0.400042 0.098018 0.034996
0.557325 0.093578 0.025804
0.714607 0.089138 0.016611
0.857910 0.085093 0.008235
0.997716 0.081147 0.000064
1.000000 0.077200 0.000000
0.000000 0.251822 0.032317
0.076598 0.247656 0.023376
0.234609 0.243195 0.014140
0.392183 0.238747 0.004930
0.549466 0.234307 0.000000
0.706748 0.229867 0.000000
0.850050 0.225822 0.000000
0.989857 0.221876 0.000000
1.000000 0.217929 0.000000
0.000000 0.392735 0.002435
0.068739 0.388384 0.000000
0.226750 0.383924 0.000000
0.384324 0.379476 0.000000
0.541607 0.375036 0.000000
0.698889 0.370596 0.000000
0.842191 0.366551 0.000000
0.981998 0.362604 0.000000
1.000000 0.358658 0.000000
0.000000 0.533574 0.000000
0.060880 0.529113 0.000000
0.218891 0.524653 0.000000
0.376465 0.520205 0.000000
0.533747 0.515765 0.000000
0.690199 0.511331 0.000000
0.830430 0.507307 0.000000
0.967240 0.503382 0.000000
1.000000 0.499457 0.000000
0.000000 0.674303 0.000000
0.053021 0.669842 0.000000
0.209294 0.665394 0.000000
0.363491 0.660970 0.000000
0.517403 0.656554 0.000000
0.671314 0.652138 0.000000
0.811545 0.648114 0.000000
0.948355 0.644189 0.000000
1.000000 0.640263 0.000000
0.000000 0.805418 0.000000
0.037080 0.800982 0.000000
0.191704 0.796545 0.000000
0.345901 0.792121 0.000000
0.499813 0.787705 0.000000
0.653724 0.783289 0.000000
0.793955 0.779265 0.000000
0.930765 0.775340 0.000000
1.000000 0.771415 0.000000
0.000000 0.934156 0.000000
0.019814 0.929719 0.000000
0.174438 0.925283 0.000000
0.328635 0.920859 0.000000
0.482547 0.916443 0.000000
0.636458 0.912027 0.000000
0.776689 0.908003 0.000000
0.913499 0.904078 0.000000
1.000000 0.900152 0.000000
0.000000 1.000000 0.000000
0.002548 1.000000 0.000000
0.157172 1.000000 0.000000
0.311369 1.000000 0.000000
0.465281 1.000000 0.000000
0.619192 1.000000 0.000000
0.759423 1.000000 0.000000
0.896233 1.000000 0.000000
1.000000 1.000000 0.000000
0.000000 0.000000 0.254462
0.091470 0.000000 0.245870
0.249481 0.000000 0.236635
0.407055 0.000000 0.227425
0.564337 0.000000 0.218232
0.721620 0.000000 0.209039
0.864922 0.000000 0.200664
1.000000 0.000000 0.192492
1.000000 0.000000 0.184321
0.000000 0.109365 0.224580
0.083611 0.105363 0.215804
0.241622 0.100903 0.206569
0.399196 0.096455 0.197359
0.556478 0.092015 0.188166
0.713761 0.087575 0.178973
0.857063 0.083530 0.170598
0.996870 0.079583 0.162426
1.000000 0.075637 0.154255
0.000000 0.250278 0.194699
0.075752 0.246092 0.185738
0.233762 0.241632 0.176503
0.391337 0.237183 0.167293
0.548619 0.232744 0.158100
0.705902 0.228304 0.148907
0.849204 0.224258 0.140532
0.989011 0.220312 0.132360
1.000000 0.216365 0.124189
0.000000 0.391192 0.164818
0.067892 0.386821 0.155672
0.225903 0.382360 0.146437
0.383477 0.377912 0.137227
0.540760 0.373472 0.128034
0.698043 0.369033 0.118841
0.841345 0.364987 0.110466
0.981152 0.361041 0.102294
1.000000 0.357095 0.094251
0.000000 0.532010 0.134841
0.060033 0.527550 0.125606
0.218044 0.523089 0.116371
0.375618 0.518641 0.107161
0.532901 0.514201 0.097968
0.688165 0.509776 0.093262
0.828396 0.505752 0.091713
0.965206 0.501827 0.090202
1.000000 0.497901 0.088690
0.000000 0.672739 0.104775
0.052174 0.668279 0.095540
0.207261 0.663839 0.092805
0.361457 0.659415 0.091102
0.515369 0.654998 0.089402
0.669281 0.650582 0.087701
0.809511 0.646559 0.086152
0.946322 0.642633 0.084641
1.000000 0.638708 0.083130
0.000000 0.803863 0.091042
0.035047 0.799427 0.089334
0.189671 0.794990 0.087626
0.343868 0.790566 0.085923
0.497779 0.786150 0.084222
0.651691 0.781734 0.082522
0.791922 0.777710 0.080973
0.928732 0.773785 0.079462
1.000000 0.769859 0.077951
0.000000 0.932601 0.085958
0.017781 0.928164 0.084250
0.172405 0.923728 0.082542
0.326602 0.919303 0.080839
0.480513 0.914887 0.079138
0.634425 0.910471 0.077438
0.774656 0.906448 0.075889
0.911466 0.902522 0.074378
1.000000 0.898597 0.072867
0.000000 1.000000 0.080874
0.000515 1.000000 0.079166
0.155139 1.000000 0.077458
0.309336 1.000000 0.075755
0.463247 1.000000 0.074055
0.617159 1.000000 0.072354
0.757390 1.000000 0.070805
0.894200 1.000000 0.069294
1.000000 1.000000 0.067783
0.000000 0.000000 0.416844
0.090623 0.000000 0.408233
0.248634 0.000000 0.398997
0.406208 0.000000 0.389787
0.563491 0.000000 0.380595
0.720774 0.000000 0.371402
0.864076 0.000000 0.363026
1.000000 0.000000 0.354855
1.000000 0.000000 0.346684
0.000000 0.107821 0.386963
0.082764 0.103799 0.378167
0.240775 0.099339 0.368931
0.398349 0.094891 0.359721
0.555632 0.090451 0.350529
0.712915 0.086011 0.341336
0.856217 0.081966 0.332960
0.996024 0.078019 0.324789
1.000000 0.074073 0.316618
0.000000 0.248734 0.357081
0.074905 0.244528 0.348101
0.232916 0.240068 0.338865
0.390490 0.235620 0.329655
0.547773 0.231180 0.320463
0.705056 0.226740 0.311270
0.848358 0.222695 0.302894
0.988165 0.218748 0.294723
1.000000 0.214802 0.286552
0.000000 0.389648 0.327200
0.067046 0.385257 0.318034
0.225057 0.380797 0.308799
0.382631 0.376349 0.299589
0.539914 0.371909 0.290397
0.697197 0.367469 0.281204
0.840499 0.363424 0.272828
0.980306 0.359477 0.264657
1.000000 0.355539 0.259252
0.000000 0.530446 0.297204
0.059187 0.525986 0.287968
0.217198 0.521526 0.278733
0.374772 0.517078 0.269523
0.532055 0.512638 0.260331
0.686132 0.508220 0.258263
0.826362 0.504197 0.256714
0.963173 0.500271 0.255203
1.000000 0.496346 0.253692
0.000000 0.671175 0.267138
0.050603 0.666720 0.259514
0.205227 0.662283 0.257806
0.359424 0.657859 0.256103
0.513335 0.653443 0.254403
0.667247 0.649027 0.252703
0.807478 0.645004 0.251154
0.944288 0.641078 0.249642
1.000000 0.637153 0.248131
0.000000 0.802308 0.256043
0.033013 0.797871 0.254335
0.187637 0.793435 0.252627
0.341834 0.789011 0.250924
0.495746 0.784595 0.249224
0.649657 0.780178 0.247523
0.789888 0.776155 0.245974
0.926698 0.772230 0.244463
1.000000 0.768304 0.242952
0.000000 0.931045 0.250959
0.015747 0.926609 0.249251
0.170371 0.922172 0.247543
0.324568 0.917748 0.245840
0.478480 0.913332 0.244140
0.632391 0.908916 0.242440
0.772622 0.904893 0.240891
0.909432 0.900967 0.239379
1.000000 0.897042 0.237868
0.000000 1.000000 0.245875
0.000000 1.000000 0.244167
0.153105 1.000000 0.242459
0.307302 1.000000 0.240756
0.461214 1.000000 0.239056
0.615125 1.000000 0.237356
0.755356 1.000000 0.235807
0.892166 1.000000 0.234295
1.000000 1.000000 0.232784
0.000000 0.000000 0.565308
0.089850 0.000000 0.556678
0.247861 0.000000 0.547443
0.405435 0.000000 0.538233
0.562717 0.000000 0.529040
0.720000 0.000000 0.519848
0.863302 0.000000 0.511472
1.000000 0.000000 0.503301
1.000000 0.000000 0.495129
0.000000 0.106409 0.535427
0.081991 0.102370 0.526612
0.240002 0.097909 0.517377
0.397576 0.093461 0.508167
0.554858 0.089021 0.498974
0.712141 0.084582 0.489782
0.855443 0.080536 0.481406
0.995250 0.076590 0.473235
1.000000 0.072643 0.465063
0.000000 0.247323 0.505545
0.074132 0.243099 0.496546
0.232142 0.238638 0.487311
0.389717 0.234190 0.478101
0.546999 0.229750 0.468908
0.704282 0.225310 0.459716
0.847584 0.221265 0.451340
0.987391 0.217319 0.443169
1.000000 0.213372 0.434997
0.000000 0.388237 0.475664
0.066272 0.383828 0.466480
0.224283 0.379367 0.457245
0.381857 0.374919 0.448035
0.539140 0.370479 0.438842
0.696423 0.366039 0.429650
0.839725 0.361994 0.421274
0.979532 0.358047 0.413103
1.000000 0.354117 0.410110
0.000000 0.529017 0.445649
0.058413 0.524556 0.436414
0.216424 0.520096 0.427179
0.373998 0.515648 0.417969
0.530361 0.511214 0.410822
0.684273 0.506798 0.409121
0.824503 0.502775 0.407572
0.961314 0.498849 0.406061
1.000000 0.494924 0.404550
0.000000 0.669746 0.415583
0.048744 0.665298 0.410373
0.203368 0.660862 0.408665
0.357565 0.656437 0.406961
0.511476 0.652021 0.405261
0.665388 0.647605 0.403561
0.805619 0.643582 0.402012
0.942429 0.639656 0.400501
1.000000 0.635731 0.398989
0.000000 0.800886 0.406901
0.031154 0.796449 0.405193
0.185778 0.792013 0.403485
0.339975 0.787589 0.401782
0.493887 0.783173 0.400082
0.647798 0.778757 0.398382
0.788029 0.774733 0.396833
0.924839 0.770808 0.395321
1.000000 0.766882 0.393810
0.000000 0.929624 0.401817
0.013888 0.925187 0.400109
0.168512 0.920750 0.398401
0.322709 0.916326 0.396698
0.476621 0.911910 0.394998
0.630532 0.907494 0.393298
0.770763 0.903471 0.391749
0.907573 0.899545 0.390238
1.000000 0.895620 0.388726
0.000000 1.000000 0.396734
0.000000 1.000000 0.395026
0.151246 1.000000 0.393318
0.305443 1.000000 0.391614
0.459355 1.000000 0.389914
0.613266 1.000000 0.388214
0.753497 1.000000 0.386665
0.890307 1.000000 0.385154
1.000000 1.000000 0.383642
0.000000 0.000000 0.704493
0.089124 0.000000 0.695846
0.247135 0.000000 0.686611
0.404709 0.000000 0.677401
0.561992 0.000000 0.668208
0.719275 0.000000 0.659015
0.862577 0.000000 0.650640
1.000000 0.000000 0.642468
1.000000 0.000000 0.634297
0.000000 0.105086 0.674611
0.081265 0.101030 0.665780
0.239276 0.096569 0.656545
0.396850 0.092121 0.647335
0.554133 0.087681 0.638142
0.711416 0.083241 0.628949
0.854718 0.079196 0.620574
0.994525 0.075250 0.612402
1.000000 0.071303 0.604231
0.000000 0.246000 0.644730
0.073406 0.241758 0.635714
0.231417 0.237298 0.626479
0.388991 0.232850 0.617269
0.546274 0.228410 0.608076
0.703557 0.223970 0.598883
0.846859 0.219925 0.590508
0.986666 0.215978 0.582336
1.000000 0.212032 0.574165
0.000000 0.386913 0.614849
0.065547 0.382487 0.605648
0.223558 0.378027 0.596413
0.381132 0.373579 0.587203
0.538415 0.369139 0.578010
0.695698 0.364699 0.568817
0.839000 0.360654 0.560442
0.978455 0.356710 0.553051
1.000000 0.352784 0.551540
0.000000 0.527677 0.584817
0.057688 0.523216 0.575582
0.215699 0.518756 0.566347
0.373273 0.514308 0.557137
0.528618 0.509881 0.552251
0.682530 0.505465 0.550551
0.822760 0.501442 0.549002
0.959571 0.497516 0.547491
1.000000 0.493591 0.545980
0.000000 0.668405 0.554751
0.047001 0.663965 0.551802
0.201625 0.659528 0.550094
0.355822 0.655104 0.548391
0.509733 0.650688 0.546691
0.663645 0.646272 0.544991
0.803876 0.642249 0.543442
0.940686 0.638323 0.541930
1.000000 0.634398 0.540419
0.000000 0.799553 0.548331
0.029411 0.795116 0.546623
0.184035 0.790680 0.544915
0.338232 0.786256 0.543212
0.492144 0.781840 0.541512
0.646055 0.777423 0.539811
0.786286 0.773400 0.538262
0.923096 0.769475 0.536751
1.000000 0.765549 0.535240
0.000000 0.928290 0.543247
0.012145 0.923854 0.541539
0.166769 0.919417 0.539831
0.320966 0.914993 0.538128
0.474878 0.910577 0.536428
0.628789 0.906161 0.534727
0.769020 0.902137 0.533178
0.905830 0.898212 0.531667
1.000000 0.894287 0.530156
0.000000 1.000000 0.538163
0.000000 1.000000 0.536455
0.149503 1.000000 0.534747
0.303700 1.000000 0.533044
0.457612 1.000000 0.531344
0.611523 1.000000 0.529644
0.751754 1.000000 0.528095
0.888564 1.000000 0.526583
1.000000 1.000000 0.525072
0.000000 0.000000 0.843678
0.088399 0.000000 0.835014
0.246410 0.000000 0.825779
0.403984 0.000000 0.816569
0.561267 0.000000 0.807376
0.718549 0.000000 0.798183
0.861852 0.000000 0.789808
1.000000 0.000000 0.781636
1.000000 0.000000 0.773465
0.000000 0.103763 0.813796
0.080540 0.099689 0.804948
0.238551 0.095229 0.795713
0.396125 0.090781 0.786503
0.553408 0.086341 0.777310
0.710690 0.081901 0.768117
0.853993 0.077856 0.759742
0.993799 0.073909 0.751570
1.000000 0.069963 0.743399
0.000000 0.244676 0.783915
0.072681 0.240418 0.774882
0.230692 0.235958 0.765647
0.388266 0.231510 0.756437
0.545549 0.227070 0.747244
0.702831 0.222630 0.738051
0.846133 0.218585 0.729676
0.985940 0.214638 0.721504
1.000000 0.210692 0.713333
0.000000 0.385590 0.754034
0.064822 0.381147 0.744816
0.222833 0.376687 0.735581
0.380407 0.372238 0.726371
0.537690 0.367799 0.717178
0.694972 0.363359 0.707985
0.838274 0.359314 0.699610
0.976712 0.355377 0.694481
1.000000 0.351451 0.692970
0.000000 0.526336 0.723985
0.056963 0.521876 0.714750
0.214974 0.517415 0.705514
0.372548 0.512967 0.696305
0.526875 0.508548 0.693681
0.680787 0.504132 0.691981
0.821017 0.500109 0.690432
0.957828 0.496183 0.688920
1.000000 0.492258 0.687409
0.000000 0.667068 0.694940
0.045258 0.662632 0.693232
0.199882 0.658195 0.691524
0.354079 0.653771 0.689821
0.507990 0.649355 0.688120
0.661902 0.644939 0.686420
0.802133 0.640915 0.684871
0.938943 0.636990 0.683360
1.000000 0.633065 0.681849
0.000000 0.798220 0.689761
0.027668 0.793783 0.688053
0.182292 0.789347 0.686345
0.336489 0.784923 0.684641
0.490400 0.780506 0.682941
0.644312 0.776090 0.681241
0.784543 0.772067 0.679692
0.921353 0.768141 0.678181
1.000000 0.764216 0.676670
0.000000 0.926957 0.684677
0.010402 0.922521 0.682969
0.165026 0.918084 0.681261
0.319223 0.913660 0.679557
0.473135 0.909244 0.677857
0.627046 0.904828 0.676157
0.767277 0.900804 0.674608
0.904087 0.896879 0.673097
1.000000 0.892954 0.671586
0.000000 1.000000 0.679592
0.000000 1.000000 0.677885
0.147760 1.000000 0.676177
0.301957 1.000000 0.674474
0.455869 1.000000 0.672773
0.609780 1.000000 0.671073
0.750011 1.000000 0.669524
0.886821 1.000000 0.668013
1.000000 1.000000 0.666502
0.000000 0.000000 0.979383
0.087692 0.000000 0.970703
0.245703 0.000000 0.961467
0.403277 0.000000 0.952257
0.560559 0.000000 0.943065
0.717842 0.000000 0.933872
0.861144 0.000000 0.925496
1.000000 0.000000 0.917325
1.000000 0.000000 0.909154
0.000000 0.102473 0.949502
0.079833 0.098383 0.940637
0.237844 0.093922 0.931401
0.395418 0.089474 0.922191
0.552700 0.085034 0.912999
0.709983 0.080594 0.903806
0.853285 0.076549 0.895430
0.993092 0.072602 0.887259
1.000000 0.068656 0.879088
0.000000 0.243386 0.919620
0.071974 0.239111 0.910570
0.229984 0.234651 0.901335
0.387559 0.230203 0.892125
0.544841 0.225763 0.882933
0.702124 0.221323 0.873740
0.845426 0.217278 0.865364
0.985233 0.213331 0.857193
1.000000 0.209385 0.849022
0.000000 0.384300 0.889739
0.064114 0.379840 0.880504
0.222125 0.375380 0.871269
0.379699 0.370932 0.862059
0.536982 0.366492 0.852867
0.694265 0.362052 0.843674
0.837567 0.358007 0.835298
0.975013 0.354077 0.832375
1.000000 0.350151 0.830864
0.000000 0.525030 0.859674
0.056255 0.520569 0.850438
0.214266 0.516109 0.841203
0.371264 0.511665 0.833275
0.525175 0.507249 0.831575
0.679087 0.502832 0.829875
0.819318 0.498809 0.828326
0.956128 0.494884 0.826814
1.000000 0.490958 0.825303
0.000000 0.665769 0.832834
0.043558 0.661332 0.831126
0.198182 0.656896 0.829418
0.352379 0.652471 0.827714
0.506291 0.648055 0.826014
0.660202 0.643639 0.824314
0.800433 0.639616 0.822765
0.937243 0.635690 0.821254
1.000000 0.631765 0.819743
0.000000 0.796920 0.827654
0.025968 0.792484 0.825946
0.180593 0.788047 0.824238
0.334789 0.783623 0.822535
0.488701 0.779207 0.820835
0.642613 0.774791 0.819135
0.782843 0.770767 0.817586
0.919654 0.766842 0.816075
1.000000 0.762916 0.814563
0.000000 0.925658 0.822571
0.008702 0.921221 0.820863
0.163327 0.916785 0.819155
0.317523 0.912360 0.817451
0.471435 0.907944 0.815751
0.625347 0.903528 0.814051
0.765577 0.899505 0.812502
0.902388 0.895579 0.810991
1.000000 0.891654 0.809480
0.000000 1.000000 0.817475
0.000000 1.000000 0.815779
0.146061 1.000000 0.814071
0.300257 1.000000 0.812367
0.454169 1.000000 0.810667
0.608081 1.000000 0.808967
0.748311 1.000000 0.807418
0.885122 1.000000 0.805907
1.000000 1.000000 0.804396
0.000000 0.000000 1.000000
0.086989 0.000000 1.000000
0.245000 0.000000 1.000000
0.402574 0.000000 1.000000
0.559857 0.000000 1.000000
0.717140 0.000000 1.000000
0.860442 0.000000 1.000000
1.000000 0.000000 1.000000
1.000000 0.000000 1.000000
0.000000 0.101191 1.000000
0.079130 0.097084 1.000000
0.237141 0.092624 1.000000
0.394715 0.088176 1.000000
0.551998 0.083736 1.000000
0.709280 0.079296 1.000000
0.852583 0.075251 1.000000
0.992389 0.071304 1.000000
1.000000 0.067358 1.000000
0.000000 0.242104 1.000000
0.071271 0.237813 1.000000
0.229282 0.233353 1.000000
0.386856 0.228904 1.000000
0.544139 0.224465 1.000000
0.701421 0.220025 1.000000
0.844723 0.215980 1.000000
0.984530 0.212033 0.992012
1.000000 0.208086 0.983840
0.000000 0.383002 1.000000
0.063412 0.378542 1.000000
0.221423 0.374081 1.000000
0.378997 0.369633 0.996878
0.536280 0.365193 0.987685
0.693562 0.360754 0.978493
0.836514 0.356711 0.970896
0.973324 0.352785 0.969385
1.000000 0.348860 0.967874
0.000000 0.523731 0.994493
0.055553 0.519271 0.985257
0.213564 0.514810 0.976022
0.369575 0.510373 0.970285
0.523487 0.505957 0.968585
0.677399 0.501541 0.966885
0.817629 0.497518 0.965336
0.954440 0.493592 0.963824
1.000000 0.489667 0.962313
0.000000 0.664477 0.969844
0.041870 0.660041 0.968136
0.196494 0.655604 0.966428
0.350691 0.651180 0.964724
0.504602 0.646764 0.963024
0.658514 0.642348 0.961324
0.798745 0.638324 0.959775
0.935555 0.634399 0.958264
1.000000 0.630473 0.956753
0.000000 0.795629 0.964664
0.024280 0.791192 0.962956
0.178904 0.786756 0.961248
0.333101 0.782331 0.959545
0.487013 0.777915 0.957845
0.640924 0.773499 0.956145
0.781155 0.769476 0.954596
0.917965 0.765550 0.953085
1.000000 0.761625 0.951573
0.000000 0.924366 0.959581
0.007014 0.919930 0.957873
0.161638 0.915493 0.956165
0.315835 0.911069 0.954461
0.469747 0.906653 0.952761
0.623658 0.902237 0.951061
0.763889 0.898213 0.949512
0.900699 0.894288 0.948001
1.000000 0.890362 0.946489
0.000000 1.000000 0.954474
0.000000 1.000000 0.952789
0.144372 1.000000 0.951081
0.298569 1.000000 0.949377
0.452481 1.000000 0.947677
0.606392 1.000000 0.945977
0.746623 1.000000 0.944428
0.883433 1.000000 0.942917
1.000000 1.000000 0.941406
0.000000 0.000000 1.000000
0.086811 0.000000 1.000000
0.244777 0.000000 1.000000
0.402306 0.000000 1.000000
0.559544 0.000000 1.000000
0.716782 0.000000 1.000000
0.860043 0.000000 1.000000
0.999811 0.000000 1.000000
1.000000 0.000000 1.000000
0.000000 0.100332 1.000000
0.078805 0.096164 1.000000
0.236771 0.091659 1.000000
0.394301 0.087166 1.000000
0.551539 0.082681 1.000000
0.708777 0.078196 1.000000
0.852038 0.074110 1.000000
0.991805 0.070124 1.000000
1.000000 0.066138 1.000000
0.000000 0.241099 1.000000
0.070800 0.236746 1.000000
0.228766 0.232241 1.000000
0.386295 0.227748 1.000000
0.543533 0.223263 1.000000
0.700771 0.218779 1.000000
0.844032 0.214693 1.000000
0.983828 0.210735 1.000000
1.000000 0.206788 1.000000
0.000000 0.381834 1.000000
0.062794 0.377329 1.000000
0.220760 0.372823 1.000000
0.378294 0.368335 1.000000
0.535577 0.363895 1.000000
0.692860 0.359455 1.000000
0.834825 0.355419 1.000000
0.971636 0.351494 1.000000
1.000000 0.347569 1.000000
0.000000 0.522433 1.000000
0.054850 0.517972 1.000000
0.212861 0.513512 1.000000
0.367887 0.509082 1.000000
0.521798 0.504666 1.000000
0.675710 0.500250 1.000000
0.815941 0.496226 1.000000
0.952751 0.492301 1.000000
1.000000 0.488398 1.000000
0.000000 0.663186 1.000000
0.040181 0.658749 1.000000
0.194805 0.654313 1.000000
0.349002 0.649889 1.000000
0.502925 0.645484 1.000000
0.656863 0.641094 1.000000
0.797116 0.637093 1.000000
0.933950 0.633191 1.000000
1.000000 0.629288 1.000000
0.000000 0.794337 1.000000
0.022604 0.789913 1.000000
0.177254 0.785502 1.000000
0.331476 0.781104 1.000000
0.485413 0.776713 1.000000
0.639351 0.772323 1.000000
0.779605 0.768323 1.000000
0.916438 0.764420 1.000000
1.000000 0.760517 1.000000
0.000000 0.923138 1.000000
0.005414 0.918727 1.000000
0.160064 0.914317 1.000000
0.314287 0.909918 1.000000
0.468224 0.905527 1.000000
0.622161 0.901137 1.000000
0.762415 0.897137 1.000000
0.899248 0.893234 1.000000
1.000000 0.889331 1.000000
0.000000 1.000000 1.000000
0.000000 1.000000 1.000000
0.142875 1.000000 1.000000
0.297097 1.000000 1.000000
0.451034 1.000000 1.000000
0.604972 1.000000 1.000000
0.745226 1.000000 1.000000
0.882059 1.000000 1.000000
1.000000 1.000000 1.000000
