luts/clean_slide_100.cube
TITLE "Kodak Ektachrome E100"
LUT_3D_SIZE 5
0.000000 0.000000 0.092079
0.250327 0.000000 0.074272
0.565184 0.000000 0.055870
0.865769 0.000000 0.038301
1.000000 0.000000 0.021959
0.000000 0.251822 0.032317
0.234609 0.243195 0.014140
0.549466 0.234307 0.000000
0.850050 0.225822 0.000000
1.000000 0.217929 0.000000
0.000000 0.533574 0.000000
0.218891 0.524653 0.000000
0.533747 0.515765 0.000000
0.830430 0.507307 0.000000
1.000000 0.499457 0.000000
0.000000 0.805418 0.000000
0.191704 0.796545 0.000000
0.499813 0.787705 0.000000
0.793955 0.779265 0.000000
1.000000 0.771415 0.000000
0.000000 1.000000 0.000000
0.157172 1.000000 0.000000
0.465281 1.000000 0.000000
0.759423 1.000000 0.000000
1.000000 1.000000 0.000000
0.000000 0.000000 0.416844
0.248634 0.000000 0.398997
0.563491 0.000000 0.380595
0.864076 0.000000 0.363026
1.000000 0.000000 0.346684
0.000000 0.248734 0.357081
0.232916 0.240068 0.338865
0.547773 0.231180 0.320463
0.848358 0.222695 0.302894
1.000000 0.214802 0.286552
0.000000 0.530446 0.297204
0.217198 0.521526 0.278733
0.532055 0.512638 0.260331
0.826362 0.504197 0.256714
1.000000 0.496346 0.253692
0.000000 0.802308 0.256043
0.187637 0.793435 0.252627
0.495746 0.784595 0.249224
0.789888 0.776155 0.245974
1.000000 0.768304 0.242952
0.000000 1.000000 0.245875
0.153105 1.000000 0.242459
0.461214 1.000000 0.239056
0.755356 1.000000 0.235807
1.000000 1.000000 0.232784
0.000000 0.000000 0.704493
0.247135 0.000000 0.686611
0.561992 0.000000 0.668208
0.862577 0.000000 0.650640
1.000000 0.000000 0.634297
0.000000 0.246000 0.644730
0.231417 0.237298 0.626479
0.546274 0.228410 0.608076
0.846859 0.219925 0.590508
1.000000 0.212032 0.574165
0.000000 0.527677 0.584817
0.215699 0.518756 0.566347
0.528618 0.509881 0.552251
0.822760 0.501442 0.549002
1.000000 0.493591 0.545980
0.000000 0.799553 0.548331
0.184035 0.790680 0.544915
0.492144 0.781840 0.541512
0.786286 0.773400 0.538262
1.000000 0.765549 0.535240
0.000000 1.000000 0.538163
0.149503 1.000000 0.534747
0.457612 1.000000 0.531344
0.751754 1.000000 0.528095
1.000000 1.000000 0.525072
0.000000 0.000000 0.979383
0.245703 0.000000 0.961467
0.560559 0.000000 0.943065
0.861144 0.000000 0.925496
1.000000 0.000000 0.909154
0.000000 0.243386 0.919620
0.229984 0.234651 0.901335
0.544841 0.225763 0.882933
0.845426 0.217278 0.865364
1.000000 0.209385 0.849022
0.000000 0.525030 0.859674
0.214266 0.516109 0.841203
0.525175 0.507249 0.831575
0.819318 0.498809 0.828326
1.000000 0.490958 0.825303
0.000000 0.796920 0.827654
0.180593 0.788047 0.824238
0.488701 0.779207 0.820835
0.782843 0.770767 0.817586
1.000000 0.762916 0.814563
0.000000 1.000000 0.817475
0.146061 1.000000 0.814071
0.454169 1.000000 0.810667
0.748311 1.000000 0.807418
1.000000 1.000000 0.804396
0.000000 0.000000 1.000000
0.244777 0.000000 1.000000
0.559544 0.000000 1.000000
0.860043 0.000000 1.000000
1.000000 0.000000 1.000000
0.000000 0.241099 1.000000
0.228766 0.232241 1.000000
0.543533 0.223263 1.000000
0.844032 0.214693 1.000000
1.000000 0.206788 1.000000
0.000000 0.522433 1.000000
0.212861 0.513512 1.000000
0.521798 0.504666 1.000000
0.815941 0.496226 1.000000
1.000000 0.488398 1.000000
0.000000 0.794337 1.000000
0.177254 0.785502 1.000000
0.485413 0.776713 1.000000
0.779605 0.768323 1.000000
1.000000 0.760517 1.000000
0.000000 1.000000 1.000000
0.142875 1.000000 1.000000
0.451034 1.000000 1.000000
0.745226 1.000000 1.000000
1.000000 1.000000 1.000000
