luts/cold_unease.cube
TITLE "Cinema Sixth Sense"
LUT_3D_SIZE 33
0.107280 0.112560 0.123120
0.122351 0.114431 0.124991
0.137422 0.116302 0.126862
0.152493 0.118173 0.128733
0.167563 0.120043 0.130603
0.182634 0.121914 0.132474
0.197705 0.123785 0.134345
0.212776 0.125656 0.136216
0.227847 0.127527 0.138087
0.242918 0.129398 0.139958
0.257989 0.131269 0.141829
0.273060 0.133140 0.143700
0.288130 0.135010 0.145570
0.303829 0.136959 0.147519
0.322040 0.139220 0.149780
0.340251 0.141481 0.152041
0.358461 0.143741 0.154301
0.376672 0.146002 0.156562
0.394883 0.148263 0.158823
0.413093 0.150523 0.161083
0.431304 0.152784 0.163344
0.449515 0.155045 0.165605
0.467725 0.157305 0.167865
0.483675 0.159285 0.169845
0.498118 0.161078 0.171638
0.512561 0.162871 0.173431
0.527004 0.164664 0.175224
0.541447 0.166457 0.177017
0.555890 0.168250 0.178810
0.570333 0.170043 0.180603
0.584776 0.171836 0.182396
0.599219 0.173629 0.184189
0.613662 0.175422 0.185982
0.114360 0.134490 0.130200
0.129431 0.136361 0.132071
0.144502 0.138232 0.133942
0.159573 0.140103 0.135813
0.174644 0.141974 0.137684
0.189715 0.143845 0.139555
0.204786 0.145716 0.141426
0.219857 0.147587 0.143297
0.234927 0.149457 0.145167
0.249998 0.151328 0.147038
0.265069 0.153199 0.148909
0.280140 0.155070 0.150780
0.295211 0.156941 0.152651
0.310910 0.158890 0.154600
0.329120 0.161150 0.156860
0.347331 0.163411 0.159121
0.365542 0.165672 0.161382
0.383752 0.167932 0.163642
0.401963 0.170193 0.165903
0.420174 0.172454 0.168164
0.438384 0.174714 0.170424
0.456595 0.176975 0.172685
0.474806 0.179236 0.174946
0.490756 0.181216 0.176926
0.505199 0.183009 0.178719
0.519641 0.184801 0.180511
0.534084 0.186594 0.182304
0.548527 0.188387 0.184097
0.562970 0.190180 0.185890
0.577413 0.191973 0.187683
0.591856 0.193766 0.189476
0.606299 0.195559 0.191269
0.620742 0.197352 0.193062
0.121441 0.156421 0.137281
0.136512 0.158292 0.139152
0.151583 0.160163 0.141023
0.166654 0.162034 0.142894
0.181724 0.163904 0.144764
0.196795 0.165775 0.146635
0.211866 0.167646 0.148506
0.226937 0.169517 0.150377
0.242008 0.171388 0.152248
0.257079 0.173259 0.154119
0.272150 0.175130 0.155990
0.287221 0.177001 0.157861
0.302291 0.178871 0.159731
0.317990 0.180820 0.161680
0.336201 0.183081 0.163941
0.354412 0.185342 0.166202
0.372622 0.187602 0.168462
0.390833 0.189863 0.170723
0.409044 0.192124 0.172984
0.427254 0.194384 0.175244
0.445465 0.196645 0.177505
0.463675 0.198905 0.179765
0.481886 0.201166 0.182026
0.497836 0.203146 0.184006
0.512279 0.204939 0.185799
0.526722 0.206732 0.187592
0.541165 0.208525 0.189385
0.555608 0.210318 0.191178
0.570051 0.212111 0.192971
0.584494 0.213904 0.194764
0.598937 0.215697 0.196557
0.613380 0.217490 0.198350
0.627822 0.219282 0.200142
0.128521 0.178351 0.144361
0.143592 0.180222 0.146232
0.158663 0.182093 0.148103
0.173734 0.183964 0.149974
0.188805 0.185835 0.151845
0.203876 0.187706 0.153716
0.218947 0.189577 0.155587
0.234018 0.191448 0.157458
0.249088 0.193318 0.159328
0.264159 0.195189 0.161199
0.279230 0.197060 0.163070
0.294301 0.198931 0.164941
0.309372 0.200802 0.166812
0.325071 0.202751 0.168761
0.343281 0.205011 0.171021
0.361492 0.207272 0.173282
0.379703 0.209533 0.175543
0.397913 0.211793 0.177803
0.416124 0.214054 0.180064
0.434335 0.216315 0.182325
0.452545 0.218575 0.184585
0.470756 0.220836 0.186846
0.488967 0.223097 0.189107
0.504917 0.225077 0.191087
0.519360 0.226870 0.192880
0.533802 0.228662 0.194672
0.548245 0.230455 0.196465
0.562688 0.232248 0.198258
0.577131 0.234041 0.200051
0.591574 0.235834 0.201844
0.606017 0.237627 0.203637
0.620460 0.239420 0.205430
0.634903 0.241213 0.207223
0.135602 0.200282 0.151442
0.150673 0.202153 0.153313
0.165744 0.204024 0.155184
0.180814 0.205894 0.157054
0.195885 0.207765 0.158925
0.210956 0.209636 0.160796
0.226027 0.211507 0.162667
0.241098 0.213378 0.164538
0.256169 0.215249 0.166409
0.271240 0.217120 0.168280
0.286311 0.218991 0.170151
0.301382 0.220862 0.172022
0.316452 0.222732 0.173892
0.332151 0.224681 0.175841
0.350362 0.226942 0.178102
0.368573 0.229203 0.180363
0.386783 0.231463 0.182623
0.404994 0.233724 0.184884
0.423204 0.235984 0.187144
0.441415 0.238245 0.189405
0.459626 0.240506 0.191666
0.477836 0.242766 0.193926
0.496047 0.245027 0.196187
0.511997 0.247007 0.198167
0.526440 0.248800 0.199960
0.540883 0.250593 0.201753
0.555326 0.252386 0.203546
0.569769 0.254179 0.205339
0.584212 0.255972 0.207132
0.598655 0.257765 0.208925
0.613098 0.259558 0.210718
0.627540 0.261350 0.212510
0.641983 0.263143 0.214303
0.142682 0.222212 0.158522
0.157753 0.224083 0.160393
0.172824 0.225954 0.162264
0.187895 0.227825 0.164135
0.202966 0.229696 0.166006
0.218037 0.231567 0.167877
0.233108 0.233438 0.169748
0.248178 0.235308 0.171618
0.263249 0.237179 0.173489
0.278320 0.239050 0.175360
0.293391 0.240921 0.177231
0.308462 0.242792 0.179102
0.323533 0.244663 0.180973
0.339232 0.246612 0.182922
0.357442 0.248872 0.185182
0.375653 0.251133 0.187443
0.393864 0.253394 0.189704
0.412074 0.255654 0.191964
0.430285 0.257915 0.194225
0.448496 0.260176 0.196486
0.466706 0.262436 0.198746
0.484917 0.264697 0.201007
0.503128 0.266958 0.203268
0.519078 0.268938 0.205248
0.533520 0.270730 0.207040
0.547963 0.272523 0.208833
0.562406 0.274316 0.210626
0.576849 0.276109 0.212419
0.591292 0.277902 0.214212
0.605735 0.279695 0.216005
0.620178 0.281488 0.217798
0.634621 0.283281 0.219591
0.649064 0.285074 0.221384
0.149763 0.244143 0.165603
0.164834 0.246014 0.167474
0.179905 0.247885 0.169345
0.194975 0.249755 0.171215
0.210046 0.251626 0.173086
0.225117 0.253497 0.174957
0.240188 0.255368 0.176828
0.255259 0.257239 0.178699
0.270330 0.259110 0.180570
0.285401 0.260981 0.182441
0.300472 0.262852 0.184312
0.315542 0.264722 0.186182
0.330613 0.266593 0.188053
0.346312 0.268542 0.190002
0.364523 0.270803 0.192263
0.382734 0.273064 0.194524
0.400944 0.275324 0.196784
0.419155 0.277585 0.199045
0.437365 0.279845 0.201305
0.455576 0.282106 0.203566
0.473787 0.284367 0.205827
0.491997 0.286627 0.208087
0.510208 0.288888 0.210348
0.526158 0.290868 0.212328
0.540601 0.292661 0.214121
0.555044 0.294454 0.215914
0.569487 0.296247 0.217707
0.583930 0.298040 0.219500
0.598373 0.299833 0.221293
0.612816 0.301626 0.223086
0.627259 0.303419 0.224879
0.641701 0.305211 0.226671
0.656144 0.307004 0.228464
0.156843 0.266073 0.172683
0.171914 0.267944 0.174554
0.186985 0.269815 0.176425
0.202056 0.271686 0.178296
0.217127 0.273557 0.180167
0.232198 0.275428 0.182038
0.247269 0.277299 0.183909
0.262339 0.279169 0.185779
0.277410 0.281040 0.187650
0.292481 0.282911 0.189521
0.307552 0.284782 0.191392
0.322623 0.286653 0.193263
0.337694 0.288524 0.195134
0.353393 0.290473 0.197083
0.371603 0.292733 0.199343
0.389814 0.294994 0.201604
0.408025 0.297255 0.203865
0.426235 0.299515 0.206125
0.444446 0.301776 0.208386
0.462657 0.304037 0.210647
0.480867 0.306297 0.212907
0.499078 0.308558 0.215168
0.517289 0.310819 0.217429
0.533239 0.312799 0.219409
0.547681 0.314591 0.221201
0.562124 0.316384 0.222994
0.576567 0.318177 0.224787
0.591010 0.319970 0.226580
0.605453 0.321763 0.228373
0.619896 0.323556 0.230166
0.634339 0.325349 0.231959
0.648782 0.327142 0.233752
0.663225 0.328935 0.235545
0.163924 0.288004 0.179764
0.178995 0.289875 0.181635
0.194066 0.291746 0.183506
0.209136 0.293616 0.185376
0.224207 0.295487 0.187247
0.239278 0.297358 0.189118
0.254349 0.299229 0.190989
0.269420 0.301100 0.192860
0.284491 0.302971 0.194731
0.299562 0.304842 0.196602
0.314633 0.306713 0.198473
0.329703 0.308583 0.200343
0.344774 0.310454 0.202214
0.360473 0.312403 0.204163
0.378684 0.314664 0.206424
0.396894 0.316924 0.208684
0.415105 0.319185 0.210945
0.433316 0.321446 0.213206
0.451526 0.323706 0.215466
0.469737 0.325967 0.217727
0.487948 0.328228 0.219988
0.506158 0.330488 0.222248
0.524369 0.332749 0.224509
0.540319 0.334729 0.226489
0.554762 0.336522 0.228282
0.569205 0.338315 0.230075
0.583648 0.340108 0.231868
0.598091 0.341901 0.233661
0.612534 0.343694 0.235454
0.626977 0.345487 0.237247
0.641419 0.347279 0.239039
0.655862 0.349072 0.240832
0.670305 0.350865 0.242625
0.171004 0.309934 0.186844
0.186075 0.311805 0.188715
0.201146 0.313676 0.190586
0.216217 0.315547 0.192457
0.231288 0.317418 0.194328
0.246359 0.319289 0.196199
0.261430 0.321160 0.198070
0.276500 0.323030 0.199940
0.291571 0.324901 0.201811
0.306642 0.326772 0.203682
0.321713 0.328643 0.205553
0.336784 0.330514 0.207424
0.351855 0.332385 0.209295
0.367554 0.334334 0.211244
0.385764 0.336594 0.213504
0.403975 0.338855 0.215765
0.422186 0.341116 0.218026
0.440396 0.343376 0.220286
0.458607 0.345637 0.222547
0.476818 0.347898 0.224808
0.495028 0.350158 0.227068
0.513239 0.352419 0.229329
0.531449 0.354679 0.231589
0.547399 0.356659 0.233569
0.561842 0.358452 0.235362
0.576285 0.360245 0.237155
0.590728 0.362038 0.238948
0.605171 0.363831 0.240741
0.619614 0.365624 0.242534
0.634057 0.367417 0.244327
0.648500 0.369210 0.246120
0.662943 0.371003 0.247913
0.677386 0.372796 0.249706
0.178085 0.331865 0.193925
0.193156 0.333736 0.195796
0.208226 0.335606 0.197666
0.223297 0.337477 0.199537
0.238368 0.339348 0.201408
0.253439 0.341219 0.203279
0.268510 0.343090 0.205150
0.283581 0.344961 0.207021
0.298652 0.346832 0.208892
0.313723 0.348703 0.210763
0.328794 0.350574 0.212634
0.343864 0.352444 0.214504
0.358935 0.354315 0.216375
0.374634 0.356264 0.218324
0.392845 0.358525 0.220585
0.411055 0.360785 0.222845
0.429266 0.363046 0.225106
0.447477 0.365307 0.227367
0.465687 0.367567 0.229627
0.483898 0.369828 0.231888
0.502109 0.372089 0.234149
0.520319 0.374349 0.236409
0.538530 0.376610 0.238670
0.554480 0.378590 0.240650
0.568923 0.380383 0.242443
0.583366 0.382176 0.244236
0.597809 0.383969 0.246029
0.612252 0.385762 0.247822
0.626695 0.387555 0.249615
0.641138 0.389348 0.251408
0.655580 0.391140 0.253200
0.670023 0.392933 0.254993
0.684466 0.394726 0.256786
0.185165 0.353795 0.201005
0.200236 0.355666 0.202876
0.215307 0.357537 0.204747
0.230378 0.359408 0.206618
0.245449 0.361279 0.208489
0.260520 0.363150 0.210360
0.275590 0.365020 0.212230
0.290661 0.366891 0.214101
0.305732 0.368762 0.215972
0.320803 0.370633 0.217843
0.335874 0.372504 0.219714
0.350945 0.374375 0.221585
0.366016 0.376246 0.223456
0.381715 0.378195 0.225405
0.399925 0.380455 0.227665
0.418136 0.382716 0.229926
0.436347 0.384977 0.232187
0.454557 0.387237 0.234447
0.472768 0.389498 0.236708
0.490978 0.391758 0.238968
0.509189 0.394019 0.241229
0.527400 0.396280 0.243490
0.545610 0.398540 0.245750
0.561560 0.400520 0.247730
0.576003 0.402313 0.249523
0.590446 0.404106 0.251316
0.604889 0.405899 0.253109
0.619332 0.407692 0.254902
0.633775 0.409485 0.256695
0.648218 0.411278 0.258488
0.662661 0.413071 0.260281
0.677104 0.414864 0.262074
0.691547 0.416657 0.263867
0.192246 0.375726 0.208086
0.207317 0.377597 0.209957
0.222387 0.379467 0.211827
0.237458 0.381338 0.213698
0.252529 0.383209 0.215569
0.267600 0.385080 0.217440
0.282671 0.386951 0.219311
0.297742 0.388822 0.221182
0.312813 0.390693 0.223053
0.327884 0.392564 0.224924
0.342954 0.394434 0.226794
0.358025 0.396305 0.228665
0.373096 0.398176 0.230536
0.388795 0.400125 0.232485
0.407006 0.402386 0.234746
0.425216 0.404646 0.237006
0.443427 0.406907 0.239267
0.461638 0.409168 0.241528
0.479848 0.411428 0.243788
0.498059 0.413689 0.246049
0.516270 0.415950 0.248310
0.534480 0.418210 0.250570
0.552691 0.420471 0.252831
0.568641 0.422451 0.254811
0.583084 0.424244 0.256604
0.597527 0.426037 0.258397
0.611970 0.427830 0.260190
0.626413 0.429623 0.261983
0.640856 0.431416 0.263776
0.655298 0.433208 0.265568
0.669741 0.435001 0.267361
0.684184 0.436794 0.269154
0.698627 0.438587 0.270947
0.199536 0.398306 0.215376
0.214607 0.400177 0.217247
0.229678 0.402048 0.219118
0.244749 0.403919 0.220989
0.259819 0.405789 0.222859
0.274890 0.407660 0.224730
0.289961 0.409531 0.226601
0.305032 0.411402 0.228472
0.320103 0.413273 0.230343
0.335174 0.415144 0.232214
0.350245 0.417015 0.234085
0.365316 0.418886 0.235956
0.380387 0.420757 0.237827
0.396085 0.422705 0.239775
0.414296 0.424966 0.242036
0.432507 0.427227 0.244297
0.450717 0.429487 0.246557
0.468928 0.431748 0.248818
0.487139 0.434009 0.251079
0.505349 0.436269 0.253339
0.523560 0.438530 0.255600
0.541771 0.440791 0.257861
0.559981 0.443051 0.260121
0.575931 0.445031 0.262101
0.590374 0.446824 0.263894
0.604817 0.448617 0.265687
0.619260 0.450410 0.267480
0.633703 0.452203 0.269273
0.648146 0.453996 0.271066
0.662589 0.455789 0.272859
0.677032 0.457582 0.274652
0.691475 0.459375 0.276445
0.705918 0.461168 0.278238
0.207665 0.423485 0.223505
0.222736 0.425356 0.225376
0.237807 0.427227 0.227247
0.252878 0.429098 0.229118
0.267949 0.430969 0.230989
0.283020 0.432840 0.232860
0.298091 0.434711 0.234731
0.313162 0.436582 0.236602
0.328232 0.438452 0.238472
0.343303 0.440323 0.240343
0.358374 0.442194 0.242214
0.373445 0.444065 0.244085
0.388516 0.445936 0.245956
0.404215 0.447885 0.247905
0.422425 0.450145 0.250165
0.440636 0.452406 0.252426
0.458847 0.454667 0.254687
0.477057 0.456927 0.256947
0.495268 0.459188 0.259208
0.513479 0.461449 0.261469
0.531689 0.463709 0.263729
0.549900 0.465970 0.265990
0.568111 0.468231 0.268251
0.584061 0.470211 0.270231
0.598504 0.472004 0.272024
0.612946 0.473796 0.273816
0.627389 0.475589 0.275609
0.641832 0.477382 0.277402
0.656275 0.479175 0.279195
0.670718 0.480968 0.280988
0.685161 0.482761 0.282781
0.699604 0.484554 0.284574
0.714047 0.486347 0.286367
0.215795 0.448665 0.231635
0.230866 0.450536 0.233506
0.245937 0.452407 0.235377
0.261007 0.454277 0.237247
0.276078 0.456148 0.239118
0.291149 0.458019 0.240989
0.306220 0.459890 0.242860
0.321291 0.461761 0.244731
0.336362 0.463632 0.246602
0.351433 0.465503 0.248473
0.366504 0.467374 0.250344
0.381575 0.469245 0.252215
0.396645 0.471115 0.254085
0.412344 0.473064 0.256034
0.430555 0.475325 0.258295
0.448766 0.477586 0.260556
0.466976 0.479846 0.262816
0.485187 0.482107 0.265077
0.503397 0.484367 0.267337
0.521608 0.486628 0.269598
0.539819 0.488889 0.271859
0.558029 0.491149 0.274119
0.576240 0.493410 0.276380
0.592190 0.495390 0.278360
0.606633 0.497183 0.280153
0.621076 0.498976 0.281946
0.635519 0.500769 0.283739
0.649962 0.502562 0.285532
0.664405 0.504355 0.287325
0.678848 0.506148 0.289118
0.693291 0.507941 0.290911
0.707733 0.509733 0.292703
0.722176 0.511526 0.294496
0.223924 0.473844 0.239764
0.238995 0.475715 0.241635
0.254066 0.477586 0.243506
0.269137 0.479457 0.245377
0.284208 0.481328 0.247248
0.299279 0.483199 0.249119
0.314350 0.485070 0.250990
0.329420 0.486940 0.252860
0.344491 0.488811 0.254731
0.359562 0.490682 0.256602
0.374633 0.492553 0.258473
0.389704 0.494424 0.260344
0.404775 0.496295 0.262215
0.420474 0.498244 0.264164
0.438684 0.500504 0.266424
0.456895 0.502765 0.268685
0.475106 0.505026 0.270946
0.493316 0.507286 0.273206
0.511527 0.509547 0.275467
0.529738 0.511808 0.277728
0.547948 0.514068 0.279988
0.566159 0.516329 0.282249
0.584370 0.518590 0.284510
0.600320 0.520570 0.286490
0.614762 0.522362 0.288282
0.629205 0.524155 0.290075
0.643648 0.525948 0.291868
0.658091 0.527741 0.293661
0.672534 0.529534 0.295454
0.686977 0.531327 0.297247
0.701420 0.533120 0.299040
0.715863 0.534913 0.300833
0.730306 0.536706 0.302626
0.232054 0.499024 0.247894
0.247125 0.500895 0.249765
0.262195 0.502765 0.251635
0.277266 0.504636 0.253506
0.292337 0.506507 0.255377
0.307408 0.508378 0.257248
0.322479 0.510249 0.259119
0.337550 0.512120 0.260990
0.352621 0.513991 0.262861
0.367692 0.515862 0.264732
0.382763 0.517733 0.266603
0.397833 0.519603 0.268473
0.412904 0.521474 0.270344
0.428603 0.523423 0.272293
0.446814 0.525684 0.274554
0.465024 0.527944 0.276814
0.483235 0.530205 0.279075
0.501446 0.532466 0.281336
0.519656 0.534726 0.283596
0.537867 0.536987 0.285857
0.556078 0.539248 0.288118
0.574288 0.541508 0.290378
0.592499 0.543769 0.292639
0.608449 0.545749 0.294619
0.622892 0.547542 0.296412
0.637335 0.549335 0.298205
0.651778 0.551128 0.299998
0.666221 0.552921 0.301791
0.680664 0.554714 0.303584
0.695107 0.556507 0.305377
0.709549 0.558299 0.307169
0.723992 0.560092 0.308962
0.738435 0.561885 0.310755
0.240183 0.524203 0.256023
0.255254 0.526074 0.257894
0.270325 0.527945 0.259765
0.285396 0.529816 0.261636
0.300467 0.531687 0.263507
0.315538 0.533558 0.265378
0.330608 0.535428 0.267248
0.345679 0.537299 0.269119
0.360750 0.539170 0.270990
0.375821 0.541041 0.272861
0.390892 0.542912 0.274732
0.405963 0.544783 0.276603
0.421034 0.546654 0.278474
0.436733 0.548603 0.280423
0.454943 0.550863 0.282683
0.473154 0.553124 0.284944
0.491365 0.555385 0.287205
0.509575 0.557645 0.289465
0.527786 0.559906 0.291726
0.545996 0.562166 0.293986
0.564207 0.564427 0.296247
0.582418 0.566688 0.298508
0.600628 0.568948 0.300768
0.616578 0.570928 0.302748
0.631021 0.572721 0.304541
0.645464 0.574514 0.306334
0.659907 0.576307 0.308127
0.674350 0.578100 0.309920
0.688793 0.579893 0.311713
0.703236 0.581686 0.313506
0.717679 0.583479 0.315299
0.732122 0.585272 0.317092
0.746565 0.587065 0.318885
0.248313 0.549383 0.264153
0.263383 0.551253 0.266023
0.278454 0.553124 0.267894
0.293525 0.554995 0.269765
0.308596 0.556866 0.271636
0.323667 0.558737 0.273507
0.338738 0.560608 0.275378
0.353809 0.562479 0.277249
0.368880 0.564350 0.279120
0.383951 0.566221 0.280991
0.399021 0.568091 0.282861
0.414092 0.569962 0.284732
0.429163 0.571833 0.286603
0.444862 0.573782 0.288552
0.463073 0.576043 0.290813
0.481283 0.578303 0.293073
0.499494 0.580564 0.295334
0.517705 0.582825 0.297595
0.535915 0.585085 0.299855
0.554126 0.587346 0.302116
0.572337 0.589607 0.304377
0.590547 0.591867 0.306637
0.608758 0.594128 0.308898
0.624708 0.596108 0.310878
0.639151 0.597901 0.312671
0.653594 0.599694 0.314464
0.668037 0.601487 0.316257
0.682480 0.603280 0.318050
0.696922 0.605072 0.319842
0.711365 0.606865 0.321635
0.725808 0.608658 0.323428
0.740251 0.610451 0.325221
0.754694 0.612244 0.327014
0.256442 0.574562 0.272282
0.271513 0.576433 0.274153
0.286584 0.578304 0.276024
0.301655 0.580175 0.277895
0.316726 0.582046 0.279766
0.331796 0.583916 0.281636
0.346867 0.585787 0.283507
0.361938 0.587658 0.285378
0.377009 0.589529 0.287249
0.392080 0.591400 0.289120
0.407151 0.593271 0.290991
0.422222 0.595142 0.292862
0.437293 0.597013 0.294733
0.452991 0.598961 0.296681
0.471202 0.601222 0.298942
0.489413 0.603483 0.301203
0.507623 0.605743 0.303463
0.525834 0.608004 0.305724
0.544045 0.610265 0.307985
0.562255 0.612525 0.310245
0.580466 0.614786 0.312506
0.598677 0.617047 0.314767
0.616887 0.619307 0.317027
0.632837 0.621287 0.319007
0.647280 0.623080 0.320800
0.661723 0.624873 0.322593
0.676166 0.626666 0.324386
0.690609 0.628459 0.326179
0.705052 0.630252 0.327972
0.719495 0.632045 0.329765
0.733938 0.633838 0.331558
0.748381 0.635631 0.333351
0.762824 0.637424 0.335144
0.264571 0.599741 0.280411
0.279642 0.601612 0.282282
0.294713 0.603483 0.284153
0.309784 0.605354 0.286024
0.324855 0.607225 0.287895
0.339926 0.609096 0.289766
0.354997 0.610967 0.291637
0.370068 0.612838 0.293508
0.385139 0.614709 0.295379
0.400209 0.616579 0.297249
0.415280 0.618450 0.299120
0.430351 0.620321 0.300991
0.445422 0.622192 0.302862
0.461121 0.624141 0.304811
0.479332 0.626402 0.307072
0.497542 0.628662 0.309332
0.515753 0.630923 0.311593
0.533963 0.633183 0.313853
0.552174 0.635444 0.316114
0.570385 0.637705 0.318375
0.588595 0.639965 0.320635
0.606806 0.642226 0.322896
0.625017 0.644487 0.325157
0.640967 0.646467 0.327137
0.655410 0.648260 0.328930
0.669853 0.650053 0.330723
0.684295 0.651845 0.332515
0.698738 0.653638 0.334308
0.713181 0.655431 0.336101
0.727624 0.657224 0.337894
0.742067 0.659017 0.339687
0.756510 0.660810 0.341480
0.770953 0.662603 0.343273
0.272701 0.624921 0.288541
0.287772 0.626792 0.290412
0.302843 0.628663 0.292283
0.317914 0.630534 0.294154
0.332984 0.632404 0.296024
0.348055 0.634275 0.297895
0.363126 0.636146 0.299766
0.378197 0.638017 0.301637
0.393268 0.639888 0.303508
0.408339 0.641759 0.305379
0.423410 0.643630 0.307250
0.438481 0.645501 0.309121
0.453551 0.647371 0.310991
0.469250 0.649320 0.312940
0.487461 0.651581 0.315201
0.505672 0.653842 0.317462
0.523882 0.656102 0.319722
0.542093 0.658363 0.321983
0.560304 0.660624 0.324244
0.578514 0.662884 0.326504
0.596725 0.665145 0.328765
0.614935 0.667405 0.331025
0.633146 0.669666 0.333286
0.649096 0.671646 0.335266
0.663539 0.673439 0.337059
0.677982 0.675232 0.338852
0.692425 0.677025 0.340645
0.706868 0.678818 0.342438
0.721311 0.680611 0.344231
0.735754 0.682404 0.346024
0.750197 0.684197 0.347817
0.764640 0.685990 0.349610
0.779082 0.687782 0.351402
0.279100 0.644740 0.294940
0.294170 0.646610 0.296810
0.309241 0.648481 0.298681
0.324312 0.650352 0.300552
0.339383 0.652223 0.302423
0.354454 0.654094 0.304294
0.369525 0.655965 0.306165
0.384596 0.657836 0.308036
0.399667 0.659707 0.309907
0.414738 0.661578 0.311778
0.429808 0.663448 0.313648
0.444879 0.665319 0.315519
0.459950 0.667190 0.317390
0.475649 0.669139 0.319339
0.493860 0.671400 0.321600
0.512070 0.673660 0.323860
0.530281 0.675921 0.326121
0.548492 0.678182 0.328382
0.566702 0.680442 0.330642
0.584913 0.682703 0.332903
0.603124 0.684964 0.335164
0.621334 0.687224 0.337424
0.639545 0.689485 0.339685
0.655495 0.691465 0.341665
0.669938 0.693258 0.343458
0.684381 0.695051 0.345251
0.698824 0.696844 0.347044
0.713267 0.698637 0.348837
0.727709 0.700429 0.350629
0.742152 0.702222 0.352422
0.756595 0.704015 0.354215
0.771038 0.705808 0.356008
0.785481 0.707601 0.357801
0.284344 0.660984 0.300184
0.299415 0.662855 0.302055
0.314486 0.664726 0.303926
0.329557 0.666597 0.305797
0.344628 0.668468 0.307668
0.359699 0.670339 0.309539
0.374770 0.672210 0.311410
0.389841 0.674081 0.313281
0.404911 0.675951 0.315151
0.419982 0.677822 0.317022
0.435053 0.679693 0.318893
0.450124 0.681564 0.320764
0.465195 0.683435 0.322635
0.480894 0.685384 0.324584
0.499104 0.687644 0.326844
0.517315 0.689905 0.329105
0.535526 0.692166 0.331366
0.553736 0.694426 0.333626
0.571947 0.696687 0.335887
0.590158 0.698948 0.338148
0.608368 0.701208 0.340408
0.626579 0.703469 0.342669
0.644790 0.705730 0.344930
0.660740 0.707710 0.346910
0.675183 0.709503 0.348703
0.689625 0.711295 0.350495
0.704068 0.713088 0.352288
0.718511 0.714881 0.354081
0.732954 0.716674 0.355874
0.747397 0.718467 0.357667
0.761840 0.720260 0.359460
0.776283 0.722053 0.361253
0.790726 0.723846 0.363046
0.289589 0.677229 0.305429
0.304660 0.679100 0.307300
0.319731 0.680971 0.309171
0.334802 0.682842 0.311042
0.349873 0.684713 0.312913
0.364944 0.686584 0.314784
0.380014 0.688454 0.316654
0.395085 0.690325 0.318525
0.410156 0.692196 0.320396
0.425227 0.694067 0.322267
0.440298 0.695938 0.324138
0.455369 0.697809 0.326009
0.470440 0.699680 0.327880
0.486139 0.701629 0.329829
0.504349 0.703889 0.332089
0.522560 0.706150 0.334350
0.540771 0.708411 0.336611
0.558981 0.710671 0.338871
0.577192 0.712932 0.341132
0.595402 0.715192 0.343392
0.613613 0.717453 0.345653
0.631824 0.719714 0.347914
0.650034 0.721974 0.350174
0.665984 0.723954 0.352154
0.680427 0.725747 0.353947
0.694870 0.727540 0.355740
0.709313 0.729333 0.357533
0.723756 0.731126 0.359326
0.738199 0.732919 0.361119
0.752642 0.734712 0.362912
0.767085 0.736505 0.364705
0.781528 0.738298 0.366498
0.795971 0.740091 0.368291
0.294834 0.693474 0.310674
0.309905 0.695345 0.312545
0.324976 0.697216 0.314416
0.340047 0.699087 0.316287
0.355118 0.700958 0.318158
0.370188 0.702828 0.320028
0.385259 0.704699 0.321899
0.400330 0.706570 0.323770
0.415401 0.708441 0.325641
0.430472 0.710312 0.327512
0.445543 0.712183 0.329383
0.460614 0.714054 0.331254
0.475685 0.715925 0.333125
0.491383 0.717873 0.335073
0.509594 0.720134 0.337334
0.527805 0.722395 0.339595
0.546015 0.724655 0.341855
0.564226 0.726916 0.344116
0.582437 0.729177 0.346377
0.600647 0.731437 0.348637
0.618858 0.733698 0.350898
0.637069 0.735959 0.353159
0.655279 0.738219 0.355419
0.671229 0.740199 0.357399
0.685672 0.741992 0.359192
0.700115 0.743785 0.360985
0.714558 0.745578 0.362778
0.729001 0.747371 0.364571
0.743444 0.749164 0.366364
