luts/cold_unease.cube
TITLE "Cinema Sixth Sense"
LUT_3D_SIZE 9
0.107280 0.112560 0.123120
0.167563 0.120043 0.130603
0.227847 0.127527 0.138087
0.288130 0.135010 0.145570
0.358461 0.143741 0.154301
0.431304 0.152784 0.163344
0.498118 0.161078 0.171638
0.555890 0.168250 0.178810
0.613662 0.175422 0.185982
0.135602 0.200282 0.151442
0.195885 0.207765 0.158925
0.256169 0.215249 0.166409
0.316452 0.222732 0.173892
0.386783 0.231463 0.182623
0.459626 0.240506 0.191666
0.526440 0.248800 0.199960
0.584212 0.255972 0.207132
0.641983 0.263143 0.214303
0.163924 0.288004 0.179764
0.224207 0.295487 0.187247
0.284491 0.302971 0.194731
0.344774 0.310454 0.202214
0.415105 0.319185 0.210945
0.487948 0.328228 0.219988
0.554762 0.336522 0.228282
0.612534 0.343694 0.235454
0.670305 0.350865 0.242625
0.192246 0.375726 0.208086
0.252529 0.383209 0.215569
0.312813 0.390693 0.223053
0.373096 0.398176 0.230536
0.443427 0.406907 0.239267
0.516270 0.415950 0.248310
0.583084 0.424244 0.256604
0.640856 0.431416 0.263776
0.698627 0.438587 0.270947
0.223924 0.473844 0.239764
0.284208 0.481328 0.247248
0.344491 0.488811 0.254731
0.404775 0.496295 0.262215
0.475106 0.505026 0.270946
0.547948 0.514068 0.279988
0.614762 0.522362 0.288282
0.672534 0.529534 0.295454
0.730306 0.536706 0.302626
0.256442 0.574562 0.272282
0.316726 0.582046 0.279766
0.377009 0.589529 0.287249
0.437293 0.597013 0.294733
0.507623 0.605743 0.303463
0.580466 0.614786 0.312506
0.647280 0.623080 0.320800
0.705052 0.630252 0.327972
0.762824 0.637424 0.335144
0.284344 0.660984 0.300184
0.344628 0.668468 0.307668
0.404911 0.675951 0.315151
0.465195 0.683435 0.322635
0.535526 0.692166 0.331366
0.608368 0.701208 0.340408
0.675183 0.709503 0.348703
0.732954 0.716674 0.355874
0.790726 0.723846 0.363046
0.305324 0.725964 0.321164
0.365607 0.733447 0.328647
0.425891 0.740931 0.336131
0.486174 0.748414 0.343614
0.556505 0.757145 0.352345
0.629348 0.766188 0.361388
0.696162 0.774482 0.369682
0.753933 0.781653 0.376853
0.811705 0.788825 0.384025
0.326303 0.790943 0.342143
0.386586 0.798426 0.349626
0.446870 0.805910 0.357110
0.507153 0.813393 0.364593
0.577484 0.822124 0.373324
0.650327 0.831167 0.382367
0.717141 0.839461 0.390661
0.774913 0.846633 0.397833
0.832684 0.853804 0.405004
0.109901 0.115181 0.180191
0.170184 0.122664 0.187674
0.230468 0.130148 0.195158
0.290751 0.137631 0.202641
0.361082 0.146362 0.211372
0.433925 0.155405 0.220415
0.500739 0.163699 0.228709
0.558511 0.170871 0.235881
0.616282 0.178042 0.243052
0.138223 0.202903 0.208513
0.198506 0.210386 0.215996
0.258790 0.217870 0.223480
0.319073 0.225353 0.230963
0.389404 0.234084 0.239694
0.462247 0.243127 0.248737
0.529061 0.251421 0.257031
0.586833 0.258593 0.264203
0.644604 0.265764 0.271374
0.166545 0.290625 0.236835
0.226828 0.298108 0.244318
0.287112 0.305592 0.251802
0.347395 0.313075 0.259285
0.417726 0.321806 0.268016
0.490569 0.330849 0.277059
0.557383 0.339143 0.285353
0.615154 0.346314 0.292524
0.672926 0.353486 0.299696
0.194867 0.378347 0.265157
0.255150 0.385830 0.272640
0.315434 0.393314 0.280124
0.375717 0.400797 0.287607
0.446048 0.409528 0.296338
0.518890 0.418570 0.305380
0.585705 0.426865 0.313675
0.643476 0.434036 0.320846
0.701248 0.441208 0.328018
0.226545 0.476465 0.296835
0.286829 0.483949 0.304319
0.347112 0.491432 0.311802
0.407396 0.498916 0.319286
0.477726 0.507646 0.328016
0.550569 0.516689 0.337059
0.617383 0.524983 0.345353
0.675155 0.532155 0.352525
0.732927 0.539327 0.359697
0.259063 0.577183 0.329353
0.319346 0.584666 0.336836
0.379630 0.592150 0.344320
0.439913 0.599633 0.351803
0.510244 0.608364 0.360534
0.583087 0.617407 0.369577
0.649901 0.625701 0.377871
0.707673 0.632873 0.385043
0.765444 0.640044 0.392214
0.286965 0.663605 0.357255
0.347249 0.671089 0.364739
0.407532 0.678572 0.372222
0.467816 0.686056 0.379706
0.538147 0.694787 0.388437
0.610989 0.703829 0.397479
0.677803 0.712123 0.405773
0.735575 0.719295 0.412945
0.793347 0.726467 0.420117
0.307944 0.728584 0.378234
0.368228 0.736068 0.385718
0.428511 0.743551 0.393201
0.488795 0.751035 0.400685
0.559126 0.759766 0.409416
0.631968 0.768808 0.418458
0.698783 0.777103 0.426753
0.756554 0.784274 0.433924
0.814326 0.791446 0.441096
0.328924 0.793564 0.399214
0.389207 0.801047 0.406697
0.449491 0.808531 0.414181
0.509774 0.816014 0.421664
0.580105 0.824745 0.430395
0.652948 0.833788 0.439438
0.719762 0.842082 0.447732
0.777534 0.849254 0.454904
0.835305 0.856425 0.462075
0.112522 0.117802 0.237262
0.172805 0.125285 0.244745
0.233089 0.132769 0.252229
0.293372 0.140252 0.259712
0.363703 0.148983 0.268443
0.436546 0.158026 0.277486
0.503360 0.166320 0.285780
0.561132 0.173492 0.292952
0.618903 0.180663 0.300123
0.140844 0.205524 0.265584
0.201127 0.213007 0.273067
0.261411 0.220491 0.280551
0.321694 0.227974 0.288034
0.392025 0.236705 0.296765
0.464867 0.245747 0.305807
0.531682 0.254042 0.314102
0.589453 0.261213 0.321273
0.647225 0.268385 0.328445
0.169165 0.293245 0.293905
0.229449 0.300729 0.301389
0.289733 0.308213 0.308873
0.350016 0.315696 0.316356
0.420347 0.324427 0.325087
0.493189 0.333469 0.334129
0.560004 0.341764 0.342424
0.617775 0.348935 0.349595
0.675547 0.356107 0.356767
0.197487 0.380967 0.322227
0.257771 0.388451 0.329711
0.318054 0.395934 0.337194
0.378338 0.403418 0.344678
0.448669 0.412149 0.353409
0.521511 0.421191 0.362451
0.588326 0.429486 0.370746
0.646097 0.436657 0.377917
0.703869 0.443829 0.385089
0.229166 0.479086 0.353906
0.289450 0.486570 0.361390
0.349733 0.494053 0.368873
0.410017 0.501537 0.376357
0.480347 0.510267 0.385087
0.553190 0.519310 0.394130
0.620004 0.527604 0.402424
0.677776 0.534776 0.409596
0.735548 0.541948 0.416768
0.261684 0.579804 0.386424
0.321967 0.587287 0.393907
0.382251 0.594771 0.401391
0.442534 0.602254 0.408874
0.512865 0.610985 0.417605
0.585708 0.620028 0.426648
0.652522 0.628322 0.434942
0.710294 0.635494 0.442114
0.768065 0.642665 0.449285
0.289586 0.666226 0.414326
0.349870 0.673710 0.421810
0.410153 0.681193 0.429293
0.470437 0.688677 0.436777
0.540767 0.697407 0.445507
0.613610 0.706450 0.454550
0.680424 0.714744 0.462844
0.738196 0.721916 0.470016
0.795968 0.729088 0.477188
0.310565 0.731205 0.435305
0.370849 0.738689 0.442789
0.431132 0.746172 0.450272
0.491416 0.753656 0.457756
0.561747 0.762387 0.466487
0.634589 0.771429 0.475529
0.701403 0.779723 0.483823
0.759175 0.786895 0.490995
0.816947 0.794067 0.498167
0.331545 0.796185 0.456285
0.391828 0.803668 0.463768
0.452112 0.811152 0.471252
0.512395 0.818635 0.478735
0.582726 0.827366 0.487466
0.655568 0.836408 0.496508
0.722383 0.844703 0.504803
0.780154 0.851874 0.511974
0.837926 0.859046 0.519146
0.115143 0.120423 0.294333
0.175426 0.127906 0.301816
0.235710 0.135390 0.309300
0.295993 0.142873 0.316783
0.366324 0.151604 0.325514
0.439166 0.160646 0.334556
0.505981 0.168941 0.342851
0.563752 0.176112 0.350022
0.621524 0.183284 0.357194
0.143464 0.208144 0.322654
0.203748 0.215628 0.330138
0.264031 0.223111 0.337621
0.324315 0.230595 0.345105
0.394646 0.239326 0.353836
0.467488 0.248368 0.362878
0.534303 0.256663 0.371173
0.592074 0.263834 0.378344
0.649846 0.271006 0.385516
0.171786 0.295866 0.350976
0.232070 0.303350 0.358460
0.292353 0.310833 0.365943
0.352637 0.318317 0.373427
0.422968 0.327048 0.382158
0.495810 0.336090 0.391200
0.562625 0.344385 0.399495
0.620396 0.351556 0.406666
0.678168 0.358728 0.413838
0.200108 0.383588 0.379298
0.260392 0.391072 0.386782
0.320675 0.398555 0.394265
0.380959 0.406039 0.401749
0.451290 0.414770 0.410480
0.524132 0.423812 0.419522
0.590946 0.432106 0.427816
0.648718 0.439278 0.434988
0.706490 0.446450 0.442160
0.231787 0.481707 0.410977
0.292070 0.489190 0.418460
0.352354 0.496674 0.425944
0.412637 0.504157 0.433427
0.482968 0.512888 0.442158
0.555811 0.521931 0.451201
0.622625 0.530225 0.459495
0.680397 0.537397 0.466667
0.738168 0.544568 0.473838
0.264305 0.582425 0.443495
0.324588 0.589908 0.450978
0.384872 0.597392 0.458462
0.445155 0.604875 0.465945
0.515486 0.613606 0.474676
0.588329 0.622649 0.483719
0.655143 0.630943 0.492013
0.712914 0.638114 0.499184
0.770686 0.645286 0.506356
0.292207 0.668847 0.471397
0.352490 0.676330 0.478880
0.412774 0.683814 0.486364
0.473058 0.691298 0.493848
0.543388 0.700028 0.502578
0.616231 0.709071 0.511621
0.683045 0.717365 0.519915
0.740817 0.724537 0.527087
0.798589 0.731709 0.534259
0.313186 0.733826 0.492376
0.373470 0.741310 0.499860
0.433753 0.748793 0.507343
0.494037 0.756277 0.514827
0.564367 0.765007 0.523557
0.637210 0.774050 0.532600
0.704024 0.782344 0.540894
0.761796 0.789516 0.548066
0.819568 0.796688 0.555238
0.334165 0.798805 0.513355
0.394449 0.806289 0.520839
0.454732 0.813772 0.528322
0.515016 0.821256 0.535806
0.585347 0.829987 0.544537
0.658189 0.839029 0.553579
0.725004 0.847324 0.561874
0.782775 0.854495 0.569045
0.840547 0.861667 0.576217
0.118208 0.123488 0.361088
0.178492 0.130972 0.368572
0.238775 0.138455 0.376055
0.299059 0.145939 0.383539
0.369389 0.154669 0.392269
0.442232 0.163712 0.401312
0.509046 0.172006 0.409606
0.566818 0.179178 0.416778
0.624590 0.186350 0.423950
0.146530 0.211210 0.389410
0.206814 0.218694 0.396894
0.267097 0.226177 0.404377
0.327381 0.233661 0.411861
0.397711 0.242391 0.420591
0.470554 0.251434 0.429634
0.537368 0.259728 0.437928
0.595140 0.266900 0.445100
0.652912 0.274072 0.452272
0.174852 0.298932 0.417732
0.235135 0.306415 0.425215
0.295419 0.313899 0.432699
0.355703 0.321383 0.440183
0.426033 0.330113 0.448913
0.498876 0.339156 0.457956
0.565690 0.347450 0.466250
0.623462 0.354622 0.473422
0.681234 0.361794 0.480594
0.203174 0.386654 0.446054
0.263457 0.394137 0.453537
0.323741 0.401621 0.461021
0.384024 0.409104 0.468504
0.454355 0.417835 0.477235
0.527198 0.426878 0.486278
0.594012 0.435172 0.494572
0.651784 0.442344 0.501744
0.709555 0.449515 0.508915
0.234852 0.484772 0.477732
0.295136 0.492256 0.485216
0.355420 0.499740 0.492700
0.415703 0.507223 0.500183
0.486034 0.515954 0.508914
0.558876 0.524996 0.517956
0.625691 0.533291 0.526251
0.683462 0.540462 0.533422
0.741234 0.547634 0.540594
0.267370 0.585490 0.510250
0.327654 0.592974 0.517734
0.387937 0.600457 0.525217
0.448221 0.607941 0.532701
0.518552 0.616672 0.541432
0.591394 0.625714 0.550474
0.658208 0.634008 0.558768
0.715980 0.641180 0.565940
0.773752 0.648352 0.573112
0.295273 0.671913 0.538153
0.355556 0.679396 0.545636
0.415840 0.686880 0.553120
0.476123 0.694363 0.560603
0.546454 0.703094 0.569334
0.619296 0.712136 0.578376
0.686111 0.720431 0.586671
0.743882 0.727602 0.593842
0.801654 0.734774 0.601014
0.316252 0.736892 0.559132
0.376535 0.744375 0.566615
0.436819 0.751859 0.574099
0.497102 0.759342 0.581582
0.567433 0.768073 0.590313
0.640276 0.777116 0.599356
0.707090 0.785410 0.607650
0.764862 0.792582 0.614822
0.822633 0.799753 0.621993
0.337231 0.801871 0.580111
0.397514 0.809354 0.587594
0.457798 0.816838 0.595078
0.518082 0.824322 0.602562
0.588412 0.833052 0.611292
0.661255 0.842095 0.620335
0.728069 0.850389 0.628629
0.785841 0.857561 0.635801
0.843613 0.864733 0.642973
0.121385 0.126665 0.430265
0.181668 0.134148 0.437748
0.241952 0.141632 0.445232
0.302235 0.149115 0.452715
0.372566 0.157846 0.461446
0.445409 0.166889 0.470489
0.512223 0.175183 0.478783
0.569995 0.182355 0.485955
0.627766 0.189526 0.493126
0.149707 0.214387 0.458587
0.209990 0.221870 0.466070
0.270274 0.229354 0.473554
0.330557 0.236837 0.481037
0.400888 0.245568 0.489768
0.473731 0.254611 0.498811
0.540545 0.262905 0.507105
0.598317 0.270077 0.514277
0.656088 0.277248 0.521448
0.178029 0.302109 0.486909
0.238312 0.309592 0.494392
0.298596 0.317076 0.501876
0.358879 0.324559 0.509359
0.429210 0.333290 0.518090
0.502053 0.342333 0.527133
0.568867 0.350627 0.535427
0.626639 0.357799 0.542599
0.684410 0.364970 0.549770
0.206351 0.389831 0.515231
0.266634 0.397314 0.522714
0.326918 0.404798 0.530198
0.387201 0.412281 0.537681
0.457532 0.421012 0.546412
0.530375 0.430055 0.555455
0.597189 0.438349 0.563749
0.654961 0.445521 0.570921
0.712732 0.452692 0.578092
0.238029 0.487949 0.546909
0.298313 0.495433 0.554393
0.358596 0.502916 0.561876
0.418880 0.510400 0.569360
0.489211 0.519131 0.578091
0.562053 0.528173 0.587133
0.628867 0.536467 0.595427
0.686639 0.543639 0.602599
0.744411 0.550811 0.609771
0.270547 0.588667 0.579427
0.330831 0.596151 0.586911
0.391114 0.603634 0.594394
0.451398 0.611118 0.601878
0.521728 0.619848 0.610608
0.594571 0.628891 0.619651
0.661385 0.637185 0.627945
0.719157 0.644357 0.635117
0.776929 0.651529 0.642289
0.298449 0.675089 0.607329
0.358733 0.682573 0.614813
0.419016 0.690056 0.622296
0.479300 0.697540 0.629780
0.549631 0.706271 0.638511
0.622473 0.715313 0.647553
0.689288 0.723608 0.655848
0.747059 0.730779 0.663019
0.804831 0.737951 0.670191
0.319429 0.740069 0.628309
0.379712 0.747552 0.635792
0.439996 0.755036 0.643276
0.500279 0.762519 0.650759
0.570610 0.771250 0.659490
0.643452 0.780292 0.668532
0.710267 0.788587 0.676827
0.768038 0.795758 0.683998
0.825810 0.802930 0.691170
0.340408 0.805048 0.649288
0.400691 0.812531 0.656771
0.460975 0.820015 0.664255
0.521258 0.827498 0.671738
0.591589 0.836229 0.680469
0.664432 0.845272 0.689512
0.731246 0.853566 0.697806
0.789018 0.860738 0.704978
0.846789 0.867909 0.712149
0.124181 0.129461 0.491141
0.184464 0.136944 0.498624
0.244748 0.144428 0.506108
0.305031 0.151911 0.513591
0.375362 0.160642 0.522322
0.448204 0.169684 0.531364
0.515019 0.177979 0.539659
0.572790 0.185150 0.546830
0.630562 0.192322 0.554002
0.152502 0.217182 0.519462
0.212786 0.224666 0.526946
0.273069 0.232149 0.534429
0.333353 0.239633 0.541913
0.403684 0.248364 0.550644
0.476526 0.257406 0.559686
0.543341 0.265701 0.567981
0.601112 0.272872 0.575152
0.658884 0.280044 0.582324
0.180824 0.304904 0.547784
0.241108 0.312388 0.555268
0.301391 0.319871 0.562751
0.361675 0.327355 0.570235
0.432006 0.336086 0.578966
0.504848 0.345128 0.588008
0.571663 0.353423 0.596303
0.629434 0.360594 0.603474
0.687206 0.367766 0.610646
0.209146 0.392626 0.576106
0.269430 0.400110 0.583590
0.329713 0.407593 0.591073
0.389997 0.415077 0.598557
0.460328 0.423808 0.607288
0.533170 0.432850 0.616330
0.599984 0.441144 0.624624
0.657756 0.448316 0.631796
0.715528 0.455488 0.638968
0.240825 0.490745 0.607785
0.301108 0.498228 0.615268
0.361392 0.505712 0.622752
0.421675 0.513195 0.630235
0.492006 0.521926 0.638966
0.564849 0.530969 0.648009
0.631663 0.539263 0.656303
0.689435 0.546435 0.663475
0.747206 0.553606 0.670646
0.273343 0.591463 0.640303
0.333626 0.598946 0.647786
0.393910 0.606430 0.655270
0.454193 0.613913 0.662753
0.524524 0.622644 0.671484
0.597367 0.631687 0.680527
0.664181 0.639981 0.688821
0.721952 0.647152 0.695992
0.779724 0.654324 0.703164
0.301245 0.677885 0.668205
0.361528 0.685368 0.675688
0.421812 0.692852 0.683172
0.482096 0.700336 0.690656
0.552426 0.709066 0.699386
0.625269 0.718109 0.708429
0.692083 0.726403 0.716723
0.749855 0.733575 0.723895
0.807627 0.740747 0.731067
0.322224 0.742864 0.689184
0.382508 0.750348 0.696668
0.442791 0.757831 0.704151
0.503075 0.765315 0.711635
0.573405 0.774045 0.720365
0.646248 0.783088 0.729408
0.713062 0.791382 0.737702
0.770834 0.798554 0.744874
0.828606 0.805726 0.752046
0.343203 0.807843 0.710163
0.403487 0.815327 0.717647
0.463770 0.822810 0.725130
0.524054 0.830294 0.732614
0.594385 0.839025 0.741345
0.667227 0.848067 0.750387
0.734042 0.856362 0.758682
0.791813 0.863533 0.765853
0.849585 0.870705 0.773025
0.126404 0.131684 0.539564
0.186688 0.139168 0.547048
0.246971 0.146651 0.554531
0.307255 0.154135 0.562015
0.377586 0.162866 0.570746
0.450428 0.171908 0.579788
0.517242 0.180202 0.588082
0.575014 0.187374 0.595254
0.632786 0.194546 0.602426
0.154726 0.219406 0.567886
0.215010 0.226890 0.575370
0.275293 0.234373 0.582853
0.335577 0.241857 0.590337
0.405908 0.250588 0.599068
0.478750 0.259630 0.608110
0.545564 0.267924 0.616404
0.603336 0.275096 0.623576
0.661108 0.282268 0.630748
0.183048 0.307128 0.596208
0.243332 0.314612 0.603692
0.303615 0.322095 0.611175
0.363899 0.329579 0.618659
0.434229 0.338309 0.627389
0.507072 0.347352 0.636432
0.573886 0.355646 0.644726
0.631658 0.362818 0.651898
0.689430 0.369990 0.659070
0.211370 0.394850 0.624530
0.271654 0.402334 0.632014
0.331937 0.409817 0.639497
0.392221 0.417301 0.646981
0.462551 0.426031 0.655711
0.535394 0.435074 0.664754
0.602208 0.443368 0.673048
0.659980 0.450540 0.680220
0.717752 0.457712 0.687392
0.243049 0.492969 0.656209
0.303332 0.500452 0.663692
0.363616 0.507936 0.671176
0.423899 0.515419 0.678659
0.494230 0.524150 0.687390
0.567073 0.533193 0.696433
0.633887 0.541487 0.704727
0.691658 0.548658 0.711898
0.749430 0.555830 0.719070
0.275566 0.593686 0.688726
0.335850 0.601170 0.696210
0.396133 0.608653 0.703693
0.456417 0.616137 0.711177
0.526748 0.624868 0.719908
0.599590 0.633910 0.728950
0.666405 0.642205 0.737245
0.724176 0.649376 0.744416
0.781948 0.656548 0.751588
0.303469 0.680109 0.716629
0.363752 0.687592 0.724112
0.424036 0.695076 0.731596
0.484319 0.702559 0.739079
0.554650 0.711290 0.747810
0.627493 0.720333 0.756853
0.694307 0.728627 0.765147
0.752079 0.735799 0.772319
0.809850 0.742970 0.779490
0.324448 0.745088 0.737608
0.384731 0.752571 0.745091
0.445015 0.760055 0.752575
0.505298 0.767538 0.760058
0.575629 0.776269 0.768789
0.648472 0.785312 0.777832
0.715286 0.793606 0.786126
0.773058 0.800778 0.793298
0.830829 0.807949 0.800469
0.345427 0.810067 0.758587
0.405711 0.817551 0.766071
0.465994 0.825034 0.773554
0.526278 0.832518 0.781038
0.596608 0.841248 0.789768
0.669451 0.850291 0.798811
0.736265 0.858585 0.807105
0.794037 0.865757 0.814277
0.851809 0.872929 0.821449
0.128628 0.133908 0.587988
0.188912 0.141392 0.595472
0.249195 0.148875 0.602955
0.309479 0.156359 0.610439
0.379809 0.165089 0.619169
0.452652 0.174132 0.628212
0.519466 0.182426 0.636506
0.577238 0.189598 0.643678
0.635010 0.196770 0.650850
0.156950 0.221630 0.616310
0.217233 0.229113 0.623793
0.277517 0.236597 0.631277
0.337801 0.244081 0.638761
0.408131 0.252811 0.647491
0.480974 0.261854 0.656534
0.547788 0.270148 0.664828
0.605560 0.277320 0.672000
0.663332 0.284492 0.679172
0.185272 0.309352 0.644632
0.245555 0.316835 0.652115
0.305839 0.324319 0.659599
0.366122 0.331802 0.667082
0.436453 0.340533 0.675813
0.509296 0.349576 0.684856
0.576110 0.357870 0.693150
0.633882 0.365042 0.700322
0.691653 0.372213 0.707493
0.213594 0.397074 0.672954
0.273877 0.404557 0.680437
0.334161 0.412041 0.687921
0.394444 0.419524 0.695404
0.464775 0.428255 0.704135
0.537618 0.437298 0.713178
0.604432 0.445592 0.721472
0.662204 0.452764 0.728644
0.719975 0.459935 0.735815
0.245272 0.495192 0.704632
0.305556 0.502676 0.712116
0.365839 0.510159 0.719599
0.426123 0.517643 0.727083
0.496454 0.526374 0.735814
0.569296 0.535416 0.744856
0.636111 0.543711 0.753151
0.693882 0.550882 0.760322
0.751654 0.558054 0.767494
0.277790 0.595910 0.737150
0.338074 0.603394 0.744634
0.398357 0.610877 0.752117
0.458641 0.618361 0.759601
0.528971 0.627091 0.768331
0.601814 0.636134 0.777374
0.668628 0.644428 0.785668
0.726400 0.651600 0.792840
0.784172 0.658772 0.800012
0.305692 0.682332 0.765052
0.365976 0.689816 0.772536
0.426260 0.697300 0.780020
0.486543 0.704783 0.787503
0.556874 0.713514 0.796234
0.629716 0.722556 0.805276
0.696531 0.730851 0.813571
0.754302 0.738022 0.820742
0.812074 0.745194 0.827914
0.326672 0.747312 0.786032
0.386955 0.754795 0.793515
0.447239 0.762279 0.800999
0.507522 0.769762 0.808482
0.577853 0.778493 0.817213
0.650696 0.787536 0.826256
0.717510 0.795830 0.834550
0.775282 0.803002 0.841722
0.833053 0.810173 0.848893
0.347651 0.812291 0.807011
0.407934 0.819774 0.814494
0.468218 0.827258 0.821978
0.528501 0.834741 0.829461
0.598832 0.843472 0.838192
0.671675 0.852515 0.847235
0.738489 0.860809 0.855529
0.796261 0.867981 0.862701
0.854032 0.875152 0.869872
