luts/cold_unease.cube
TITLE "Cinema Sixth Sense"
LUT_3D_SIZE 5
0.107280 0.112560 0.123120
0.227847 0.127527 0.138087
0.358461 0.143741 0.154301
0.498118 0.161078 0.171638
0.613662 0.175422 0.185982
0.163924 0.288004 0.179764
0.284491 0.302971 0.194731
0.415105 0.319185 0.210945
0.554762 0.336522 0.228282
0.670305 0.350865 0.242625
0.223924 0.473844 0.239764
0.344491 0.488811 0.254731
0.475106 0.505026 0.270946
0.614762 0.522362 0.288282
0.730306 0.536706 0.302626
0.284344 0.660984 0.300184
0.404911 0.675951 0.315151
0.535526 0.692166 0.331366
0.675183 0.709503 0.348703
0.790726 0.723846 0.363046
0.326303 0.790943 0.342143
0.446870 0.805910 0.357110
0.577484 0.822124 0.373324
0.717141 0.839461 0.390661
0.832684 0.853804 0.405004
0.112522 0.117802 0.237262
0.233089 0.132769 0.252229
0.363703 0.148983 0.268443
0.503360 0.166320 0.285780
0.618903 0.180663 0.300123
0.169165 0.293245 0.293905
0.289733 0.308213 0.308873
0.420347 0.324427 0.325087
0.560004 0.341764 0.342424
0.675547 0.356107 0.356767
0.229166 0.479086 0.353906
0.349733 0.494053 0.368873
0.480347 0.510267 0.385087
0.620004 0.527604 0.402424
0.735548 0.541948 0.416768
0.289586 0.666226 0.414326
0.410153 0.681193 0.429293
0.540767 0.697407 0.445507
0.680424 0.714744 0.462844
0.795968 0.729088 0.477188
0.331545 0.796185 0.456285
0.452112 0.811152 0.471252
0.582726 0.827366 0.487466
0.722383 0.844703 0.504803
0.837926 0.859046 0.519146
0.118208 0.123488 0.361088
0.238775 0.138455 0.376055
0.369389 0.154669 0.392269
0.509046 0.172006 0.409606
0.624590 0.186350 0.423950
0.174852 0.298932 0.417732
0.295419 0.313899 0.432699
0.426033 0.330113 0.448913
0.565690 0.347450 0.466250
0.681234 0.361794 0.480594
0.234852 0.484772 0.477732
0.355420 0.499740 0.492700
0.486034 0.515954 0.508914
0.625691 0.533291 0.526251
0.741234 0.547634 0.540594
0.295273 0.671913 0.538153
0.415840 0.686880 0.553120
0.546454 0.703094 0.569334
0.686111 0.720431 0.586671
0.801654 0.734774 0.601014
0.337231 0.801871 0.580111
0.457798 0.816838 0.595078
0.588412 0.833052 0.611292
0.728069 0.850389 0.628629
0.843613 0.864733 0.642973
0.124181 0.129461 0.491141
0.244748 0.144428 0.506108
0.375362 0.160642 0.522322
0.515019 0.177979 0.539659
0.630562 0.192322 0.554002
0.180824 0.304904 0.547784
0.301391 0.319871 0.562751
0.432006 0.336086 0.578966
0.571663 0.353423 0.596303
0.687206 0.367766 0.610646
0.240825 0.490745 0.607785
0.361392 0.505712 0.622752
0.492006 0.521926 0.638966
0.631663 0.539263 0.656303
0.747206 0.553606 0.670646
0.301245 0.677885 0.668205
0.421812 0.692852 0.683172
0.552426 0.709066 0.699386
0.692083 0.726403 0.716723
0.807627 0.740747 0.731067
0.343203 0.807843 0.710163
0.463770 0.822810 0.725130
0.594385 0.839025 0.741345
0.734042 0.856362 0.758682
0.849585 0.870705 0.773025
0.128628 0.133908 0.587988
0.249195 0.148875 0.602955
0.379809 0.165089 0.619169
0.519466 0.182426 0.636506
0.635010 0.196770 0.650850
0.185272 0.309352 0.644632
0.305839 0.324319 0.659599
0.436453 0.340533 0.675813
0.576110 0.357870 0.693150
0.691653 0.372213 0.707493
0.245272 0.495192 0.704632
0.365839 0.510159 0.719599
0.496454 0.526374 0.735814
0.636111 0.543711 0.753151
0.751654 0.558054 0.767494
0.305692 0.682332 0.765052
0.426260 0.697300 0.780020
0.556874 0.713514 0.796234
0.696531 0.730851 0.813571
0.812074 0.745194 0.827914
0.347651 0.812291 0.807011
0.468218 0.827258 0.821978
0.598832 0.843472 0.838192
0.738489 0.860809 0.855529
0.854032 0.875152 0.869872
