luts/digital_green.cube
TITLE "Cinema The Matrix"
LUT_3D_SIZE 9
0.000000 0.053287 0.000000
0.021168 0.054402 0.000000
0.124554 0.057578 0.000000
0.233393 0.060922 0.000000
0.345868 0.064377 0.000000
0.458343 0.067833 0.000000
0.562637 0.071037 0.000000
0.664887 0.074179 0.000000
0.767137 0.077320 0.000000
0.000000 0.194787 0.000000
0.046108 0.196158 0.000000
0.149494 0.199334 0.000000
0.258333 0.202678 0.000000
0.370808 0.206134 0.000000
0.483282 0.209589 0.004535
0.587577 0.212793 0.008996
0.689827 0.215935 0.013371
0.792077 0.219076 0.017745
0.002416 0.336288 0.002416
0.071048 0.337914 0.005289
0.174434 0.341091 0.009712
0.283273 0.344434 0.014368
0.395747 0.347890 0.019180
0.508222 0.351345 0.023991
0.612517 0.354550 0.028453
0.714767 0.357691 0.032827
0.817017 0.360832 0.037201
0.019681 0.463519 0.019681
0.093473 0.465376 0.022784
0.196858 0.468552 0.027206
0.305698 0.471896 0.031863
0.418172 0.475352 0.036674
0.530647 0.478807 0.041486
0.634942 0.482011 0.045947
0.737192 0.485153 0.050321
0.839441 0.488289 0.054695
0.035654 0.581238 0.035654
0.114221 0.583308 0.038970
0.217607 0.586484 0.043393
0.326446 0.589828 0.048049
0.438921 0.593283 0.052860
0.551307 0.596087 0.057584
0.655470 0.598321 0.061914
0.757591 0.600512 0.066159
0.859712 0.602702 0.070404
0.051628 0.698957 0.051628
0.134955 0.701135 0.055142
0.238210 0.703349 0.059435
0.346912 0.705681 0.063953
0.459245 0.708091 0.068623
0.571578 0.710500 0.073293
0.675741 0.712734 0.077623
0.777862 0.714925 0.081868
0.879982 0.717115 0.086113
0.066113 0.805708 0.066113
0.153751 0.807227 0.069709
0.257007 0.809441 0.074001
0.365709 0.811773 0.078520
0.478042 0.814183 0.083189
0.590374 0.816592 0.087859
0.694538 0.818827 0.092189
0.796658 0.821017 0.096434
0.898779 0.823208 0.100679
0.080200 0.909526 0.080200
0.172179 0.911238 0.083990
0.275435 0.913453 0.088282
0.384137 0.915785 0.092801
0.496470 0.918194 0.097470
0.608805 0.920607 0.102312
0.712981 0.922854 0.107493
0.815115 0.925058 0.112573
0.917249 0.927261 0.117653
0.091610 0.993610 0.091610
0.188256 0.997919 0.095919
0.291841 1.000000 0.100792
0.400900 1.000000 0.106543
0.513602 1.000000 0.112486
0.626304 1.000000 0.118429
0.730810 1.000000 0.123939
0.833266 1.000000 0.129342
0.935721 1.000000 0.134743
0.000000 0.053972 0.040467
0.022766 0.055121 0.043693
0.126165 0.058310 0.048960
0.235018 0.061668 0.054505
0.347507 0.065138 0.060235
0.459996 0.068608 0.065964
0.564304 0.071825 0.071278
0.666567 0.074979 0.076487
0.768830 0.078134 0.081696
0.000000 0.195531 0.063381
0.047764 0.196935 0.066863
0.151163 0.200124 0.072130
0.260016 0.203482 0.077675
0.372505 0.206952 0.083404
0.484994 0.210422 0.089134
0.589302 0.213639 0.094448
0.691565 0.216794 0.099657
0.793828 0.219948 0.104866
0.003657 0.337089 0.086295
0.072762 0.338749 0.090033
0.176161 0.341939 0.095300
0.285014 0.345296 0.100844
0.397503 0.348766 0.106574
0.509992 0.352236 0.112304
0.614300 0.355453 0.117618
0.716563 0.358608 0.122827
0.818826 0.361762 0.128036
0.020973 0.464372 0.106898
0.095239 0.466263 0.110866
0.198638 0.469452 0.116133
0.307491 0.472810 0.121678
0.419980 0.476280 0.127408
0.532469 0.479750 0.133138
0.636777 0.482967 0.138451
0.739040 0.486121 0.143660
0.841256 0.488932 0.148822
0.036995 0.582139 0.125961
0.116035 0.584243 0.130142
0.219434 0.587432 0.135409
0.328287 0.590790 0.140954
0.440776 0.594260 0.146684
0.553131 0.596739 0.152279
0.657307 0.598986 0.157461
0.759441 0.601190 0.162541
0.861575 0.603393 0.167621
0.053017 0.699906 0.145024
0.136771 0.701779 0.149358
0.240040 0.704007 0.154494
0.348756 0.706352 0.159902
0.461103 0.708776 0.165490
0.573450 0.711200 0.171078
0.677626 0.713448 0.176259
0.779760 0.715651 0.181339
0.881894 0.717855 0.186419
0.067501 0.806363 0.162328
0.155613 0.807916 0.166789
0.258881 0.810144 0.171925
0.367597 0.812489 0.177333
0.479944 0.814913 0.182921
0.592291 0.817337 0.188509
0.696468 0.819584 0.193690
0.798601 0.821788 0.198770
0.900735 0.823991 0.203850
0.081632 0.910225 0.179224
0.174084 0.911971 0.183878
0.277353 0.914199 0.189015
0.386069 0.916545 0.194422
0.498416 0.918969 0.200010
0.610763 0.921392 0.205598
0.714939 0.923640 0.210780
0.817073 0.925844 0.215860
0.919207 0.928047 0.220940
0.093200 0.995200 0.193557
0.190319 0.999543 0.198731
0.293914 1.000000 0.204194
0.402973 1.000000 0.209945
0.515675 1.000000 0.215887
0.628377 1.000000 0.221830
0.732883 1.000000 0.227341
0.835339 1.000000 0.232743
0.937679 1.000000 0.238029
0.000000 0.055076 0.143779
0.024770 0.056246 0.147025
0.128169 0.059435 0.152292
0.237022 0.062793 0.157837
0.349511 0.066263 0.163567
0.462000 0.069732 0.169297
0.566308 0.072950 0.174610
0.668571 0.076104 0.179819
0.770834 0.079259 0.185028
0.000000 0.196635 0.166693
0.049768 0.198060 0.170195
0.153167 0.201249 0.175462
0.262020 0.204607 0.181007
0.374509 0.208077 0.186737
0.486998 0.211547 0.192467
0.591306 0.214764 0.197780
0.693569 0.217918 0.202989
0.795832 0.221073 0.208198
0.005201 0.338193 0.189607
0.074766 0.339874 0.193365
0.178165 0.343063 0.198632
0.287018 0.346421 0.204177
0.399507 0.349891 0.209907
0.511996 0.353361 0.215637
0.616304 0.356578 0.220950
0.718567 0.359733 0.226159
0.820830 0.362887 0.231368
0.022517 0.465477 0.210210
0.097243 0.467388 0.214199
0.200642 0.470577 0.219466
0.309495 0.473935 0.225010
0.421984 0.477405 0.230740
0.534473 0.480874 0.236470
0.638781 0.484092 0.241783
0.741044 0.487246 0.246993
0.843214 0.489718 0.252109
0.038539 0.583244 0.229273
0.118039 0.585368 0.233475
0.221438 0.588557 0.238742
0.330291 0.591915 0.244286
0.442742 0.595101 0.249978
0.555089 0.597525 0.255566
0.659265 0.599772 0.260747
0.761399 0.601976 0.265827
0.863533 0.604179 0.270907
0.054561 0.701011 0.248336
0.138729 0.702565 0.252644
0.241998 0.704793 0.257781
0.350714 0.707138 0.263188
0.463061 0.709562 0.268776
0.575408 0.711986 0.274364
0.679584 0.714233 0.279546
0.781718 0.716437 0.284626
0.883852 0.718640 0.289706
0.068999 0.807129 0.265594
0.157571 0.808701 0.270075
0.260839 0.810929 0.275212
0.369555 0.813275 0.280619
0.481902 0.815699 0.286207
0.594249 0.818123 0.291795
0.698426 0.820370 0.296977
0.800559 0.822574 0.302057
0.902693 0.824777 0.307137
0.083130 0.910991 0.282490
0.176042 0.912757 0.287165
0.279311 0.914985 0.292301
0.388027 0.917330 0.297709
0.500374 0.919754 0.303297
0.612721 0.922178 0.308885
0.716897 0.924426 0.314066
0.819031 0.926629 0.319146
0.921165 0.928833 0.324226
0.094813 0.996813 0.296938
0.192392 1.000000 0.302133
0.295987 1.000000 0.307595
0.405046 1.000000 0.313346
0.517748 1.000000 0.319289
0.630450 1.000000 0.325232
0.734956 1.000000 0.330742
0.837412 1.000000 0.336145
0.939637 1.000000 0.341316
0.000000 0.056191 0.248075
0.026793 0.057381 0.251342
0.130192 0.060571 0.256609
0.239045 0.063928 0.262154
0.351534 0.067398 0.267884
0.464023 0.070868 0.273613
0.568332 0.074085 0.278927
0.670594 0.077240 0.284136
0.772857 0.080394 0.289345
0.000000 0.197750 0.270989
0.051791 0.199195 0.274512
0.155190 0.202385 0.279779
0.264043 0.205742 0.285324
0.376532 0.209212 0.291053
0.489021 0.212682 0.296783
0.593329 0.215900 0.302097
0.695592 0.219054 0.307306
0.797855 0.222208 0.312515
0.006759 0.339308 0.293903
0.076789 0.341010 0.297682
0.180188 0.344199 0.302949
0.289041 0.347557 0.308494
0.401530 0.351026 0.314223
0.514019 0.354496 0.319953
0.618327 0.357714 0.325267
0.720590 0.360868 0.330476
0.822853 0.364023 0.335685
0.024076 0.466591 0.314506
0.099266 0.468523 0.318515
0.202665 0.471713 0.323782
0.311518 0.475070 0.329327
0.424007 0.478540 0.335057
0.536496 0.482010 0.340787
0.640804 0.485227 0.346100
0.743057 0.488308 0.351299
0.845191 0.490511 0.356379
0.040097 0.584358 0.333569
0.120062 0.586503 0.337791
0.223461 0.589692 0.343058
0.332314 0.593050 0.348603
0.444718 0.595894 0.354248
0.557066 0.598318 0.359836
0.661242 0.600565 0.365017
0.763376 0.602769 0.370097
0.865510 0.604972 0.375177
0.056097 0.701962 0.352610
0.140706 0.703358 0.356914
0.243974 0.705586 0.362051
0.352690 0.707931 0.367458
0.465037 0.710355 0.373046
0.577385 0.712779 0.378634
0.681561 0.715027 0.383816
0.783695 0.717230 0.388896
0.885829 0.719434 0.393976
0.070511 0.807901 0.369844
0.159547 0.809495 0.374346
0.262816 0.811723 0.379482
0.371531 0.814068 0.384889
0.483879 0.816492 0.390477
0.596226 0.818916 0.396065
0.700402 0.821163 0.401247
0.802536 0.823367 0.406327
0.904670 0.825570 0.411407
0.084642 0.911763 0.386740
0.178019 0.913550 0.391435
0.281288 0.915778 0.396572
0.390003 0.918124 0.401979
0.502350 0.920548 0.407567
0.614698 0.922971 0.413155
0.718874 0.925219 0.418336
0.821008 0.927423 0.423416
0.923142 0.929626 0.428496
0.096441 0.998441 0.401304
0.194485 1.000000 0.406519
0.298080 1.000000 0.411982
0.407139 1.000000 0.417732
0.519841 1.000000 0.423675
0.632543 1.000000 0.429618
0.737048 1.000000 0.435129
0.839480 1.000000 0.440506
0.941613 1.000000 0.445586
0.000000 0.057313 0.353027
0.028829 0.058524 0.356315
0.132228 0.061713 0.361582
0.241081 0.065071 0.367126
0.353570 0.068541 0.372856
0.466059 0.072011 0.378586
0.570367 0.075228 0.383899
0.672630 0.078382 0.389108
0.774893 0.081537 0.394317
0.000000 0.198871 0.375941
0.053827 0.200338 0.379485
0.157226 0.203527 0.384752
0.266079 0.206885 0.390296
0.378568 0.210355 0.396026
0.491057 0.213825 0.401756
0.595365 0.217042 0.407069
0.697628 0.220197 0.412278
0.799891 0.223351 0.417487
0.008328 0.340430 0.398855
0.078824 0.342152 0.402655
0.182224 0.345342 0.407921
0.291077 0.348699 0.413466
0.403566 0.352169 0.419196
0.516055 0.355639 0.424926
0.620363 0.358856 0.430239
0.722626 0.362011 0.435448
0.824888 0.365165 0.440657
0.025644 0.467713 0.419458
0.101301 0.469666 0.423488
0.204701 0.472855 0.428755
0.313554 0.476213 0.434300
0.426043 0.479683 0.440030
0.538532 0.483153 0.445760
0.642840 0.486370 0.451073
0.745046 0.489106 0.456225
0.847180 0.491309 0.461305
0.041666 0.585480 0.438521
0.122098 0.587646 0.442764
0.225497 0.590835 0.448031
0.334350 0.594193 0.453576
0.446707 0.596692 0.459174
0.559055 0.599116 0.464762
0.663231 0.601364 0.469943
0.765365 0.603567 0.475023
0.867499 0.605771 0.480103
0.057619 0.702739 0.457515
0.142695 0.704156 0.461840
0.245964 0.706384 0.466977
0.354679 0.708729 0.472384
0.467026 0.711153 0.477972
0.579374 0.713577 0.483560
0.683550 0.715825 0.488742
0.785684 0.718028 0.493822
0.887818 0.720232 0.498902
0.072032 0.808678 0.474749
0.161536 0.810293 0.479272
0.264805 0.812521 0.484408
0.373521 0.814866 0.489815
0.485868 0.817290 0.495403
0.598215 0.819714 0.500991
0.702391 0.821962 0.506173
0.804525 0.824165 0.511253
0.906659 0.826369 0.516333
0.086164 0.912541 0.491645
0.180008 0.914348 0.496361
0.283277 0.916576 0.501497
0.391992 0.918922 0.506905
0.504340 0.921346 0.512493
0.616687 0.923770 0.518081
0.720863 0.926017 0.523262
0.822997 0.928221 0.528342
0.925131 0.930424 0.533422
0.098080 1.000000 0.506326
0.196591 1.000000 0.511562
0.300186 1.000000 0.517024
0.409245 1.000000 0.522775
0.521947 1.000000 0.528718
0.634649 1.000000 0.534661
0.739154 1.000000 0.540171
0.841469 1.000000 0.545432
0.943603 1.000000 0.550512
0.000000 0.058435 0.457978
0.030865 0.059666 0.461287
0.134264 0.062856 0.466554
0.243117 0.066214 0.472099
0.355606 0.069683 0.477829
0.468095 0.073153 0.483559
0.572403 0.076371 0.488872
0.674666 0.079525 0.494081
0.776929 0.082679 0.499290
0.000000 0.199993 0.480892
0.055862 0.201481 0.484457
0.159262 0.204670 0.489724
0.268115 0.208028 0.495269
0.380604 0.211498 0.500999
0.493093 0.214967 0.506729
0.597401 0.218185 0.512042
0.699664 0.221339 0.517251
0.801926 0.224494 0.522460
0.009896 0.341552 0.503807
0.080860 0.343295 0.507627
0.184259 0.346484 0.512894
0.293112 0.349842 0.518439
0.405601 0.353312 0.524169
0.518091 0.356782 0.529899
0.622399 0.359999 0.535212
0.724661 0.363154 0.540421
0.826924 0.366308 0.545630
0.027213 0.468835 0.524410
0.103337 0.470808 0.528461
0.206736 0.473998 0.533728
0.315589 0.477356 0.539272
0.428078 0.480825 0.545002
0.540568 0.484295 0.550732
0.644876 0.487513 0.556045
0.747035 0.489904 0.561151
0.849169 0.492108 0.566231
0.043234 0.586602 0.543473
0.124134 0.588788 0.547737
0.227533 0.591978 0.553003
0.336349 0.595067 0.558512
0.448697 0.597490 0.564100
0.561044 0.599914 0.569688
0.665220 0.602162 0.574869
0.767354 0.604365 0.579949
0.869488 0.606569 0.585029
0.059140 0.703516 0.562420
0.144684 0.704954 0.566766
0.247953 0.707182 0.571903
0.356668 0.709528 0.577310
0.469016 0.711952 0.582898
0.581363 0.714375 0.588486
0.685539 0.716623 0.593668
0.787673 0.718827 0.598748
0.889807 0.721030 0.603828
0.073554 0.809456 0.579654
0.163525 0.811091 0.584197
0.266794 0.813319 0.589334
0.375510 0.815664 0.594741
0.487857 0.818088 0.600329
0.600204 0.820512 0.605917
0.704380 0.822760 0.611099
0.806514 0.824963 0.616179
0.908648 0.827167 0.621259
0.087685 0.913318 0.596550
0.181997 0.915147 0.601287
0.285266 0.917375 0.606423
0.393981 0.919720 0.611831
0.506329 0.922144 0.617419
0.618676 0.924568 0.623007
0.722852 0.926815 0.628188
0.824986 0.929019 0.633268
0.927120 0.931222 0.638348
0.099718 1.000000 0.611348
0.198697 1.000000 0.616604
0.302292 1.000000 0.622067
0.411351 1.000000 0.627818
0.524053 1.000000 0.633761
0.636755 1.000000 0.639703
0.741260 1.000000 0.645214
0.843458 1.000000 0.650358
0.945592 1.000000 0.655438
0.000000 0.059445 0.552435
0.032697 0.060695 0.555763
0.136096 0.063884 0.561030
0.244949 0.067242 0.566574
0.357438 0.070712 0.572304
0.469927 0.074182 0.578034
0.574235 0.077399 0.583347
0.676498 0.080553 0.588556
0.778761 0.083708 0.593765
0.000000 0.201003 0.575349
0.057695 0.202509 0.578933
0.161094 0.205698 0.584200
0.269947 0.209056 0.589744
0.382436 0.212526 0.595474
0.494925 0.215996 0.601204
0.599233 0.219213 0.606517
0.701496 0.222368 0.611726
0.803759 0.225522 0.616935
0.011308 0.342561 0.598263
0.082692 0.344323 0.602103
0.186092 0.347513 0.607370
0.294945 0.350870 0.612914
0.407434 0.354340 0.618644
0.519923 0.357810 0.624374
0.624231 0.361028 0.629687
0.726494 0.364182 0.634896
0.828756 0.367336 0.640105
0.028624 0.469845 0.618867
0.105169 0.471837 0.622936
0.208569 0.475026 0.628203
0.317422 0.478384 0.633748
0.429911 0.481854 0.639478
0.542400 0.485324 0.645208
0.646691 0.488419 0.650504
0.748825 0.490623 0.655584
0.850959 0.492826 0.660664
0.044646 0.587612 0.637929
0.125966 0.589817 0.642212
0.229365 0.593006 0.647479
0.338139 0.595785 0.652945
0.450487 0.598209 0.658533
0.562834 0.600633 0.664121
0.667010 0.602880 0.669303
0.769144 0.605084 0.674383
0.871278 0.607287 0.679463
0.060510 0.704216 0.656835
0.146474 0.705673 0.661200
0.249743 0.707901 0.666336
0.358458 0.710246 0.671743
0.470806 0.712670 0.677331
0.583153 0.715094 0.682919
0.687329 0.717341 0.688101
0.789463 0.719545 0.693181
0.891597 0.721748 0.698261
0.074924 0.810155 0.674068
0.165315 0.811809 0.678631
0.268584 0.814037 0.683767
0.377300 0.816383 0.689175
0.489647 0.818807 0.694763
0.601994 0.821231 0.700351
0.706171 0.823478 0.705532
0.808304 0.825682 0.710612
0.910438 0.827885 0.715692
0.089055 0.914018 0.690964
0.183787 0.915865 0.695720
0.287056 0.918093 0.700857
0.395772 0.920439 0.706264
0.508119 0.922862 0.711852
0.620466 0.925286 0.717440
0.724642 0.927534 0.722622
0.826776 0.929737 0.727702
0.928910 0.931941 0.732782
0.101193 1.000000 0.705867
0.200592 1.000000 0.711143
0.304187 1.000000 0.716606
0.413246 1.000000 0.722356
0.525948 1.000000 0.728299
0.638650 1.000000 0.734242
0.743114 1.000000 0.739711
0.845248 1.000000 0.744791
0.947382 1.000000 0.749871
0.000000 0.060426 0.644268
0.034478 0.061695 0.647614
0.137877 0.064884 0.652881
0.246730 0.068242 0.658425
0.359220 0.071712 0.664155
0.471709 0.075181 0.669885
0.576017 0.078399 0.675198
0.678279 0.081553 0.680407
0.780542 0.084708 0.685617
0.000000 0.201985 0.667182
0.059476 0.203509 0.670784
0.162875 0.206698 0.676051
0.271728 0.210056 0.681595
0.384217 0.213526 0.687325
0.496706 0.216996 0.693055
0.601014 0.220213 0.698368
0.703277 0.223368 0.703577
0.805540 0.226522 0.708786
0.012680 0.343543 0.690096
0.084474 0.345323 0.693954
0.187873 0.348513 0.699221
0.296726 0.351870 0.704765
0.409215 0.355340 0.710495
0.521704 0.358810 0.716225
0.626012 0.362027 0.721538
0.728275 0.365182 0.726747
0.830538 0.368336 0.731956
0.029996 0.470826 0.710699
0.106951 0.472837 0.714787
0.210350 0.476026 0.720054
0.319203 0.479384 0.725599
0.431692 0.482854 0.731329
0.544181 0.486324 0.737059
0.648432 0.489117 0.742314
0.750565 0.491321 0.747394
0.852699 0.493525 0.752474
0.046018 0.588593 0.729762
0.127747 0.590817 0.734063
0.231146 0.594006 0.739330
0.339880 0.596483 0.744755
0.452227 0.598907 0.750343
0.564574 0.601331 0.755931
0.668751 0.603579 0.761113
0.770884 0.605782 0.766193
0.873018 0.607986 0.771273
0.061841 0.704896 0.748627
0.148215 0.706371 0.753010
0.251483 0.708599 0.758146
0.360199 0.710945 0.763554
0.472546 0.713368 0.769142
0.584893 0.715792 0.774730
0.689070 0.718040 0.779911
0.791203 0.720243 0.784991
0.893337 0.722447 0.790071
0.076255 0.810836 0.765860
0.167056 0.812508 0.770441
0.270324 0.814736 0.775577
0.379040 0.817081 0.780985
0.491387 0.819505 0.786573
0.603735 0.821929 0.792161
0.707911 0.824177 0.797342
0.810045 0.826380 0.802422
0.912179 0.828584 0.807502
0.090386 0.914698 0.782756
0.185528 0.916563 0.787530
0.288796 0.918791 0.792667
0.397512 0.921137 0.798074
0.509859 0.923561 0.803662
0.622206 0.925985 0.809250
0.726383 0.928232 0.814432
0.828517 0.930436 0.819512
0.930650 0.932639 0.824592
0.102627 1.000000 0.797762
0.202435 1.000000 0.803055
0.306030 1.000000 0.808518
0.415089 1.000000 0.814269
0.527791 1.000000 0.820212
0.640493 1.000000 0.826154
0.744855 1.000000 0.831521
0.846988 1.000000 0.836601
0.949122 1.000000 0.841681
0.000000 0.061408 0.736101
0.036260 0.062694 0.739465
0.139659 0.065884 0.744732
0.248512 0.069242 0.750276
0.361001 0.072711 0.756006
0.473490 0.076181 0.761736
0.577798 0.079399 0.767050
0.680061 0.082553 0.772259
0.782324 0.085708 0.777468
0.000000 0.202966 0.759015
0.061257 0.204509 0.762635
0.164656 0.207698 0.767902
0.273510 0.211056 0.773446
0.385999 0.214526 0.779176
0.498488 0.217995 0.784906
0.602796 0.221213 0.790219
0.705059 0.224367 0.795429
0.807321 0.227522 0.800638
0.014052 0.344524 0.781929
0.086255 0.346323 0.785805
0.189654 0.349512 0.791072
0.298507 0.352870 0.796616
0.410996 0.356340 0.802346
0.523485 0.359810 0.808076
0.627794 0.363027 0.813389
0.730056 0.366182 0.818598
0.832319 0.369336 0.823807
0.031369 0.471808 0.802532
0.108732 0.473837 0.806638
0.212131 0.477026 0.811905
0.320984 0.480384 0.817450
0.433473 0.483854 0.823180
0.545962 0.487323 0.828910
0.650172 0.489816 0.834125
0.752306 0.492019 0.839205
0.854440 0.494223 0.844285
0.047391 0.589575 0.821595
0.129529 0.591816 0.825914
0.232905 0.594836 0.831158
0.341620 0.597182 0.836565
0.453968 0.599606 0.842153
0.566315 0.602030 0.847741
0.670491 0.604277 0.852923
0.772625 0.606481 0.858003
0.874759 0.608684 0.863083
0.063173 0.705577 0.840419
0.149955 0.707069 0.844820
0.253224 0.709297 0.849956
0.361939 0.711643 0.855364
0.474287 0.714067 0.860952
0.586634 0.716491 0.866540
0.690810 0.718738 0.871721
0.792944 0.720942 0.876801
0.895078 0.723145 0.881881
0.077586 0.811516 0.857652
0.168796 0.813206 0.862251
0.272065 0.815434 0.867388
0.380781 0.817780 0.872795
0.493128 0.820204 0.878383
0.605475 0.822627 0.883971
0.709651 0.824875 0.889153
0.811785 0.827079 0.894233
0.913919 0.829282 0.899313
0.091718 0.915378 0.874548
0.187268 0.917262 0.879341
0.290537 0.919490 0.884477
0.399252 0.921835 0.889884
0.511600 0.924259 0.895472
0.623947 0.926683 0.901060
0.728123 0.928931 0.906242
0.830257 0.931134 0.911322
0.932391 0.933338 0.916402
0.104060 1.000000 0.889656
0.204278 1.000000 0.894968
0.307872 1.000000 0.900430
0.416932 1.000000 0.906181
0.529633 1.000000 0.912124
0.642335 1.000000 0.918067
0.746595 1.000000 0.923331
0.848729 1.000000 0.928411
0.950863 1.000000 0.933491
