luts/digital_green.cube
TITLE "Cinema The Matrix"
LUT_3D_SIZE 33
0.000000 0.053287 0.000000
0.000000 0.052926 0.000000
0.000000 0.052814 0.000000
0.000000 0.053608 0.000000
0.021168 0.054402 0.000000
0.047014 0.055196 0.000000
0.072861 0.055990 0.000000
0.098707 0.056784 0.000000
0.124554 0.057578 0.000000
0.150400 0.058372 0.000000
0.177156 0.059194 0.000000
0.205274 0.060058 0.000000
0.233393 0.060922 0.000000
0.261512 0.061786 0.000000
0.289630 0.062650 0.000000
0.317749 0.063514 0.000000
0.345868 0.064377 0.000000
0.373987 0.065241 0.000000
0.402105 0.066105 0.000000
0.430224 0.066969 0.000000
0.458343 0.067833 0.000000
0.485950 0.068681 0.000000
0.511512 0.069466 0.000000
0.537075 0.070252 0.000000
0.562637 0.071037 0.000000
0.588200 0.071822 0.000000
0.613762 0.072608 0.000000
0.639325 0.073393 0.000000
0.664887 0.074179 0.000000
0.690450 0.074964 0.000000
0.716012 0.075749 0.000000
0.741574 0.076535 0.000000
0.767137 0.077320 0.000000
0.000000 0.088662 0.000000
0.000000 0.088302 0.000000
0.000000 0.088253 0.000000
0.001556 0.089047 0.000000
0.027403 0.089841 0.000000
0.053249 0.090635 0.000000
0.079096 0.091429 0.000000
0.104942 0.092223 0.000000
0.130789 0.093017 0.000000
0.156635 0.093811 0.000000
0.183391 0.094633 0.000000
0.211509 0.095497 0.000000
0.239628 0.096361 0.000000
0.267747 0.097225 0.000000
0.295865 0.098089 0.000000
0.323984 0.098953 0.000000
0.352103 0.099816 0.000000
0.380221 0.100680 0.000000
0.408340 0.101544 0.000000
0.436459 0.102408 0.000000
0.464578 0.103272 0.000000
0.492185 0.104120 0.000000
0.517747 0.104906 0.000000
0.543310 0.105691 0.000000
0.568872 0.106476 0.000000
0.594435 0.107262 0.000000
0.619997 0.108047 0.000000
0.645560 0.108832 0.000000
0.671122 0.109618 0.000000
0.696685 0.110403 0.000000
0.722247 0.111188 0.000965
0.747809 0.111974 0.002059
0.773372 0.112759 0.003153
0.000000 0.124037 0.000000
0.000000 0.123677 0.000000
0.000000 0.123692 0.000000
0.007791 0.124486 0.000000
0.033638 0.125280 0.000000
0.059484 0.126074 0.000000
0.085331 0.126868 0.000000
0.111177 0.127662 0.000000
0.137024 0.128456 0.000000
0.162870 0.129250 0.000000
0.189626 0.130072 0.000000
0.217744 0.130936 0.000000
0.245863 0.131800 0.000000
0.273982 0.132664 0.000000
0.302100 0.133528 0.000000
0.330219 0.134392 0.000000
0.358338 0.135256 0.000000
0.386456 0.136119 0.000000
0.414575 0.136983 0.000000
0.442694 0.137847 0.000000
0.470813 0.138711 0.000000
0.498420 0.139559 0.000000
0.523982 0.140345 0.000000
0.549545 0.141130 0.000000
0.575107 0.141915 0.000000
0.600670 0.142701 0.000362
0.626232 0.143486 0.001455
0.651795 0.144271 0.002549
0.677357 0.145057 0.003642
0.702920 0.145842 0.004736
0.728482 0.146627 0.005830
0.754044 0.147413 0.006923
0.779607 0.148198 0.008017
0.000000 0.159412 0.000000
0.000000 0.159052 0.000000
0.000000 0.159131 0.000000
0.014026 0.159925 0.000000
0.039873 0.160719 0.000000
0.065719 0.161513 0.000000
0.091566 0.162307 0.000000
0.117412 0.163101 0.000000
0.143259 0.163895 0.000000
0.169105 0.164689 0.000000
0.195861 0.165511 0.000000
0.223979 0.166375 0.000000
0.252098 0.167239 0.000000
0.280217 0.168103 0.000000
0.308335 0.168967 0.000000
0.336454 0.169831 0.000000
0.364573 0.170695 0.000000
0.392691 0.171559 0.000000
0.420810 0.172422 0.000000
0.448929 0.173286 0.000000
0.477047 0.174150 0.000000
0.504655 0.174998 0.000852
0.530217 0.175784 0.001945
0.555780 0.176569 0.003039
0.581342 0.177354 0.004132
0.606905 0.178140 0.005226
0.632467 0.178925 0.006319
0.658030 0.179710 0.007413
0.683592 0.180496 0.008507
0.709154 0.181281 0.009600
0.734717 0.182066 0.010694
0.760279 0.182852 0.011787
0.785842 0.183637 0.012881
0.000000 0.194787 0.000000
0.000000 0.194427 0.000000
0.000000 0.194570 0.000000
0.020261 0.195364 0.000000
0.046108 0.196158 0.000000
0.071954 0.196952 0.000000
0.097801 0.197746 0.000000
0.123647 0.198540 0.000000
0.149494 0.199334 0.000000
0.175340 0.200128 0.000000
0.202096 0.200950 0.000000
0.230214 0.201814 0.000000
0.258333 0.202678 0.000000
0.286452 0.203542 0.000000
0.314570 0.204406 0.000000
0.342689 0.205270 0.000000
0.370808 0.206134 0.000000
0.398926 0.206998 0.000926
0.427045 0.207861 0.002129
0.455164 0.208725 0.003332
0.483282 0.209589 0.004535
0.510890 0.210437 0.005716
0.536452 0.211223 0.006809
0.562015 0.212008 0.007903
0.587577 0.212793 0.008996
0.613140 0.213579 0.010090
0.638702 0.214364 0.011184
0.664265 0.215149 0.012277
0.689827 0.215935 0.013371
0.715389 0.216720 0.014464
0.740952 0.217505 0.015558
0.766514 0.218291 0.016651
0.792077 0.219076 0.017745
0.000000 0.230162 0.000000
0.000000 0.229802 0.000000
0.000650 0.230009 0.000000
0.026496 0.230803 0.000000
0.052343 0.231597 0.000000
0.078189 0.232391 0.000000
0.104036 0.233185 0.000000
0.129882 0.233979 0.000000
0.155729 0.234773 0.000000
0.181575 0.235568 0.000000
0.208330 0.236390 0.000000
0.236449 0.237253 0.000000
0.264568 0.238117 0.000000
0.292687 0.238981 0.000979
0.320805 0.239845 0.002182
0.348924 0.240709 0.003385
0.377043 0.241573 0.004587
0.405161 0.242437 0.005790
0.433280 0.243301 0.006993
0.461399 0.244164 0.008196
0.489517 0.245028 0.009399
0.517125 0.245876 0.010580
0.542687 0.246662 0.011674
0.568250 0.247447 0.012767
0.593812 0.248232 0.013861
0.619375 0.249018 0.014954
0.644937 0.249803 0.016048
0.670499 0.250589 0.017141
0.696062 0.251374 0.018235
0.721624 0.252159 0.019328
0.747187 0.252945 0.020422
0.772749 0.253730 0.021515
0.798312 0.254515 0.022609
0.000000 0.265538 0.000000
0.000000 0.265177 0.000000
0.006885 0.265448 0.000000
0.032731 0.266242 0.000000
0.058578 0.267036 0.000000
0.084424 0.267830 0.000000
0.110271 0.268624 0.000000
0.136117 0.269418 0.000000
0.161964 0.270213 0.000000
0.187810 0.271007 0.001090
0.214565 0.271829 0.002234
0.242684 0.272692 0.003437
0.270803 0.273556 0.004640
0.298922 0.274420 0.005843
0.327040 0.275284 0.007046
0.355159 0.276148 0.008249
0.383278 0.277012 0.009451
0.411396 0.277876 0.010654
0.439515 0.278740 0.011857
0.467634 0.279603 0.013060
0.495752 0.280467 0.014263
0.523360 0.281316 0.015444
0.548922 0.282101 0.016538
0.574485 0.282886 0.017631
0.600047 0.283672 0.018725
0.625610 0.284457 0.019818
0.651172 0.285242 0.020912
0.676734 0.286028 0.022005
0.702297 0.286813 0.023099
0.727859 0.287598 0.024192
0.753422 0.288384 0.025286
0.778984 0.289169 0.026379
0.804547 0.289954 0.027473
0.000000 0.300913 0.000000
0.000000 0.300552 0.000000
0.013120 0.300887 0.000000
0.038966 0.301681 0.000000
0.064813 0.302475 0.000425
0.090659 0.303269 0.001531
0.116506 0.304063 0.002637
0.142352 0.304858 0.003742
0.168199 0.305652 0.004848
0.194045 0.306446 0.005954
0.220800 0.307268 0.007098
0.248919 0.308132 0.008301
0.277038 0.308995 0.009504
0.305156 0.309859 0.010707
0.333275 0.310723 0.011910
0.361394 0.311587 0.013113
0.389513 0.312451 0.014316
0.417631 0.313315 0.015518
0.445750 0.314179 0.016721
0.473869 0.315043 0.017924
0.501987 0.315906 0.019127
0.529595 0.316755 0.020308
0.555157 0.317540 0.021402
0.580720 0.318325 0.022495
0.606282 0.319111 0.023589
0.631845 0.319896 0.024682
0.657407 0.320681 0.025776
0.682969 0.321467 0.026869
0.708532 0.322252 0.027963
0.734094 0.323037 0.029056
0.759657 0.323823 0.030150
0.785219 0.324608 0.031244
0.810782 0.325393 0.032337
0.002416 0.336288 0.002416
0.002367 0.335927 0.002367
0.019355 0.336326 0.003078
0.045201 0.337120 0.004184
0.071048 0.337914 0.005289
0.096894 0.338708 0.006395
0.122741 0.339503 0.007501
0.148587 0.340297 0.008606
0.174434 0.341091 0.009712
0.200280 0.341885 0.010818
0.227035 0.342707 0.011962
0.255154 0.343571 0.013165
0.283273 0.344434 0.014368
0.311391 0.345298 0.015571
0.339510 0.346162 0.016774
0.367629 0.347026 0.017977
0.395747 0.347890 0.019180
0.423866 0.348754 0.020383
0.451985 0.349618 0.021585
0.480104 0.350482 0.022788
0.508222 0.351345 0.023991
0.535830 0.352194 0.025172
0.561392 0.352979 0.026266
0.586955 0.353764 0.027359
0.612517 0.354550 0.028453
0.638079 0.355335 0.029546
0.663642 0.356120 0.030640
0.689204 0.356906 0.031733
0.714767 0.357691 0.032827
0.740329 0.358476 0.033921
0.765892 0.359262 0.035014
0.791454 0.360047 0.036108
0.817017 0.360832 0.037201
0.007216 0.371663 0.007216
0.007167 0.371302 0.007167
0.025590 0.371765 0.007942
0.051436 0.372559 0.009048
0.077283 0.373353 0.010153
0.103129 0.374148 0.011259
0.128976 0.374942 0.012365
0.154822 0.375736 0.013470
0.180668 0.376530 0.014576
0.206515 0.377324 0.015682
0.233270 0.378146 0.016826
0.261389 0.379010 0.018029
0.289508 0.379874 0.019232
0.317626 0.380737 0.020435
0.345745 0.381601 0.021638
0.373864 0.382465 0.022841
0.401982 0.383329 0.024044
0.430101 0.384193 0.025247
0.458220 0.385057 0.026450
0.486339 0.385921 0.027652
0.514457 0.386785 0.028855
0.542065 0.387633 0.030036
0.567627 0.388418 0.031130
0.593190 0.389203 0.032223
0.618752 0.389989 0.033317
0.644314 0.390774 0.034411
0.669877 0.391559 0.035504
0.695439 0.392345 0.036598
0.721002 0.393130 0.037691
0.746564 0.393915 0.038785
0.772127 0.394701 0.039878
0.797689 0.395486 0.040972
0.823252 0.396272 0.042065
0.011694 0.404660 0.011694
0.011645 0.404299 0.011645
0.031405 0.404822 0.012479
0.057252 0.405616 0.013585
0.083098 0.406410 0.014691
0.108945 0.407204 0.015796
0.134791 0.407998 0.016902
0.160638 0.408792 0.018008
0.186484 0.409586 0.019113
0.212331 0.410380 0.020219
0.239086 0.411202 0.021364
0.267205 0.412066 0.022566
0.295323 0.412930 0.023769
0.323442 0.413794 0.024972
0.351561 0.414658 0.026175
0.379680 0.415522 0.027378
0.407798 0.416386 0.028581
0.435917 0.417250 0.029784
0.464036 0.418113 0.030987
0.492154 0.418977 0.032190
0.520273 0.419841 0.033392
0.547880 0.420689 0.034573
0.573443 0.421475 0.035667
0.599005 0.422260 0.036761
0.624568 0.423045 0.037854
0.650130 0.423831 0.038948
0.675693 0.424616 0.040041
0.701255 0.425401 0.041135
0.726818 0.426187 0.042228
0.752380 0.426972 0.043322
0.777942 0.427757 0.044415
0.803505 0.428543 0.045509
0.829067 0.429328 0.046602
0.015687 0.434089 0.015687
0.015638 0.433729 0.015638
0.036592 0.434305 0.016526
0.062439 0.435099 0.017631
0.088285 0.435893 0.018737
0.114132 0.436687 0.019843
0.139978 0.437481 0.020949
0.165825 0.438275 0.022054
0.191671 0.439069 0.023160
0.217518 0.439863 0.024266
0.244273 0.440685 0.025410
0.272392 0.441549 0.026613
0.300511 0.442413 0.027816
0.328629 0.443277 0.029019
0.356748 0.444141 0.030222
0.384867 0.445005 0.031425
0.412985 0.445869 0.032627
0.441104 0.446732 0.033830
0.469223 0.447596 0.035033
0.497341 0.448460 0.036236
0.525460 0.449324 0.037439
0.553068 0.450172 0.038620
0.578630 0.450958 0.039714
0.604192 0.451743 0.040807
0.629755 0.452528 0.041901
0.655317 0.453314 0.042994
0.680880 0.454099 0.044088
0.706442 0.454884 0.045181
0.732005 0.455670 0.046275
0.757567 0.456455 0.047368
0.783130 0.457240 0.048462
0.808692 0.458026 0.049555
0.834254 0.458811 0.050649
0.019681 0.463519 0.019681
0.019632 0.463159 0.019632
0.041780 0.463788 0.020572
0.067626 0.464582 0.021678
0.093473 0.465376 0.022784
0.119319 0.466170 0.023889
0.145165 0.466964 0.024995
0.171012 0.467758 0.026101
0.196858 0.468552 0.027206
0.222705 0.469346 0.028312
0.249460 0.470168 0.029457
0.277579 0.471032 0.030660
0.305698 0.471896 0.031863
0.333816 0.472760 0.033065
0.361935 0.473624 0.034268
0.390054 0.474488 0.035471
0.418172 0.475352 0.036674
0.446291 0.476215 0.037877
0.474410 0.477079 0.039080
0.502528 0.477943 0.040283
0.530647 0.478807 0.041486
0.558255 0.479655 0.042667
0.583817 0.480441 0.043760
0.609379 0.481226 0.044854
0.634942 0.482011 0.045947
0.660504 0.482797 0.047041
0.686067 0.483582 0.048134
0.711629 0.484367 0.049228
0.737192 0.485153 0.050321
0.762754 0.485938 0.051415
0.788317 0.486723 0.052509
0.813879 0.487509 0.053602
0.839441 0.488289 0.054695
0.023674 0.492949 0.023674
0.023625 0.492588 0.023625
0.046967 0.493271 0.024619
0.072813 0.494065 0.025725
0.098660 0.494859 0.026830
0.124506 0.495653 0.027936
0.150353 0.496447 0.029042
0.176199 0.497241 0.030147
0.202045 0.498035 0.031253
0.227892 0.498829 0.032359
0.254647 0.499651 0.033503
0.282766 0.500515 0.034706
0.310885 0.501379 0.035909
0.339003 0.502243 0.037112
0.367122 0.503107 0.038315
0.395241 0.503971 0.039518
0.423359 0.504834 0.040721
0.451478 0.505698 0.041924
0.479597 0.506562 0.043126
0.507716 0.507426 0.044329
0.535834 0.508290 0.045532
0.563442 0.509138 0.046713
0.589004 0.509923 0.047807
0.614567 0.510709 0.048900
0.640129 0.511494 0.049994
0.665691 0.512280 0.051087
0.691254 0.513065 0.052181
0.716816 0.513850 0.053274
0.742379 0.514636 0.054368
0.767918 0.515250 0.055438
0.793448 0.515797 0.056500
0.818978 0.516345 0.057561
0.844509 0.516893 0.058622
0.027667 0.522379 0.027667
0.027618 0.522018 0.027618
0.052154 0.522754 0.028666
0.078000 0.523548 0.029771
0.103847 0.524342 0.030877
0.129693 0.525136 0.031983
0.155540 0.525930 0.033088
0.181386 0.526724 0.034194
0.207233 0.527518 0.035300
0.233079 0.528312 0.036405
0.259834 0.529134 0.037550
0.287953 0.529998 0.038753
0.316072 0.530862 0.039956
0.344190 0.531726 0.041159
0.372309 0.532590 0.042362
0.400428 0.533453 0.043564
0.428547 0.534317 0.044767
0.456665 0.535181 0.045970
0.484784 0.536045 0.047173
0.512903 0.536909 0.048376
0.541021 0.537773 0.049579
0.568629 0.538621 0.050760
0.594191 0.539406 0.051853
0.619754 0.540192 0.052947
0.645316 0.540977 0.054040
0.670865 0.541663 0.055120
0.696395 0.542210 0.056182
0.721925 0.542758 0.057243
0.747456 0.543305 0.058304
0.772986 0.543853 0.059366
0.798516 0.544401 0.060427
0.824046 0.544948 0.061488
0.849576 0.545496 0.062549
0.031661 0.551808 0.031661
0.031612 0.551448 0.031612
0.057341 0.552237 0.032712
0.083187 0.553031 0.033818
0.109034 0.553825 0.034924
0.134880 0.554619 0.036029
0.160727 0.555413 0.037135
0.186573 0.556207 0.038241
0.212420 0.557001 0.039346
0.238266 0.557795 0.040452
0.265021 0.558617 0.041597
0.293140 0.559481 0.042799
0.321259 0.560345 0.044002
0.349377 0.561209 0.045205
0.377496 0.562073 0.046408
0.405615 0.562936 0.047611
0.433734 0.563800 0.048814
0.461852 0.564664 0.050017
0.489971 0.565528 0.051220
0.518090 0.566392 0.052423
0.546208 0.567256 0.053625
0.573812 0.568075 0.054803
0.599342 0.568623 0.055864
0.624872 0.569171 0.056925
0.650402 0.569718 0.057986
0.675933 0.570266 0.059048
0.701463 0.570813 0.060109
0.726993 0.571361 0.061170
0.752523 0.571909 0.062232
0.778053 0.572456 0.063293
0.803584 0.573004 0.064354
0.829114 0.573552 0.065415
0.854644 0.574099 0.066477
0.035654 0.581238 0.035654
0.036681 0.580925 0.035653
0.062528 0.581719 0.036759
0.088374 0.582514 0.037864
0.114221 0.583308 0.038970
0.140067 0.584102 0.040076
0.165914 0.584896 0.041182
0.191760 0.585690 0.042287
0.217607 0.586484 0.043393
0.243453 0.587278 0.044499
0.270208 0.588100 0.045643
0.298327 0.588964 0.046846
0.326446 0.589828 0.048049
0.354565 0.590692 0.049252
0.382683 0.591555 0.050455
0.410802 0.592419 0.051658
0.438921 0.593283 0.052860
0.467039 0.594147 0.054063
0.495141 0.594882 0.055249
0.523224 0.595485 0.056416
0.551307 0.596087 0.057584
0.578880 0.596679 0.058730
0.604410 0.597226 0.059791
0.629940 0.597774 0.060852
0.655470 0.598321 0.061914
0.681000 0.598869 0.062975
0.706531 0.599417 0.064036
0.732061 0.599964 0.065098
0.757591 0.600512 0.066159
0.783121 0.601060 0.067220
0.808651 0.601607 0.068281
0.834181 0.602155 0.069343
0.859712 0.602702 0.070404
0.039647 0.610668 0.039647
0.041868 0.610408 0.039700
0.067715 0.611202 0.040805
0.093561 0.611996 0.041911
0.119408 0.612791 0.043017
0.145254 0.613585 0.044122
0.171101 0.614379 0.045228
0.196947 0.615173 0.046334
0.222794 0.615967 0.047439
0.248640 0.616761 0.048545
0.275396 0.617583 0.049690
0.303514 0.618447 0.050893
0.331633 0.619311 0.052096
0.359752 0.620175 0.053298
0.387870 0.621038 0.054501
0.415959 0.621678 0.055674
0.444042 0.622281 0.056841
0.472125 0.622883 0.058009
0.500208 0.623486 0.059176
0.528291 0.624088 0.060343
0.556375 0.624690 0.061511
0.583947 0.625282 0.062657
0.609477 0.625829 0.063718
0.635008 0.626377 0.064780
0.660538 0.626925 0.065841
0.686068 0.627472 0.066902
0.711598 0.628020 0.067963
0.737128 0.628568 0.069025
0.762659 0.629115 0.070086
0.788189 0.629663 0.071147
0.813719 0.630210 0.072209
0.839249 0.630758 0.073270
0.864779 0.631306 0.074331
0.043641 0.640097 0.043641
0.047055 0.639891 0.043746
0.072902 0.640685 0.044852
0.098748 0.641479 0.045958
0.124595 0.642273 0.047063
0.150441 0.643068 0.048169
0.176288 0.643862 0.049275
0.202134 0.644656 0.050380
0.227981 0.645450 0.051486
0.253827 0.646244 0.052592
0.280583 0.647066 0.053736
0.308694 0.647872 0.054931
0.336777 0.648475 0.056099
0.364860 0.649077 0.057266
0.392943 0.649679 0.058434
0.421026 0.650282 0.059601
0.449110 0.650884 0.060768
0.477193 0.651486 0.061936
0.505276 0.652089 0.063103
0.533359 0.652691 0.064271
0.561442 0.653294 0.065438
0.589015 0.653885 0.066584
0.614545 0.654433 0.067646
0.640075 0.654980 0.068707
0.665606 0.655528 0.069768
0.691136 0.656076 0.070829
0.716666 0.656623 0.071891
0.742196 0.657171 0.072952
0.767726 0.657718 0.074013
0.793256 0.658266 0.075075
0.818787 0.658814 0.076136
0.844317 0.659361 0.077197
0.869847 0.659909 0.078258
0.047634 0.669527 0.047634
0.052243 0.669374 0.047793
0.078089 0.670168 0.048899
0.103935 0.670962 0.050004
0.129782 0.671756 0.051110
0.155628 0.672550 0.052216
0.181475 0.673345 0.053321
0.207321 0.674139 0.054427
0.233143 0.674746 0.055507
0.258956 0.675300 0.056580
0.285678 0.675873 0.057691
0.313761 0.676475 0.058859
0.341844 0.677078 0.060026
0.369928 0.677680 0.061193
0.398011 0.678283 0.062361
0.426094 0.678885 0.063528
0.454177 0.679487 0.064696
0.482260 0.680090 0.065863
0.510344 0.680692 0.067031
0.538427 0.681295 0.068198
0.566510 0.681897 0.069365
0.594083 0.682488 0.070512
0.619613 0.683036 0.071573
0.645143 0.683584 0.072634
0.670673 0.684131 0.073695
0.696203 0.684679 0.074757
0.721734 0.685226 0.075818
0.747264 0.685774 0.076879
0.772794 0.686322 0.077941
0.798324 0.686869 0.079002
0.823854 0.687417 0.080063
0.849385 0.687965 0.081124
0.874915 0.688512 0.082186
0.051628 0.698957 0.051628
0.057430 0.698857 0.051839
0.083276 0.699651 0.052945
0.109123 0.700445 0.054051
0.134955 0.701135 0.055142
0.160769 0.701688 0.056215
0.186583 0.702242 0.057288
0.212396 0.702796 0.058362
0.238210 0.703349 0.059435
0.264024 0.703903 0.060508
0.290746 0.704476 0.061619
0.318829 0.705079 0.062786
0.346912 0.705681 0.063953
0.374995 0.706283 0.065121
0.403079 0.706886 0.066288
0.431162 0.707488 0.067456
0.459245 0.708091 0.068623
0.487328 0.708693 0.069790
0.515411 0.709295 0.070958
0.543495 0.709898 0.072125
0.571578 0.710500 0.073293
0.599150 0.711092 0.074439
0.624681 0.711639 0.075500
0.650211 0.712187 0.076561
0.675741 0.712734 0.077623
0.701271 0.713282 0.078684
0.726801 0.713830 0.079745
0.752332 0.714377 0.080806
0.777862 0.714925 0.081868
0.803392 0.715473 0.082929
0.828922 0.716020 0.083990
0.854452 0.716568 0.085052
0.879982 0.717115 0.086113
0.055547 0.727844 0.055547
0.062489 0.727557 0.055779
0.088303 0.728110 0.056852
0.114117 0.728664 0.057925
0.139930 0.729218 0.058998
0.165744 0.729771 0.060071
0.191558 0.730325 0.061144
0.217372 0.730879 0.062217
0.243186 0.731433 0.063290
0.269000 0.731986 0.064364
0.295721 0.732559 0.065474
0.323804 0.733162 0.066642
0.351888 0.733764 0.067809
0.379971 0.734367 0.068977
0.408054 0.734969 0.070144
0.436137 0.735571 0.071311
0.464221 0.736174 0.072479
0.492304 0.736776 0.073646
0.520387 0.737379 0.074814
0.548470 0.737981 0.075981
0.576553 0.738583 0.077148
0.604126 0.739175 0.078295
0.629656 0.739722 0.079356
0.655186 0.740270 0.080417
0.680717 0.740818 0.081478
0.706247 0.741365 0.082540
0.731777 0.741913 0.083601
0.757307 0.742461 0.084662
0.782837 0.743008 0.085724
0.808367 0.743556 0.086785
0.833898 0.744103 0.087846
0.859428 0.744651 0.088907
0.884958 0.745199 0.089969
0.059069 0.753799 0.059069
0.067096 0.753560 0.059349
0.092910 0.754113 0.060422
0.118724 0.754667 0.061495
0.144537 0.755221 0.062568
0.170351 0.755774 0.063641
0.196165 0.756328 0.064715
0.221979 0.756882 0.065788
0.247793 0.757436 0.066861
0.273607 0.757989 0.067934
0.300328 0.758562 0.069045
0.328411 0.759165 0.070212
0.356495 0.759767 0.071379
0.384578 0.760370 0.072547
0.412661 0.760972 0.073714
0.440744 0.761574 0.074882
0.468828 0.762177 0.076049
0.496911 0.762779 0.077216
0.524994 0.763382 0.078384
0.553077 0.763984 0.079551
0.581160 0.764586 0.080719
0.608733 0.765178 0.081865
0.634263 0.765725 0.082926
0.659793 0.766273 0.083987
0.685324 0.766821 0.085049
0.710854 0.767368 0.086110
0.736384 0.767916 0.087171
0.761914 0.768463 0.088233
0.787444 0.769011 0.089294
0.812974 0.769559 0.090355
0.838505 0.770106 0.091416
0.864035 0.770654 0.092478
0.889565 0.771202 0.093539
0.062591 0.779754 0.062591
0.071703 0.779563 0.062919
0.097517 0.780116 0.063992
0.123331 0.780670 0.065066
0.149144 0.781224 0.066139
0.174958 0.781777 0.067212
0.200772 0.782331 0.068285
0.226586 0.782885 0.069358
0.252400 0.783439 0.070431
0.278214 0.783992 0.071504
0.304935 0.784565 0.072615
0.333018 0.785168 0.073782
0.361102 0.785770 0.074950
0.389185 0.786373 0.076117
0.417268 0.786975 0.077284
0.445351 0.787577 0.078452
0.473435 0.788180 0.079619
0.501518 0.788782 0.080787
0.529601 0.789384 0.081954
0.557684 0.789987 0.083121
0.585767 0.790589 0.084289
0.613340 0.791181 0.085435
0.638870 0.791728 0.086496
0.664400 0.792276 0.087558
0.689931 0.792824 0.088619
0.715461 0.793371 0.089680
0.740991 0.793919 0.090741
0.766521 0.794466 0.091803
0.792051 0.795014 0.092864
0.817581 0.795562 0.093925
0.843112 0.796109 0.094987
0.868642 0.796657 0.096048
0.894172 0.797205 0.097109
0.066113 0.805708 0.066113
0.076310 0.805565 0.066490
0.102124 0.806119 0.067563
0.127938 0.806673 0.068636
0.153751 0.807227 0.069709
0.179565 0.807780 0.070782
0.205379 0.808334 0.071855
0.231193 0.808888 0.072928
0.257007 0.809441 0.074001
0.282821 0.809995 0.075074
0.309542 0.810568 0.076185
0.337625 0.811171 0.077352
0.365709 0.811773 0.078520
0.393792 0.812376 0.079687
0.421875 0.812978 0.080855
0.449958 0.813580 0.082022
0.478042 0.814183 0.083189
0.506125 0.814785 0.084357
0.534208 0.815387 0.085524
0.562291 0.815990 0.086692
0.590374 0.816592 0.087859
0.617947 0.817184 0.089005
0.643477 0.817731 0.090067
0.669007 0.818279 0.091128
0.694538 0.818827 0.092189
0.720068 0.819374 0.093250
0.745598 0.819922 0.094312
0.771128 0.820469 0.095373
0.796658 0.821017 0.096434
0.822188 0.821565 0.097496
0.847719 0.822112 0.098557
0.873249 0.822660 0.099618
0.898779 0.823208 0.100679
0.069635 0.831663 0.069635
0.080917 0.831568 0.070060
0.106731 0.832122 0.071133
0.132545 0.832676 0.072206
0.158358 0.833230 0.073279
0.184172 0.833783 0.074352
0.209986 0.834337 0.075425
0.235800 0.834891 0.076498
0.261614 0.835444 0.077571
0.287428 0.835998 0.078644
0.314149 0.836571 0.079755
0.342232 0.837174 0.080923
0.370316 0.837776 0.082090
0.398399 0.838378 0.083257
0.426482 0.838981 0.084425
0.454565 0.839583 0.085592
0.482649 0.840186 0.086760
0.510732 0.840788 0.087927
0.538815 0.841390 0.089094
0.566898 0.841993 0.090262
0.594981 0.842595 0.091429
0.622554 0.843187 0.092575
0.648084 0.843734 0.093637
0.673614 0.844282 0.094698
0.699145 0.844829 0.095759
0.724675 0.845377 0.096821
0.750205 0.845925 0.097882
0.775735 0.846472 0.098943
0.801265 0.847020 0.100004
0.826795 0.847568 0.101066
0.852328 0.848118 0.102296
0.877862 0.848669 0.103566
0.903395 0.849220 0.104836
0.073157 0.857617 0.073157
0.085524 0.857571 0.073630
0.111338 0.858125 0.074703
0.137152 0.858679 0.075776
0.162965 0.859233 0.076849
0.188779 0.859786 0.077922
0.214593 0.860340 0.078995
0.240407 0.860894 0.080068
0.266221 0.861447 0.081142
0.292035 0.862001 0.082215
0.318756 0.862574 0.083325
0.346839 0.863177 0.084493
0.374923 0.863779 0.085660
0.403006 0.864381 0.086828
0.431089 0.864984 0.087995
0.459172 0.865586 0.089162
0.487256 0.866189 0.090330
0.515339 0.866791 0.091497
0.543422 0.867393 0.092665
0.571505 0.867996 0.093832
0.599588 0.868598 0.095000
0.627161 0.869190 0.096146
0.652691 0.869737 0.097207
0.678221 0.870285 0.098268
0.703752 0.870832 0.099330
0.729282 0.871380 0.100391
0.754812 0.871928 0.101489
0.780346 0.872479 0.102759
0.805879 0.873030 0.104029
