luts/digital_green.cube
TITLE "Cinema The Matrix"
LUT_3D_SIZE 5
0.000000 0.053287 0.000000
0.124554 0.057578 0.000000
0.345868 0.064377 0.000000
0.562637 0.071037 0.000000
0.767137 0.077320 0.000000
0.002416 0.336288 0.002416
0.174434 0.341091 0.009712
0.395747 0.347890 0.019180
0.612517 0.354550 0.028453
0.817017 0.360832 0.037201
0.035654 0.581238 0.035654
0.217607 0.586484 0.043393
0.438921 0.593283 0.052860
0.655470 0.598321 0.061914
0.859712 0.602702 0.070404
0.066113 0.805708 0.066113
0.257007 0.809441 0.074001
0.478042 0.814183 0.083189
0.694538 0.818827 0.092189
0.898779 0.823208 0.100679
0.091610 0.993610 0.091610
0.291841 1.000000 0.100792
0.513602 1.000000 0.112486
0.730810 1.000000 0.123939
0.935721 1.000000 0.134743
0.000000 0.055076 0.143779
0.128169 0.059435 0.152292
0.349511 0.066263 0.163567
0.566308 0.072950 0.174610
0.770834 0.079259 0.185028
0.005201 0.338193 0.189607
0.178165 0.343063 0.198632
0.399507 0.349891 0.209907
0.616304 0.356578 0.220950
0.820830 0.362887 0.231368
0.038539 0.583244 0.229273
0.221438 0.588557 0.238742
0.442742 0.595101 0.249978
0.659265 0.599772 0.260747
0.863533 0.604179 0.270907
0.068999 0.807129 0.265594
0.260839 0.810929 0.275212
0.481902 0.815699 0.286207
0.698426 0.820370 0.296977
0.902693 0.824777 0.307137
0.094813 0.996813 0.296938
0.295987 1.000000 0.307595
0.517748 1.000000 0.319289
0.734956 1.000000 0.330742
0.939637 1.000000 0.341316
0.000000 0.057313 0.353027
0.132228 0.061713 0.361582
0.353570 0.068541 0.372856
0.570367 0.075228 0.383899
0.774893 0.081537 0.394317
0.008328 0.340430 0.398855
0.182224 0.345342 0.407921
0.403566 0.352169 0.419196
0.620363 0.358856 0.430239
0.824888 0.365165 0.440657
0.041666 0.585480 0.438521
0.225497 0.590835 0.448031
0.446707 0.596692 0.459174
0.663231 0.601364 0.469943
0.867499 0.605771 0.480103
0.072032 0.808678 0.474749
0.264805 0.812521 0.484408
0.485868 0.817290 0.495403
0.702391 0.821962 0.506173
0.906659 0.826369 0.516333
0.098080 1.000000 0.506326
0.300186 1.000000 0.517024
0.521947 1.000000 0.528718
0.739154 1.000000 0.540171
0.943603 1.000000 0.550512
0.000000 0.059445 0.552435
0.136096 0.063884 0.561030
0.357438 0.070712 0.572304
0.574235 0.077399 0.583347
0.778761 0.083708 0.593765
0.011308 0.342561 0.598263
0.186092 0.347513 0.607370
0.407434 0.354340 0.618644
0.624231 0.361028 0.629687
0.828756 0.367336 0.640105
0.044646 0.587612 0.637929
0.229365 0.593006 0.647479
0.450487 0.598209 0.658533
0.667010 0.602880 0.669303
0.871278 0.607287 0.679463
0.074924 0.810155 0.674068
0.268584 0.814037 0.683767
0.489647 0.818807 0.694763
0.706171 0.823478 0.705532
0.910438 0.827885 0.715692
0.101193 1.000000 0.705867
0.304187 1.000000 0.716606
0.525948 1.000000 0.728299
0.743114 1.000000 0.739711
0.947382 1.000000 0.749871
0.000000 0.061408 0.736101
0.139659 0.065884 0.744732
0.361001 0.072711 0.756006
0.577798 0.079399 0.767050
0.782324 0.085708 0.777468
0.014052 0.344524 0.781929
0.189654 0.349512 0.791072
0.410996 0.356340 0.802346
0.627794 0.363027 0.813389
0.832319 0.369336 0.823807
0.047391 0.589575 0.821595
0.232905 0.594836 0.831158
0.453968 0.599606 0.842153
0.670491 0.604277 0.852923
0.874759 0.608684 0.863083
0.077586 0.811516 0.857652
0.272065 0.815434 0.867388
0.493128 0.820204 0.878383
0.709651 0.824875 0.889153
0.913919 0.829282 0.899313
0.104060 1.000000 0.889656
0.307872 1.000000 0.900430
0.529633 1.000000 0.912124
0.746595 1.000000 0.923331
0.950863 1.000000 0.933491
