luts/dusty_western.cube
TITLE "Cinema No Country"
LUT_3D_SIZE 5
0.000000 0.000000 0.000000
0.196195 0.000000 0.000000
0.402597 0.003572 0.000000
0.603261 0.018896 0.011120
0.793238 0.033403 0.025627
0.038869 0.211992 0.016296
0.239731 0.227331 0.031635
0.446133 0.243092 0.047396
0.646804 0.258422 0.062960
0.836845 0.272993 0.079798
0.082607 0.452486 0.069204
0.283536 0.467892 0.087007
0.490008 0.483723 0.105301
0.691322 0.499144 0.122563
0.883754 0.513839 0.137258
0.126210 0.684971 0.126210
0.329667 0.700508 0.141747
0.538736 0.716473 0.157712
0.741993 0.731995 0.173234
0.934425 0.746690 0.187929
0.174100 0.905044 0.174100
0.377557 0.920581 0.189637
0.586626 0.936546 0.205602
0.789882 0.952068 0.221124
0.982315 0.966763 0.235819
0.000000 0.000000 0.136464
0.200104 0.000000 0.154267
0.406576 0.008337 0.172561
0.607307 0.023727 0.190347
0.797348 0.038298 0.207185
0.042938 0.216846 0.196355
0.243867 0.232252 0.214158
0.450338 0.248083 0.232452
0.651069 0.263474 0.250238
0.841110 0.278045 0.267076
0.086873 0.457538 0.256481
0.287801 0.472944 0.274284
0.494273 0.488774 0.292579
0.696417 0.504238 0.309098
0.888849 0.518933 0.323793
0.131305 0.690066 0.312745
0.334761 0.705602 0.328281
0.543831 0.721568 0.344247
0.747087 0.737089 0.359768
0.939519 0.751784 0.374463
0.179194 0.910138 0.360634
0.382651 0.925675 0.376171
0.591721 0.941641 0.392137
0.794977 0.957162 0.407658
0.987409 0.971857 0.422353
0.003476 0.000000 0.325271
0.204404 0.000000 0.343074
0.410876 0.013429 0.361368
0.611607 0.028820 0.379153
0.801648 0.043391 0.395992
0.047238 0.221939 0.385161
0.248167 0.237345 0.402964
0.454639 0.253176 0.421258
0.655369 0.268567 0.439044
0.845410 0.283138 0.455882
0.091173 0.462630 0.445288
0.292102 0.478036 0.463091
0.498573 0.493867 0.481385
0.701553 0.509374 0.497155
0.893985 0.524069 0.511850
0.136441 0.695202 0.500802
0.339897 0.710739 0.516339
0.548967 0.726704 0.532304
0.752223 0.742225 0.547825
0.944655 0.756920 0.562520
0.184330 0.915274 0.548691
0.387787 0.930811 0.564228
0.596857 0.946777 0.580194
0.800113 0.962298 0.595715
0.992545 0.976993 0.610410
0.007628 0.000000 0.507580
0.208557 0.002516 0.525383
0.415028 0.018347 0.543677
0.615759 0.033738 0.561462
0.805800 0.048309 0.578301
0.051390 0.226857 0.567470
0.252319 0.242262 0.585273
0.458791 0.258093 0.603567
0.659522 0.273484 0.621353
0.849563 0.288055 0.638191
0.095325 0.467548 0.627597
0.296254 0.482954 0.645400
0.503256 0.498812 0.663219
0.706512 0.514334 0.678740
0.898944 0.529029 0.693435
0.141400 0.700161 0.682387
0.344857 0.715698 0.697924
0.553926 0.731663 0.713889
0.757182 0.747185 0.729411
0.949614 0.761880 0.744106
0.189290 0.920234 0.730277
0.392746 0.935770 0.745814
0.601816 0.951736 0.761779
0.805072 0.967257 0.777301
0.997504 0.981952 0.791996
0.011545 0.000000 0.679569
0.212474 0.007155 0.697372
0.418946 0.022986 0.715666
0.619677 0.038377 0.733452
0.809718 0.052948 0.750290
0.055308 0.231496 0.739460
0.256237 0.246902 0.757263
0.462708 0.262733 0.775557
0.663439 0.278123 0.793342
0.853480 0.292694 0.810181
0.099243 0.472187 0.799586
0.300171 0.487593 0.817389
0.507934 0.503491 0.834526
0.711190 0.519012 0.850048
0.903623 0.533707 0.864743
0.146078 0.704840 0.853694
0.349535 0.720376 0.869231
0.558605 0.736342 0.885197
0.761861 0.751863 0.900718
0.954293 0.766558 0.915413
0.193968 0.924912 0.901584
0.397425 0.940449 0.917121
0.606494 0.956414 0.933086
0.809751 0.971936 0.948608
1.000000 0.986631 0.963303
