luts/dusty_western.cube
TITLE "Cinema No Country"
LUT_3D_SIZE 33
0.000000 0.000000 0.000000
0.020441 0.000000 0.000000
0.045549 0.000000 0.000000
0.070656 0.000000 0.000000
0.095764 0.000000 0.000000
0.120872 0.000000 0.000000
0.145979 0.000000 0.000000
0.171087 0.000000 0.000000
0.196195 0.000000 0.000000
0.221302 0.000000 0.000000
0.246756 0.000000 0.000000
0.272730 0.000000 0.000000
0.298703 0.000000 0.000000
0.324677 0.000000 0.000000
0.350650 0.000000 0.000000
0.376624 0.001589 0.000000
0.402597 0.003572 0.000000
0.428571 0.005556 0.000000
0.454544 0.007539 0.000000
0.480518 0.009523 0.001747
0.506491 0.011506 0.003730
0.532019 0.013455 0.005679
0.555767 0.015269 0.007493
0.579514 0.017082 0.009306
0.603261 0.018896 0.011120
0.627008 0.020709 0.012933
0.650755 0.022523 0.014747
0.674502 0.024336 0.016560
0.698250 0.026149 0.018373
0.721997 0.027963 0.020187
0.745744 0.029776 0.022000
0.769491 0.031590 0.023814
0.793238 0.033403 0.025627
0.000775 0.002412 0.000000
0.025883 0.004329 0.000000
0.050991 0.006246 0.000000
0.076098 0.008164 0.000000
0.101206 0.010081 0.000000
0.126314 0.011998 0.000000
0.151421 0.013916 0.000000
0.176529 0.015833 0.000000
0.201637 0.017750 0.000000
0.226744 0.019668 0.000000
0.252198 0.021612 0.000000
0.278172 0.023595 0.000000
0.304145 0.025578 0.000000
0.330119 0.027562 0.000000
0.356092 0.029545 0.000000
0.382066 0.031529 0.000263
0.408039 0.033512 0.002246
0.434013 0.035496 0.004230
0.459986 0.037479 0.006213
0.485960 0.039463 0.008197
0.511933 0.041446 0.010180
0.537461 0.043395 0.012129
0.561209 0.045209 0.013943
0.584956 0.047022 0.015756
0.608703 0.048836 0.017570
0.632450 0.050649 0.019383
0.656197 0.052463 0.021197
0.679944 0.054276 0.023010
0.703692 0.056089 0.024823
0.727439 0.057903 0.026637
0.751186 0.059716 0.028450
0.774933 0.061530 0.030264
0.798680 0.063343 0.032077
0.006217 0.032352 0.000000
0.031325 0.034269 0.000000
0.056433 0.036186 0.000000
0.081540 0.038104 0.000000
0.106648 0.040021 0.000000
0.131756 0.041938 0.000000
0.156863 0.043856 0.000000
0.181971 0.045773 0.000000
0.207079 0.047690 0.000000
0.232186 0.049608 0.000000
0.257640 0.051552 0.000000
0.283614 0.053535 0.000000
0.309587 0.055518 0.000762
0.335561 0.057502 0.002746
0.361534 0.059485 0.004729
0.387508 0.061469 0.006713
0.413481 0.063452 0.008696
0.439455 0.065436 0.010680
0.465428 0.067419 0.012663
0.491402 0.069403 0.014647
0.517375 0.071386 0.016630
0.542903 0.073335 0.018579
0.566651 0.075149 0.020393
0.590398 0.076962 0.022206
0.614145 0.078776 0.024020
0.637892 0.080589 0.025833
0.661639 0.082403 0.027647
0.685386 0.084216 0.029460
0.709134 0.086029 0.031273
0.732881 0.087843 0.033087
0.756628 0.089656 0.034900
0.780375 0.091470 0.036714
0.804122 0.093283 0.038527
0.011659 0.062292 0.000000
0.036767 0.064209 0.000000
0.061875 0.066126 0.000000
0.086982 0.068044 0.000000
0.112090 0.069961 0.000000
0.137198 0.071878 0.000000
0.162305 0.073796 0.000000
0.187413 0.075713 0.000000
0.212521 0.077630 0.000000
0.237628 0.079548 0.001302
0.263082 0.081492 0.003246
0.289056 0.083475 0.005229
0.315029 0.085458 0.007212
0.341003 0.087442 0.009196
0.366976 0.089425 0.011179
0.392950 0.091409 0.013163
0.418923 0.093392 0.015146
0.444897 0.095376 0.017130
0.470870 0.097359 0.019113
0.496844 0.099343 0.021097
0.522817 0.101326 0.023080
0.548345 0.103275 0.025029
0.572093 0.105089 0.026843
0.595840 0.106902 0.028656
0.619587 0.108716 0.030470
0.643334 0.110529 0.032283
0.667081 0.112343 0.034097
0.690828 0.114156 0.035910
0.714576 0.115969 0.037723
0.738323 0.117783 0.039537
0.762070 0.119596 0.041350
0.785817 0.121410 0.043164
0.809564 0.123223 0.044977
0.017101 0.092232 0.000000
0.042209 0.094149 0.000000
0.067317 0.096067 0.000000
0.092424 0.097984 0.000000
0.117532 0.099901 0.000000
0.142640 0.101818 0.000082
0.167747 0.103736 0.002000
0.192855 0.105653 0.003917
0.217963 0.107570 0.005834
0.243070 0.109488 0.007752
0.268524 0.111432 0.009696
0.294498 0.113415 0.011679
0.320471 0.115398 0.013662
0.346445 0.117382 0.015646
0.372418 0.119365 0.017629
0.398392 0.121349 0.019613
0.424365 0.123332 0.021596
0.450339 0.125316 0.023580
0.476312 0.127299 0.025563
0.502286 0.129283 0.027547
0.528259 0.131266 0.029530
0.553787 0.133215 0.031479
0.577535 0.135029 0.033293
0.601282 0.136842 0.035106
0.625029 0.138656 0.036920
0.648776 0.140469 0.038733
0.672523 0.142283 0.040547
0.696270 0.144096 0.042360
0.720018 0.145909 0.044173
0.743765 0.147723 0.045987
0.767512 0.149536 0.047800
0.791259 0.151350 0.049614
0.815006 0.153163 0.051427
0.022543 0.122172 0.000000
0.047651 0.124089 0.000000
0.072759 0.126007 0.000781
0.097866 0.127924 0.002698
0.122974 0.129841 0.004615
0.148082 0.131759 0.006533
0.173189 0.133676 0.008450
0.198297 0.135593 0.010367
0.223405 0.137510 0.012284
0.248512 0.139428 0.014202
0.273966 0.141372 0.016146
0.299940 0.143355 0.018129
0.325913 0.145338 0.020112
0.351887 0.147322 0.022096
0.377860 0.149305 0.024079
0.403834 0.151289 0.026063
0.429807 0.153272 0.028046
0.455781 0.155256 0.030030
0.481754 0.157239 0.032013
0.507728 0.159223 0.033997
0.533701 0.161206 0.035980
0.559229 0.163155 0.037929
0.582977 0.164969 0.039743
0.606724 0.166782 0.041556
0.630471 0.168596 0.043370
0.654218 0.170409 0.045183
0.677965 0.172223 0.046997
0.701712 0.174036 0.048810
0.725460 0.175849 0.050623
0.749207 0.177663 0.052437
0.772954 0.179476 0.054250
0.796701 0.181290 0.056064
0.820448 0.183103 0.057877
0.027985 0.152112 0.003396
0.053093 0.154029 0.005313
0.078201 0.155947 0.007231
0.103308 0.157864 0.009148
0.128416 0.159781 0.011065
0.153524 0.161699 0.012983
0.178631 0.163616 0.014900
0.203739 0.165533 0.016817
0.228847 0.167450 0.018734
0.253955 0.169368 0.020652
0.279409 0.171312 0.022596
0.305382 0.173295 0.024579
0.331355 0.175278 0.026562
0.357329 0.177262 0.028546
0.383302 0.179245 0.030529
0.409276 0.181229 0.032513
0.435249 0.183212 0.034496
0.461223 0.185196 0.036480
0.487196 0.187179 0.038463
0.513170 0.189163 0.040447
0.539143 0.191146 0.042430
0.564671 0.193095 0.044379
0.588419 0.194909 0.046193
0.612166 0.196722 0.048006
0.635913 0.198536 0.049820
0.659660 0.200349 0.051633
0.683407 0.202163 0.053447
0.707154 0.203976 0.055260
0.730902 0.205789 0.057073
0.754649 0.207603 0.058887
0.778396 0.209416 0.060700
0.802149 0.211235 0.062721
0.825904 0.213057 0.064826
0.033427 0.182052 0.009846
0.058535 0.183969 0.011763
0.083643 0.185887 0.013681
0.108750 0.187804 0.015598
0.133858 0.189721 0.017515
0.158966 0.191639 0.019433
0.184073 0.193556 0.021350
0.209181 0.195473 0.023267
0.234289 0.197391 0.025185
0.259397 0.199308 0.027102
0.284851 0.201252 0.029046
0.310824 0.203235 0.031029
0.336797 0.205218 0.033012
0.362771 0.207202 0.034996
0.388744 0.209185 0.036979
0.414718 0.211169 0.038963
0.440691 0.213152 0.040946
0.466665 0.215136 0.042930
0.492638 0.217119 0.044913
0.518612 0.219103 0.046897
0.544585 0.221086 0.048880
0.570113 0.223035 0.050829
0.593861 0.224849 0.052643
0.617608 0.226662 0.054456
0.641355 0.228476 0.056270
0.665102 0.230289 0.058083
0.688849 0.232103 0.059897
0.712599 0.233918 0.061788
0.736354 0.235740 0.063893
0.760109 0.237561 0.065998
0.783864 0.239382 0.068102
0.807619 0.241204 0.070207
0.831374 0.243025 0.072312
0.038869 0.211992 0.016296
0.063977 0.213909 0.018213
0.089085 0.215827 0.020131
0.114192 0.217744 0.022048
0.139300 0.219661 0.023965
0.164408 0.221579 0.025883
0.189515 0.223496 0.027800
0.214623 0.225413 0.029717
0.239731 0.227331 0.031635
0.264839 0.229248 0.033552
0.290293 0.231192 0.035496
0.316266 0.233175 0.037479
0.342239 0.235159 0.039463
0.368213 0.237142 0.041446
0.394186 0.239125 0.043429
0.420160 0.241109 0.045413
0.446133 0.243092 0.047396
0.472107 0.245076 0.049380
0.498080 0.247059 0.051363
0.524054 0.249043 0.053347
0.550027 0.251026 0.055330
0.575555 0.252975 0.057279
0.599303 0.254789 0.059093
0.623050 0.256602 0.060906
0.646804 0.258422 0.062960
0.670559 0.260244 0.065065
0.694314 0.262065 0.067170
0.718069 0.263887 0.069274
0.741824 0.265708 0.071379
0.765579 0.267529 0.073484
0.789334 0.269351 0.075589
0.813089 0.271172 0.077694
0.836845 0.272993 0.079798
0.044311 0.241932 0.022746
0.069419 0.243849 0.024663
0.094527 0.245767 0.026581
0.119634 0.247684 0.028498
0.144742 0.249601 0.030415
0.169850 0.251519 0.032333
0.194957 0.253436 0.034250
0.220065 0.255353 0.036167
0.245173 0.257271 0.038085
0.270281 0.259188 0.040002
0.295735 0.261132 0.041946
0.321708 0.263115 0.043929
0.347681 0.265099 0.045913
0.373655 0.267082 0.047896
0.399628 0.269065 0.049879
0.425602 0.271049 0.051863
0.451575 0.273032 0.053846
0.477549 0.275016 0.055830
0.503522 0.276999 0.057813
0.529496 0.278983 0.059797
0.555472 0.280968 0.061869
0.581008 0.282926 0.064132
0.604764 0.284748 0.066237
0.628519 0.286569 0.068342
0.652274 0.288391 0.070446
0.676029 0.290212 0.072551
0.699784 0.292033 0.074656
0.723539 0.293855 0.076761
0.747294 0.295676 0.078866
0.771050 0.297498 0.080970
0.794805 0.299319 0.083075
0.818560 0.301140 0.085180
0.842315 0.302962 0.087285
0.049764 0.271931 0.029209
0.074872 0.273848 0.031126
0.099979 0.275766 0.033043
0.125087 0.277683 0.034961
0.150195 0.279600 0.036878
0.175303 0.281518 0.038795
0.200410 0.283435 0.040713
0.225518 0.285352 0.042630
0.250626 0.287270 0.044547
0.275733 0.289187 0.046465
0.301187 0.291131 0.048408
0.327161 0.293114 0.050392
0.353134 0.295098 0.052375
0.379108 0.297081 0.054359
0.405081 0.299064 0.056342
0.431055 0.301048 0.058326
0.457028 0.303031 0.060309
0.483006 0.305019 0.062464
0.508988 0.307012 0.064766
0.534971 0.309004 0.067068
0.560953 0.310996 0.069370
0.586490 0.312954 0.071633
0.610245 0.314775 0.073738
0.634000 0.316597 0.075843
0.657755 0.318418 0.077947
0.681510 0.320239 0.080052
0.705265 0.322061 0.082157
0.729020 0.323882 0.084262
0.752775 0.325704 0.086367
0.776531 0.327525 0.088471
0.800286 0.329346 0.090576
0.824041 0.331168 0.092681
0.847796 0.332989 0.094786
0.055233 0.302018 0.035690
0.080341 0.303936 0.037608
0.105448 0.305853 0.039525
0.130556 0.307770 0.041442
0.155664 0.309688 0.043360
0.180771 0.311605 0.045277
0.205879 0.313522 0.047194
0.230987 0.315440 0.049112
0.256094 0.317357 0.051029
0.281202 0.319274 0.052946
0.306656 0.321218 0.054890
0.332630 0.323202 0.056874
0.358603 0.325185 0.058857
0.384576 0.327168 0.060840
0.410557 0.329159 0.063081
0.436539 0.331151 0.065383
0.462521 0.333143 0.067685
0.488504 0.335135 0.069987
0.514486 0.337128 0.072289
0.540468 0.339120 0.074591
0.566450 0.341112 0.076894
0.591987 0.343070 0.079156
0.615742 0.344891 0.081261
0.639497 0.346713 0.083366
0.663252 0.348534 0.085471
0.687007 0.350355 0.087575
0.710762 0.352177 0.089680
0.734518 0.353998 0.091785
0.758273 0.355820 0.093890
0.782028 0.357641 0.095995
0.805783 0.359462 0.098099
0.829538 0.361284 0.100204
0.853293 0.363105 0.102309
0.060702 0.332106 0.042172
0.085809 0.334023 0.044090
0.110917 0.335941 0.046007
0.136025 0.337858 0.047924
0.161132 0.339775 0.049842
0.186240 0.341693 0.051759
0.211348 0.343610 0.053676
0.236456 0.345527 0.055594
0.261563 0.347445 0.057511
0.286671 0.349362 0.059428
0.312126 0.351306 0.061396
0.338108 0.353298 0.063698
0.364090 0.355291 0.066000
0.390072 0.357283 0.068302
0.416054 0.359275 0.070604
0.442036 0.361267 0.072906
0.468019 0.363259 0.075208
0.494001 0.365251 0.077510
0.519983 0.367243 0.079813
0.545965 0.369236 0.082115
0.571947 0.371228 0.084417
0.597484 0.373186 0.086679
0.621239 0.375007 0.088784
0.644994 0.376829 0.090889
0.668749 0.378650 0.092994
0.692505 0.380471 0.095099
0.716260 0.382293 0.097203
0.740015 0.384114 0.099308
0.763770 0.385935 0.101413
0.787525 0.387757 0.103518
0.811280 0.389578 0.105623
0.835035 0.391400 0.107727
0.858791 0.393221 0.109832
0.066171 0.362193 0.048654
0.091278 0.364111 0.050571
0.116386 0.366028 0.052489
0.141494 0.367945 0.054406
0.166601 0.369863 0.056323
0.191709 0.371780 0.058241
0.216817 0.373697 0.060158
0.241928 0.375618 0.062212
0.267044 0.377544 0.064437
0.292160 0.379470 0.066663
0.317623 0.381422 0.068919
0.343605 0.383414 0.071221
0.369587 0.385407 0.073523
0.395569 0.387399 0.075825
0.421552 0.389391 0.078127
0.447534 0.391383 0.080429
0.473516 0.393375 0.082731
0.499498 0.395367 0.085034
0.525480 0.397359 0.087336
0.551462 0.399352 0.089638
0.577445 0.401344 0.091940
0.602981 0.403302 0.094203
0.626736 0.405123 0.096307
0.650492 0.406944 0.098412
0.674247 0.408766 0.100517
0.698002 0.410587 0.102622
0.721757 0.412409 0.104727
0.745512 0.414230 0.106831
0.769267 0.416051 0.108936
0.793022 0.417873 0.111041
0.816778 0.419694 0.113146
0.840533 0.421516 0.115251
0.864288 0.423337 0.117355
0.071639 0.392281 0.055136
0.096747 0.394198 0.057053
0.121855 0.396116 0.058970
0.146962 0.398033 0.060888
0.172077 0.399957 0.063059
0.197193 0.401883 0.065284
0.222309 0.403809 0.067510
0.247425 0.405734 0.069735
0.272541 0.407660 0.071961
0.297658 0.409586 0.074186
0.323120 0.411538 0.076442
0.349102 0.413530 0.078744
0.375084 0.415522 0.081046
0.401067 0.417515 0.083348
0.427049 0.419507 0.085650
0.453031 0.421499 0.087953
0.479013 0.423491 0.090255
0.504995 0.425483 0.092557
0.530977 0.427475 0.094859
0.556960 0.429467 0.097161
0.582942 0.431460 0.099463
0.608479 0.433418 0.101726
0.632234 0.435239 0.103831
0.655989 0.437060 0.105935
0.679744 0.438882 0.108040
0.703499 0.440703 0.110145
0.727254 0.442525 0.112250
0.751009 0.444346 0.114355
0.774764 0.446167 0.116459
0.798520 0.447989 0.118564
0.822515 0.449823 0.120453
0.846569 0.451659 0.122290
0.870623 0.453496 0.124127
0.077110 0.422370 0.061681
0.102226 0.424296 0.063906
0.127342 0.426222 0.066131
0.152458 0.428147 0.068357
0.177574 0.430073 0.070582
0.202690 0.431999 0.072808
0.227806 0.433925 0.075033
0.252923 0.435850 0.077258
0.278039 0.437776 0.079484
0.303155 0.439702 0.081709
0.328617 0.441654 0.083965
0.354599 0.443646 0.086267
0.380582 0.445638 0.088569
0.406564 0.447631 0.090872
0.432546 0.449623 0.093174
0.458528 0.451615 0.095476
0.484510 0.453607 0.097778
0.510493 0.455599 0.100080
0.536475 0.457591 0.102382
0.562457 0.459583 0.104684
0.588439 0.461576 0.106986
0.613976 0.463534 0.109249
0.637731 0.465355 0.111354
0.661486 0.467176 0.113459
0.685241 0.468998 0.115563
0.708996 0.470819 0.117668
0.732865 0.472646 0.119672
0.756919 0.474483 0.121508
0.780973 0.476320 0.123345
0.805027 0.478157 0.125182
0.829081 0.479994 0.127019
0.853135 0.481831 0.128856
0.877189 0.483668 0.130693
0.082607 0.452486 0.069204
0.107723 0.454412 0.071429
0.132839 0.456338 0.073655
0.157955 0.458263 0.075880
0.183072 0.460189 0.078105
0.208188 0.462115 0.080331
0.233304 0.464041 0.082556
0.258420 0.465966 0.084782
0.283536 0.467892 0.087007
0.308652 0.469818 0.089232
0.334115 0.471770 0.091488
0.360097 0.473762 0.093791
0.386079 0.475754 0.096093
0.412061 0.477746 0.098395
0.438043 0.479739 0.100697
0.464025 0.481731 0.102999
0.490008 0.483723 0.105301
0.515990 0.485715 0.107603
0.541972 0.487707 0.109905
0.567954 0.489699 0.112207
0.593936 0.491692 0.114510
0.619473 0.493650 0.116772
0.643228 0.495471 0.118877
0.667268 0.497307 0.120726
0.691322 0.499144 0.122563
0.715376 0.500981 0.124400
0.739430 0.502818 0.126237
0.763484 0.504654 0.128074
0.787538 0.506491 0.129911
0.811592 0.508328 0.131748
0.835646 0.510165 0.133585
0.859700 0.512002 0.135421
0.883754 0.513839 0.137258
0.088104 0.482602 0.076727
0.113220 0.484528 0.078952
0.138337 0.486454 0.081178
0.163453 0.488379 0.083403
0.188569 0.490305 0.085629
0.213685 0.492231 0.087854
0.238801 0.494156 0.090079
0.263917 0.496082 0.092305
0.289033 0.498008 0.094530
0.314149 0.499934 0.096756
0.339612 0.501886 0.099012
0.365594 0.503878 0.101314
0.391576 0.505870 0.103616
0.417558 0.507862 0.105918
0.443541 0.509855 0.108220
0.469523 0.511847 0.110522
0.495505 0.513839 0.112824
0.521487 0.515831 0.115126
0.547469 0.517823 0.117429
0.573559 0.519821 0.119635
0.599868 0.521830 0.121644
0.625726 0.523805 0.123618
0.649780 0.525641 0.125455
0.673834 0.527478 0.127292
0.697888 0.529315 0.129129
0.721942 0.531152 0.130966
0.745996 0.532989 0.132803
0.770050 0.534826 0.134639
0.794104 0.536663 0.136476
0.818158 0.538499 0.138313
0.842212 0.540336 0.140150
0.866266 0.542173 0.141987
0.890320 0.544010 0.143824
0.093602 0.512718 0.084250
0.118718 0.514644 0.086476
0.143834 0.516569 0.088701
0.168950 0.518495 0.090926
0.194066 0.520421 0.093152
0.219182 0.522347 0.095377
0.244298 0.524272 0.097603
0.269414 0.526198 0.099828
0.294530 0.528124 0.102053
0.319647 0.530050 0.104279
0.345109 0.532002 0.106535
0.371091 0.533994 0.108837
0.397073 0.535986 0.111139
0.423056 0.537978 0.113441
0.449038 0.539971 0.115743
0.475020 0.541963 0.118045
0.501197 0.543965 0.120173
0.527506 0.545974 0.122182
0.553815 0.547983 0.124191
0.580124 0.549992 0.126200
0.606433 0.552001 0.128209
0.632291 0.553976 0.130184
0.656345 0.555813 0.132021
0.680399 0.557650 0.133858
0.704453 0.559486 0.135694
0.728507 0.561323 0.137531
0.752561 0.563160 0.139368
0.776615 0.564997 0.141205
0.800669 0.566834 0.143042
0.824723 0.568671 0.144879
0.848777 0.570508 0.146716
0.872831 0.572344 0.148552
0.896885 0.574181 0.150389
0.099099 0.542834 0.091773
0.124215 0.544760 0.093999
0.149331 0.546685 0.096224
0.174447 0.548611 0.098450
0.199563 0.550537 0.100675
0.224679 0.552463 0.102900
0.249796 0.554388 0.105126
0.274912 0.556314 0.107351
0.300028 0.558240 0.109577
0.325144 0.560166 0.111802
0.350606 0.562118 0.114058
0.376589 0.564110 0.116360
0.402571 0.566102 0.118662
0.428835 0.568109 0.120711
0.455144 0.570118 0.122720
0.481453 0.572127 0.124729
0.507762 0.574136 0.126738
0.534072 0.576145 0.128748
0.560381 0.578154 0.130757
0.586690 0.580163 0.132766
0.612999 0.582172 0.134775
0.638857 0.584147 0.136749
0.662911 0.585984 0.138586
0.686965 0.587821 0.140423
0.711019 0.589658 0.142260
0.735073 0.591495 0.144097
0.759127 0.593331 0.145934
0.783181 0.595168 0.147771
0.807235 0.597005 0.149607
0.831289 0.598842 0.151444
0.855343 0.600679 0.153281
0.879397 0.602516 0.155118
0.903451 0.604353 0.156955
0.104596 0.572950 0.099297
0.129712 0.574876 0.101522
0.154828 0.576801 0.103747
0.179944 0.578727 0.105973
0.205061 0.580653 0.108198
0.230177 0.582579 0.110424
0.255293 0.584504 0.112649
0.280409 0.586430 0.114874
0.305525 0.588356 0.117100
0.330691 0.590284 0.119281
0.356474 0.592253 0.121250
0.382783 0.594262 0.123259
0.409092 0.596271 0.125268
0.435401 0.598280 0.127277
0.461710 0.600289 0.129286
0.488019 0.602298 0.131295
0.514328 0.604307 0.133304
0.540637 0.606316 0.135313
0.566946 0.608326 0.137322
0.593255 0.610335 0.139331
0.619564 0.612344 0.141340
0.645422 0.614318 0.143315
0.669476 0.616155 0.145152
0.693530 0.617992 0.146989
0.717584 0.619829 0.148825
0.741638 0.621666 0.150662
0.765692 0.623503 0.152499
0.789746 0.625339 0.154336
0.813800 0.627176 0.156173
0.837854 0.629013 0.158010
0.861908 0.630850 0.159847
0.885962 0.632687 0.161684
0.910016 0.634524 0.163520
0.109996 0.602534 0.106687
0.135113 0.604460 0.108913
0.160229 0.606386 0.111138
0.185345 0.608312 0.113363
0.210461 0.610237 0.115589
0.235577 0.612163 0.117814
0.260844 0.614097 0.119904
0.286276 0.616039 0.121846
0.311708 0.617981 0.123788
0.337140 0.619923 0.125730
0.362923 0.621892 0.127699
0.389232 0.623901 0.129708
0.415541 0.625910 0.131717
0.441850 0.627919 0.133726
0.468160 0.629928 0.135736
0.494469 0.631937 0.137745
0.520778 0.633946 0.139754
0.547087 0.635955 0.141763
0.573396 0.637964 0.143772
0.599705 0.639973 0.145781
0.626014 0.641982 0.147790
0.651872 0.643957 0.149765
0.675926 0.645794 0.151601
0.699980 0.647631 0.153438
0.724034 0.649468 0.155275
0.748088 0.651305 0.157112
0.772142 0.653141 0.158949
0.796196 0.654978 0.160786
0.820250 0.656815 0.162623
0.844304 0.658652 0.164459
0.868358 0.660489 0.166296
0.892412 0.662326 0.168133
0.916466 0.664163 0.169970
0.115009 0.629993 0.113547
0.140125 0.631919 0.115772
0.165241 0.633844 0.117997
0.190534 0.635779 0.120064
0.215966 0.637721 0.122006
0.241398 0.639664 0.123948
0.266830 0.641606 0.125890
0.292262 0.643548 0.127832
0.317694 0.645490 0.129774
0.343127 0.647432 0.131717
0.368909 0.649401 0.133685
0.395219 0.651410 0.135695
0.421528 0.653419 0.137704
0.447837 0.655428 0.139713
0.474146 0.657437 0.141722
0.500455 0.659446 0.143731
0.526764 0.661455 0.145740
0.553073 0.663464 0.147749
0.579382 0.665473 0.149758
0.605691 0.667483 0.151767
0.632000 0.669492 0.153776
0.657858 0.671466 0.155751
0.681912 0.673303 0.157588
0.705966 0.675140 0.159425
0.730020 0.676977 0.161261
0.754074 0.678814 0.163098
0.778128 0.680651 0.164935
0.802182 0.682487 0.166772
0.826236 0.684324 0.168609
0.850290 0.686161 0.170446
0.874344 0.687998 0.172283
0.898398 0.689835 0.174119
0.922452 0.691672 0.175956
0.120224 0.657462 0.120224
0.145656 0.659404 0.122166
0.171088 0.661346 0.124108
0.196520 0.663288 0.126050
0.221952 0.665231 0.127992
0.247384 0.667173 0.129934
0.272816 0.669115 0.131876
0.298249 0.671057 0.133819
0.323681 0.672999 0.135761
0.349113 0.674941 0.137703
0.374896 0.676910 0.139672
0.401205 0.678919 0.141681
0.427514 0.680928 0.143690
0.453823 0.682937 0.145699
0.480132 0.684946 0.147708
0.506441 0.686955 0.149717
0.532750 0.688964 0.151726
0.559059 0.690973 0.153735
0.585368 0.692983 0.155744
0.611677 0.694992 0.157753
0.637986 0.697001 0.159762
0.663844 0.698975 0.161737
0.687898 0.700812 0.163574
0.711952 0.702649 0.165411
0.736006 0.704486 0.167248
0.760060 0.706323 0.169084
0.784114 0.708160 0.170921
0.808168 0.709996 0.172758
0.832222 0.711833 0.174595
0.856276 0.713670 0.176432
0.880330 0.715507 0.178269
0.904384 0.717344 0.180106
0.928439 0.719181 0.181943
0.126210 0.684971 0.126210
0.151642 0.686913 0.128152
0.177074 0.688855 0.130094
0.202506 0.690798 0.132036
0.227939 0.692740 0.133979
0.253371 0.694682 0.135921
0.278803 0.696624 0.137863
0.304235 0.698566 0.139805
0.329667 0.700508 0.141747
0.355099 0.702450 0.143689
0.380882 0.704419 0.145658
0.407191 0.706428 0.147667
0.433500 0.708437 0.149676
0.459809 0.710446 0.151685
0.486118 0.712455 0.153694
0.512427 0.714464 0.155703
0.538736 0.716473 0.157712
0.565045 0.718483 0.159721
0.591354 0.720492 0.161730
0.617664 0.722501 0.163740
0.643973 0.724510 0.165749
0.669831 0.726484 0.167723
0.693885 0.728321 0.169560
0.717939 0.730158 0.171397
0.741993 0.731995 0.173234
0.766047 0.733832 0.175071
0.790101 0.735669 0.176908
0.814155 0.737506 0.178744
0.838209 0.739342 0.180581
0.862263 0.741179 0.182418
0.886317 0.743016 0.184255
0.910371 0.744853 0.186092
0.934425 0.746690 0.187929
0.132196 0.712480 0.132196
0.157628 0.714422 0.134138
0.183061 0.716365 0.136081
0.208493 0.718307 0.138023
0.233925 0.720249 0.139965
0.259357 0.722191 0.141907
0.284789 0.724133 0.143849
0.310221 0.726075 0.145791
0.335653 0.728017 0.147733
0.361085 0.729959 0.149675
0.386868 0.731928 0.151644
0.413177 0.733937 0.153653
0.439486 0.735946 0.155662
0.465795 0.737955 0.157671
0.492104 0.739964 0.159680
0.518413 0.741973 0.161689
0.544723 0.743983 0.163699
0.571032 0.745992 0.165708
0.597341 0.748001 0.167717
0.623650 0.750010 0.169726
0.649959 0.752019 0.171735
0.675817 0.753993 0.173709
0.699871 0.755830 0.175546
0.723925 0.757667 0.177383
0.747979 0.759504 0.179220
0.772033 0.761341 0.181057
0.796087 0.763178 0.182894
0.820141 0.765015 0.184731
0.844195 0.766851 0.186567
0.868249 0.768688 0.188404
0.892303 0.770525 0.190241
0.916357 0.772362 0.192078
0.940411 0.774199 0.193915
0.138183 0.739989 0.138183
0.163615 0.741932 0.140125
0.189047 0.743874 0.142067
0.214479 0.745816 0.144009
0.239911 0.747758 0.145951
0.265343 0.749700 0.147893
0.290775 0.751642 0.149835
0.316207 0.753584 0.151777
0.341639 0.755526 0.153719
0.367071 0.757468 0.155661
0.392854 0.759437 0.157630
0.419163 0.761446 0.159639
0.445472 0.763455 0.161648
0.471782 0.765464 0.163658
0.498091 0.767473 0.165667
0.524400 0.769483 0.167676
0.550709 0.771492 0.169685
0.577018 0.773501 0.171694
0.603327 0.775510 0.173703
0.629636 0.777519 0.175712
0.655945 0.779528 0.177721
0.681803 0.781503 0.179696
0.705857 0.783339 0.181533
0.729911 0.785176 0.183369
0.753965 0.787013 0.185206
0.778019 0.788850 0.187043
0.802073 0.790687 0.188880
0.826127 0.792524 0.190717
0.850181 0.794361 0.192554
