luts/dusty_western.cube
TITLE "Cinema No Country"
LUT_3D_SIZE 9
0.000000 0.000000 0.000000
0.095764 0.000000 0.000000
0.196195 0.000000 0.000000
0.298703 0.000000 0.000000
0.402597 0.003572 0.000000
0.506491 0.011506 0.003730
0.603261 0.018896 0.011120
0.698250 0.026149 0.018373
0.793238 0.033403 0.025627
0.017101 0.092232 0.000000
0.117532 0.099901 0.000000
0.217963 0.107570 0.005834
0.320471 0.115398 0.013662
0.424365 0.123332 0.021596
0.528259 0.131266 0.029530
0.625029 0.138656 0.036920
0.720018 0.145909 0.044173
0.815006 0.153163 0.051427
0.038869 0.211992 0.016296
0.139300 0.219661 0.023965
0.239731 0.227331 0.031635
0.342239 0.235159 0.039463
0.446133 0.243092 0.047396
0.550027 0.251026 0.055330
0.646804 0.258422 0.062960
0.741824 0.265708 0.071379
0.836845 0.272993 0.079798
0.060702 0.332106 0.042172
0.161132 0.339775 0.049842
0.261563 0.347445 0.057511
0.364090 0.355291 0.066000
0.468019 0.363259 0.075208
0.571947 0.371228 0.084417
0.668749 0.378650 0.092994
0.763770 0.385935 0.101413
0.858791 0.393221 0.109832
0.082607 0.452486 0.069204
0.183072 0.460189 0.078105
0.283536 0.467892 0.087007
0.386079 0.475754 0.096093
0.490008 0.483723 0.105301
0.593936 0.491692 0.114510
0.691322 0.499144 0.122563
0.787538 0.506491 0.129911
0.883754 0.513839 0.137258
0.104596 0.572950 0.099297
0.205061 0.580653 0.108198
0.305525 0.588356 0.117100
0.409092 0.596271 0.125268
0.514328 0.604307 0.133304
0.619564 0.612344 0.141340
0.717584 0.619829 0.148825
0.813800 0.627176 0.156173
0.910016 0.634524 0.163520
0.126210 0.684971 0.126210
0.227939 0.692740 0.133979
0.329667 0.700508 0.141747
0.433500 0.708437 0.149676
0.538736 0.716473 0.157712
0.643973 0.724510 0.165749
0.741993 0.731995 0.173234
0.838209 0.739342 0.180581
0.934425 0.746690 0.187929
0.150155 0.795008 0.150155
0.251883 0.802776 0.157923
0.353612 0.810544 0.165692
0.457445 0.818474 0.173621
0.562681 0.826510 0.181657
0.667917 0.834546 0.189693
0.765938 0.842031 0.197179
0.862154 0.849379 0.204526
0.958370 0.856726 0.211874
0.174100 0.905044 0.174100
0.275828 0.912812 0.181868
0.377557 0.920581 0.189637
0.481390 0.928510 0.197566
0.586626 0.936546 0.205602
0.691862 0.944582 0.213638
0.789882 0.952068 0.221124
0.886098 0.959415 0.228471
0.982315 0.966763 0.235819
0.000000 0.000000 0.042826
0.097507 0.000000 0.051727
0.197971 0.000000 0.060629
0.300514 0.000000 0.069714
0.404443 0.005811 0.078923
0.508372 0.013779 0.088131
0.605174 0.021202 0.096708
0.700194 0.028487 0.105127
0.795215 0.035773 0.113547
0.018924 0.094447 0.072771
0.119388 0.102150 0.081672
0.219853 0.109853 0.090574
0.322395 0.117716 0.099660
0.426324 0.125684 0.108868
0.530253 0.133653 0.118076
0.627055 0.141075 0.126654
0.722076 0.148360 0.135073
0.817096 0.155646 0.143492
0.040805 0.214321 0.102716
0.141269 0.222023 0.111618
0.241734 0.229726 0.120519
0.344277 0.237589 0.129605
0.448205 0.245557 0.138813
0.552134 0.253526 0.148022
0.648936 0.260948 0.156599
0.743957 0.268234 0.165018
0.838977 0.275519 0.173437
0.062751 0.334548 0.132750
0.163215 0.342251 0.141651
0.263680 0.349954 0.150553
0.366223 0.357816 0.159639
0.470151 0.365785 0.168847
0.574080 0.373754 0.178056
0.670882 0.381176 0.186633
0.765903 0.388461 0.195052
0.860923 0.395747 0.203471
0.084740 0.455012 0.162843
0.185204 0.462715 0.171744
0.285669 0.470418 0.180646
0.388212 0.478280 0.189731
0.492140 0.486249 0.198940
0.596069 0.494217 0.208148
0.693869 0.501691 0.215831
0.790085 0.509039 0.223178
0.886301 0.516386 0.230525
0.106729 0.575476 0.192935
0.207193 0.583179 0.201837
0.307806 0.590889 0.210606
0.411639 0.598818 0.218535
0.516875 0.606855 0.226571
0.622111 0.614891 0.234607
0.720132 0.622376 0.242093
0.816348 0.629724 0.249440
0.912564 0.637071 0.256788
0.128757 0.687518 0.219477
0.230486 0.695287 0.227246
0.332214 0.703055 0.235014
0.436047 0.710984 0.242943
0.541284 0.719021 0.250980
0.646520 0.727057 0.259016
0.744540 0.734542 0.266501
0.840756 0.741890 0.273848
0.936972 0.749237 0.281196
0.152702 0.797555 0.243422
0.254431 0.805323 0.251191
0.356159 0.813092 0.258959
0.459992 0.821021 0.266888
0.565228 0.829057 0.274924
0.670465 0.837093 0.282961
0.768485 0.844579 0.290446
0.864701 0.851926 0.297793
0.960917 0.859273 0.305141
0.176647 0.907591 0.267367
0.278376 0.915360 0.275136
0.380104 0.923128 0.282904
0.483937 0.931057 0.290833
0.589173 0.939093 0.298869
0.694410 0.947130 0.306906
0.792430 0.954615 0.314391
0.888646 0.961962 0.321738
0.984862 0.969310 0.329086
0.000000 0.000000 0.136464
0.099640 0.000000 0.145366
0.200104 0.000000 0.154267
0.302647 0.000368 0.163353
0.406576 0.008337 0.172561
0.510504 0.016305 0.181770
0.607307 0.023727 0.190347
0.702327 0.031013 0.198766
0.797348 0.038298 0.207185
0.021056 0.096973 0.166410
0.121521 0.104676 0.175311
0.221985 0.112379 0.184213
0.324528 0.120241 0.193298
0.428457 0.128210 0.202507
0.532386 0.136178 0.211715
0.629188 0.143601 0.220292
0.724208 0.150886 0.228711
0.819229 0.158172 0.237131
0.042938 0.216846 0.196355
0.143402 0.224549 0.205256
0.243867 0.232252 0.214158
0.346409 0.240115 0.223244
0.450338 0.248083 0.232452
0.554267 0.256052 0.241661
0.651069 0.263474 0.250238
0.746090 0.270759 0.258657
0.841110 0.278045 0.267076
0.064884 0.337074 0.226389
0.165348 0.344777 0.235290
0.265812 0.352480 0.244192
0.368355 0.360342 0.253277
0.472284 0.368311 0.262486
0.576213 0.376279 0.271694
0.673015 0.383701 0.280271
0.768035 0.390987 0.288690
0.863056 0.398273 0.297110
0.086873 0.457538 0.256481
0.187337 0.465241 0.265383
0.287801 0.472944 0.274284
0.390344 0.480806 0.283370
0.494273 0.488774 0.292579
0.598397 0.496753 0.301613
0.696417 0.504238 0.309098
0.792633 0.511586 0.316445
0.888849 0.518933 0.323793
0.108862 0.578001 0.286574
0.209326 0.585704 0.295476
0.310353 0.593436 0.303873
0.414186 0.601366 0.311802
0.519422 0.609402 0.319838
0.624659 0.617438 0.327875
0.722679 0.624923 0.335360
0.818895 0.632271 0.342707
0.915111 0.639618 0.350055
0.131305 0.690066 0.312745
0.233033 0.697834 0.320513
0.334761 0.705602 0.328281
0.438594 0.713532 0.336210
0.543831 0.721568 0.344247
0.649067 0.729604 0.352283
0.747087 0.737089 0.359768
0.843303 0.744437 0.367116
0.939519 0.751784 0.374463
0.155249 0.800102 0.336689
0.256978 0.807870 0.344458
0.358706 0.815639 0.352226
0.462539 0.823568 0.360155
0.567776 0.831604 0.368192
0.673012 0.839640 0.376228
0.771032 0.847126 0.383713
0.867248 0.854473 0.391061
0.963464 0.861821 0.398408
0.179194 0.910138 0.360634
0.280923 0.917907 0.368403
0.382651 0.925675 0.376171
0.486484 0.933604 0.384100
0.591721 0.941641 0.392137
0.696957 0.949677 0.400173
0.794977 0.957162 0.407658
0.891193 0.964509 0.415005
0.987409 0.971857 0.422353
0.001321 0.000000 0.230676
0.101785 0.000000 0.239578
0.202250 0.000000 0.248479
0.304793 0.002909 0.257565
0.408722 0.010878 0.266774
0.512650 0.018846 0.275982
0.609452 0.026269 0.284559
0.704473 0.033554 0.292978
0.799493 0.040840 0.301397
0.023202 0.099514 0.260622
0.123667 0.107217 0.269523
0.224131 0.114920 0.278425
0.326674 0.122782 0.287510
0.430603 0.130751 0.296719
0.534531 0.138720 0.305927
0.631334 0.146142 0.314504
0.726354 0.153427 0.322923
0.821375 0.160713 0.331343
0.045084 0.219387 0.290567
0.145548 0.227090 0.299468
0.246012 0.234793 0.308370
0.348555 0.242656 0.317456
0.452484 0.250624 0.326664
0.556413 0.258593 0.335873
0.653215 0.266015 0.344450
0.748235 0.273301 0.352869
0.843256 0.280586 0.361288
0.067029 0.339615 0.320601
0.167494 0.347318 0.329502
0.267958 0.355021 0.338404
0.370501 0.362883 0.347489
0.474430 0.370852 0.356698
0.578359 0.378820 0.365906
0.675161 0.386243 0.374483
0.770181 0.393528 0.382903
0.865202 0.400814 0.391322
0.089018 0.460079 0.350693
0.189483 0.467782 0.359595
0.289947 0.475485 0.368497
0.392490 0.483347 0.377582
0.496419 0.491316 0.386791
0.600959 0.499316 0.395451
0.698979 0.506801 0.402936
0.795195 0.514149 0.410283
0.891411 0.521496 0.417631
0.111008 0.580543 0.380786
0.211472 0.588246 0.389688
0.312916 0.595999 0.397711
0.416749 0.603928 0.405640
0.521985 0.611965 0.413677
0.627221 0.620001 0.421713
0.725242 0.627486 0.429198
0.821458 0.634834 0.436546
0.917674 0.642181 0.443893
0.133867 0.692628 0.406583
0.235596 0.700397 0.414351
0.337324 0.708165 0.422120
0.441157 0.716094 0.430049
0.546394 0.724131 0.438085
0.651630 0.732167 0.446121
0.749650 0.739652 0.453606
0.845866 0.747000 0.460954
0.942082 0.754347 0.468301
0.157812 0.802665 0.430528
0.259541 0.810433 0.438296
0.361269 0.818202 0.446064
0.465102 0.826131 0.453994
0.570338 0.834167 0.462030
0.675575 0.842203 0.470066
0.773595 0.849689 0.477551
0.869811 0.857036 0.484899
0.966027 0.864383 0.492246
0.181757 0.912701 0.454473
0.283486 0.920470 0.462241
0.385214 0.928238 0.470009
0.489047 0.936167 0.477939
0.594283 0.944203 0.485975
0.699520 0.952240 0.494011
0.797540 0.959725 0.501496
0.893756 0.967072 0.508844
0.989972 0.974420 0.516191
0.003476 0.000000 0.325271
0.103940 0.000000 0.334172
0.204404 0.000000 0.343074
0.306947 0.005461 0.352159
0.410876 0.013429 0.361368
0.514805 0.021398 0.370576
0.611607 0.028820 0.379153
0.706627 0.036106 0.387572
0.801648 0.043391 0.395992
0.025357 0.102066 0.355216
0.125821 0.109769 0.364117
0.226286 0.117472 0.373019
0.328829 0.125334 0.382105
0.432757 0.133303 0.391313
0.536686 0.141271 0.400522
0.633488 0.148693 0.409099
0.728509 0.155979 0.417518
0.823529 0.163264 0.425937
0.047238 0.221939 0.385161
0.147702 0.229642 0.394063
0.248167 0.237345 0.402964
0.350710 0.245207 0.412050
0.454639 0.253176 0.421258
0.558567 0.261144 0.430467
0.655369 0.268567 0.439044
0.750390 0.275852 0.447463
0.845410 0.283138 0.455882
0.069184 0.342167 0.415195
0.169648 0.349870 0.424096
0.270113 0.357573 0.432998
0.372656 0.365435 0.442084
0.476584 0.373403 0.451292
0.580513 0.381372 0.460501
0.677315 0.388794 0.469078
0.772336 0.396080 0.477497
0.867723 0.403384 0.485588
0.091173 0.462630 0.445288
0.191637 0.470333 0.454189
0.292102 0.478036 0.463091
0.394645 0.485899 0.472176
0.498573 0.493867 0.481385
0.603533 0.501889 0.489670
0.701553 0.509374 0.497155
0.797769 0.516722 0.504502
0.893985 0.524069 0.511850
0.113162 0.583094 0.475381
0.213761 0.590804 0.484162
0.315489 0.598572 0.491930
0.419322 0.606502 0.499859
0.524558 0.614538 0.507896
0.629795 0.622574 0.515932
0.727815 0.630059 0.523417
0.824031 0.637407 0.530765
0.920247 0.644754 0.538112
0.136441 0.695202 0.500802
0.238169 0.702970 0.508570
0.339897 0.710739 0.516339
0.443730 0.718668 0.524268
0.548967 0.726704 0.532304
0.654203 0.734740 0.540340
0.752223 0.742225 0.547825
0.848439 0.749573 0.555173
0.944655 0.756920 0.562520
0.160385 0.805238 0.524747
0.262114 0.813006 0.532515
0.363842 0.820775 0.540283
0.467675 0.828704 0.548213
0.572912 0.836740 0.556249
0.678148 0.844777 0.564285
0.776168 0.852262 0.571770
0.872384 0.859609 0.579118
0.968600 0.866957 0.586465
0.184330 0.915274 0.548691
0.286059 0.923043 0.556460
0.387787 0.930811 0.564228
0.491620 0.938740 0.572157
0.596857 0.946777 0.580194
0.702093 0.954813 0.588230
0.800113 0.962298 0.595715
0.896329 0.969646 0.603063
0.992545 0.976993 0.610410
0.005630 0.000000 0.419865
0.106094 0.000000 0.428766
0.206559 0.000150 0.437668
0.309102 0.008012 0.446754
0.413031 0.015981 0.455962
0.516959 0.023949 0.465171
0.613761 0.031372 0.473748
0.708782 0.038657 0.482167
0.803802 0.045943 0.490586
0.027511 0.104617 0.449810
0.127976 0.112320 0.458712
0.228440 0.120023 0.467613
0.330983 0.127886 0.476699
0.434912 0.135854 0.485907
0.538841 0.143823 0.495116
0.635643 0.151245 0.503693
0.730663 0.158530 0.512112
0.825684 0.165816 0.520531
0.049393 0.224491 0.479755
0.149857 0.232194 0.488657
0.250321 0.239896 0.497558
0.352864 0.247759 0.506644
0.456793 0.255727 0.515853
0.560722 0.263696 0.525061
0.657524 0.271118 0.533638
0.752544 0.278404 0.542057
0.847565 0.285689 0.550476
0.071338 0.344718 0.509789
0.171803 0.352421 0.518691
0.272267 0.360124 0.527592
0.374810 0.367986 0.536678
0.478739 0.375955 0.545886
0.582668 0.383924 0.555095
0.679470 0.391346 0.563672
0.774490 0.398631 0.572091
0.870296 0.405957 0.579807
0.093328 0.465182 0.539882
0.193792 0.472885 0.548783
0.294256 0.480588 0.557685
0.396799 0.488450 0.566771
0.500869 0.496426 0.575852
0.606106 0.504462 0.583889
0.704126 0.511948 0.591374
0.800342 0.519295 0.598721
0.896558 0.526642 0.606069
0.115317 0.585646 0.569975
0.216334 0.593377 0.578381
0.318062 0.601146 0.586149
0.421895 0.609075 0.594078
0.527132 0.617111 0.602114
0.632368 0.625147 0.610151
0.730388 0.632633 0.617636
0.826604 0.639980 0.624983
0.922820 0.647327 0.632331
0.139014 0.697775 0.595021
0.240742 0.705543 0.602789
0.342471 0.713312 0.610557
0.446304 0.721241 0.618487
0.551540 0.729277 0.626523
0.656776 0.737313 0.634559
0.754796 0.744799 0.642044
0.851012 0.752146 0.649392
0.947228 0.759494 0.656739
0.162959 0.807811 0.618966
0.264687 0.815580 0.626734
0.366415 0.823348 0.634502
0.470249 0.831277 0.642431
0.575485 0.839313 0.650468
0.680721 0.847350 0.658504
0.778741 0.854835 0.665989
0.874957 0.862182 0.673337
0.971173 0.869530 0.680684
0.186904 0.917848 0.642910
0.288632 0.925616 0.650679
0.390360 0.933384 0.658447
0.494193 0.941313 0.666376
0.599430 0.949350 0.674413
0.704666 0.957386 0.682449
0.802686 0.964871 0.689934
0.898902 0.972219 0.697282
0.995118 0.979566 0.704629
0.007628 0.000000 0.507580
0.108092 0.000000 0.516481
0.208557 0.002516 0.525383
0.311100 0.010378 0.534468
0.415028 0.018347 0.543677
0.518957 0.026315 0.552885
0.615759 0.033738 0.561462
0.710780 0.041023 0.569881
0.805800 0.048309 0.578301
0.029509 0.106983 0.537525
0.129974 0.114686 0.546426
0.230438 0.122389 0.555328
0.332981 0.130252 0.564414
0.436910 0.138220 0.573622
0.540838 0.146189 0.582830
0.637640 0.153611 0.591407
0.732661 0.160896 0.599827
0.827682 0.168182 0.608246
0.051390 0.226857 0.567470
0.151855 0.234559 0.576372
0.252319 0.242262 0.585273
0.354862 0.250125 0.594359
0.458791 0.258093 0.603567
0.562720 0.266062 0.612776
0.659522 0.273484 0.621353
0.754542 0.280770 0.629772
0.849563 0.288055 0.638191
0.073336 0.347084 0.597504
0.173801 0.354787 0.606405
0.274265 0.362490 0.615307
0.376808 0.370352 0.624393
0.480737 0.378321 0.633601
0.584666 0.386290 0.642810
0.681468 0.393712 0.651387
0.776488 0.400997 0.659806
0.872682 0.408344 0.667173
0.095325 0.467548 0.627597
0.195790 0.475251 0.636498
0.296254 0.482954 0.645400
0.398797 0.490816 0.654485
0.503256 0.498812 0.663219
0.608492 0.506848 0.671255
0.706512 0.514334 0.678740
0.802728 0.521681 0.686088
0.898944 0.529029 0.693435
0.117314 0.588012 0.657689
0.218720 0.595763 0.665747
0.320448 0.603532 0.673516
0.424281 0.611461 0.681445
0.529518 0.619497 0.689481
0.634754 0.627533 0.697517
0.732774 0.635019 0.705003
0.828990 0.642366 0.712350
0.925206 0.649714 0.719698
0.141400 0.700161 0.682387
0.243128 0.707929 0.690156
0.344857 0.715698 0.697924
0.448690 0.723627 0.705853
0.553926 0.731663 0.713889
0.659162 0.739699 0.721926
0.757182 0.747185 0.729411
0.853398 0.754532 0.736758
0.949614 0.761880 0.744106
0.165345 0.810197 0.706332
0.267073 0.817966 0.714101
0.368802 0.825734 0.721869
0.472635 0.833663 0.729798
0.577871 0.841700 0.737834
0.683107 0.849736 0.745871
0.781127 0.857221 0.753356
0.877343 0.864568 0.760703
0.973559 0.871916 0.768051
0.189290 0.920234 0.730277
0.291018 0.928002 0.738045
0.392746 0.935770 0.745814
0.496580 0.943700 0.753743
0.601816 0.951736 0.761779
0.707052 0.959772 0.769816
0.805072 0.967257 0.777301
0.901288 0.974605 0.784648
0.997504 0.981952 0.791996
0.009587 0.000000 0.593574
0.110051 0.000000 0.602476
0.210515 0.004836 0.611377
0.313058 0.012698 0.620463
0.416987 0.020666 0.629672
0.520916 0.028635 0.638880
0.617718 0.036057 0.647457
0.712738 0.043343 0.655876
0.807759 0.050628 0.664295
0.031468 0.109303 0.623520
0.131932 0.117006 0.632421
0.232397 0.124709 0.641323
0.334940 0.132571 0.650408
0.438868 0.140540 0.659617
0.542797 0.148508 0.668825
0.639599 0.155930 0.677402
0.734620 0.163216 0.685821
0.829640 0.170502 0.694241
0.053349 0.229176 0.653465
0.153813 0.236879 0.662366
0.254278 0.244582 0.671268
0.356821 0.252444 0.680354
0.460750 0.260413 0.689562
0.564678 0.268382 0.698771
0.661480 0.275804 0.707348
0.756501 0.283089 0.715767
0.851521 0.290375 0.724186
0.075295 0.349404 0.683499
0.175759 0.357107 0.692400
0.276224 0.364810 0.701302
0.378767 0.372672 0.710387
0.482695 0.380641 0.719596
0.586624 0.388609 0.728804
0.683426 0.396031 0.737381
0.778805 0.403335 0.745479
0.875021 0.410683 0.752827
0.097284 0.469867 0.713591
0.197748 0.477570 0.722493
0.298213 0.485273 0.731394
0.400756 0.493136 0.740480
0.505595 0.501151 0.748873
0.610831 0.509188 0.756909
0.708851 0.516673 0.764394
0.805067 0.524020 0.771742
0.901283 0.531368 0.779089
0.119331 0.590334 0.743632
0.221059 0.598103 0.751401
0.322788 0.605871 0.759169
0.426621 0.613800 0.767098
0.531857 0.621836 0.775135
0.637093 0.629873 0.783171
0.735113 0.637358 0.790656
0.831329 0.644705 0.798004
0.927545 0.652053 0.805351
0.143739 0.702500 0.768041
0.245468 0.710269 0.775809
0.347196 0.718037 0.783578
0.451029 0.725966 0.791507
0.556265 0.734002 0.799543
0.661502 0.742039 0.807579
0.759522 0.749524 0.815065
0.855738 0.756871 0.822412
0.951954 0.764219 0.829759
0.167684 0.812537 0.791986
0.269412 0.820305 0.799754
0.371141 0.828073 0.807523
0.474974 0.836003 0.815452
0.580210 0.844039 0.823488
0.685446 0.852075 0.831524
0.783467 0.859560 0.839009
0.879683 0.866908 0.846357
0.975899 0.874255 0.853704
0.191629 0.922573 0.815931
0.293357 0.930341 0.823699
0.395086 0.938110 0.831467
0.498919 0.946039 0.839397
0.604155 0.954075 0.847433
0.709391 0.962111 0.855469
0.807411 0.969597 0.862954
0.903627 0.976944 0.870302
0.999844 0.984292 0.877649
0.011545 0.000000 0.679569
0.112010 0.000000 0.688471
0.212474 0.007155 0.697372
0.315017 0.015017 0.706458
0.418946 0.022986 0.715666
0.522874 0.030955 0.724875
0.619677 0.038377 0.733452
0.714697 0.045662 0.741871
0.809718 0.052948 0.750290
0.033426 0.111622 0.709514
0.133891 0.119325 0.718416
0.234355 0.127028 0.727317
0.336898 0.134891 0.736403
0.440827 0.142859 0.745612
0.544756 0.150828 0.754820
0.641558 0.158250 0.763397
0.736578 0.165536 0.771816
0.831599 0.172821 0.780235
0.055308 0.231496 0.739460
0.155772 0.239199 0.748361
0.256237 0.246902 0.757263
0.358779 0.254764 0.766348
0.462708 0.262733 0.775557
0.566637 0.270701 0.784765
0.663439 0.278123 0.793342
0.758460 0.285409 0.801761
0.853480 0.292694 0.810181
0.077254 0.351723 0.769493
0.177718 0.359426 0.778395
0.278182 0.367129 0.787296
0.380725 0.374991 0.796382
0.484654 0.382960 0.805591
0.588583 0.390929 0.814799
0.685385 0.398351 0.823376
0.781144 0.405675 0.831133
0.877360 0.413022 0.838480
0.099243 0.472187 0.799586
0.199707 0.479890 0.808488
0.300171 0.487593 0.817389
0.402714 0.495455 0.826475
0.507934 0.503491 0.834526
0.613170 0.511527 0.842562
0.711190 0.519012 0.850048
0.807406 0.526360 0.857395
0.903623 0.533707 0.864743
0.121670 0.592673 0.829286
0.223398 0.600442 0.837054
0.325127 0.608210 0.844823
0.428960 0.616139 0.852752
0.534196 0.624176 0.860788
0.639433 0.632212 0.868825
0.737453 0.639697 0.876310
0.833669 0.647045 0.883657
0.929885 0.654392 0.891005
0.146078 0.704840 0.853694
0.247807 0.712608 0.861463
0.349535 0.720376 0.869231
0.453368 0.728305 0.877160
0.558605 0.736342 0.885197
0.663841 0.744378 0.893233
0.761861 0.751863 0.900718
0.858077 0.759211 0.908066
0.954293 0.766558 0.915413
0.170023 0.814876 0.877639
0.271752 0.822644 0.885408
0.373480 0.830413 0.893176
0.477313 0.838342 0.901105
0.582549 0.846378 0.909141
0.687786 0.854414 0.917178
0.785806 0.861900 0.924663
0.882022 0.869247 0.932010
0.978238 0.876594 0.939358
0.193968 0.924912 0.901584
0.295697 0.932681 0.909353
0.397425 0.940449 0.917121
0.501258 0.948378 0.925050
0.606494 0.956414 0.933086
0.711731 0.964451 0.941123
0.809751 0.971936 0.948608
0.905967 0.979283 0.955955
1.000000 0.986631 0.963303
