luts/everyday_colour_400.cube
TITLE "Fuji Superia 400"
LUT_3D_SIZE 9
0.059217 0.029491 0.000000
0.184574 0.028431 0.000000
0.309930 0.027372 0.000000
0.430989 0.026349 0.000000
0.549182 0.025351 0.000000
0.667375 0.024352 0.000000
0.782703 0.023377 0.000000
0.897315 0.022409 0.000000
1.000000 0.021440 0.000000
0.052247 0.149296 0.000000
0.177603 0.148237 0.000000
0.302960 0.147178 0.000000
0.424018 0.146155 0.000000
0.542212 0.145156 0.000000
0.660405 0.144157 0.000000
0.775732 0.143182 0.000000
0.890343 0.142212 0.000000
1.000000 0.141242 0.000000
0.045276 0.269102 0.000000
0.170633 0.268042 0.000000
0.295989 0.266983 0.000000
0.417047 0.265959 0.000000
0.535238 0.264959 0.000000
0.653430 0.263958 0.000000
0.768757 0.262982 0.000000
0.883367 0.262013 0.000000
0.997977 0.261043 0.000000
0.038407 0.387135 0.000000
0.163762 0.386074 0.000000
0.289117 0.385013 0.000000
0.410174 0.383989 0.000000
0.528366 0.382989 0.000000
0.646558 0.381988 0.000000
0.761884 0.381012 0.000000
0.876495 0.380043 0.000000
0.991105 0.379073 0.000000
0.031603 0.503984 0.000000
0.156958 0.502924 0.000000
0.282313 0.501863 0.000000
0.403370 0.500838 0.000000
0.521562 0.499838 0.000000
0.639754 0.498838 0.000043
0.756116 0.498202 0.000000
0.872202 0.497716 0.000000
0.988287 0.497230 0.000000
0.024800 0.620834 0.000000
0.150155 0.619773 0.000000
0.275578 0.618735 0.000178
0.398193 0.618221 0.000000
0.517906 0.617720 0.000000
0.637619 0.617219 0.000000
0.754430 0.616730 0.000000
0.870516 0.616244 0.000000
0.986601 0.615758 0.000000
0.019996 0.735453 0.000000
0.146964 0.734921 0.000000
0.273933 0.734390 0.000000
0.396548 0.733877 0.000000
0.516261 0.733375 0.000000
0.635974 0.732874 0.000000
0.752785 0.732385 0.000000
0.868871 0.731899 0.000000
0.984956 0.731413 0.000000
0.018361 0.850389 0.000000
0.145329 0.849858 0.000000
0.272298 0.849326 0.000000
0.394913 0.848813 0.000000
0.514626 0.848312 0.000000
0.634340 0.847811 0.000000
0.751151 0.847322 0.000000
0.867236 0.846836 0.000000
0.983322 0.846350 0.000000
0.016726 0.965326 0.000000
0.143695 0.964795 0.000000
0.270663 0.964263 0.000000
0.393278 0.963750 0.000000
0.512992 0.963249 0.000000
0.632705 0.962748 0.000000
0.749516 0.962259 0.000000
0.865601 0.961773 0.000000
0.981687 0.961287 0.000000
0.058551 0.029168 0.109193
0.183906 0.028107 0.109759
0.309261 0.027046 0.110324
0.430318 0.026022 0.110871
0.548510 0.025022 0.111404
0.666701 0.024021 0.111937
0.782028 0.023045 0.112457
0.896638 0.022076 0.112975
1.000000 0.021106 0.113492
0.051575 0.148968 0.111032
0.176930 0.147907 0.111598
0.302285 0.146847 0.112164
0.423342 0.145822 0.112710
0.541534 0.144822 0.113243
0.659726 0.143822 0.113776
0.775052 0.142846 0.114297
0.889663 0.141876 0.114814
1.000000 0.140906 0.115331
0.044600 0.268768 0.112872
0.169955 0.267708 0.113437
0.295310 0.266647 0.114003
0.416367 0.265623 0.114549
0.534558 0.264622 0.115082
0.652750 0.263622 0.115616
0.768077 0.262646 0.116136
0.882687 0.261676 0.116653
0.997297 0.260707 0.117170
0.037727 0.386798 0.114684
0.163082 0.385738 0.115249
0.288437 0.384677 0.115815
0.409494 0.383652 0.116361
0.527686 0.382652 0.116895
0.645878 0.381652 0.117428
0.761204 0.380676 0.117948
0.875815 0.379706 0.118465
0.990425 0.378737 0.118982
0.030924 0.503648 0.116478
0.156278 0.502587 0.117043
0.281633 0.501527 0.117609
0.402691 0.500502 0.118155
0.520882 0.499502 0.118689
0.639137 0.498522 0.119179
0.755948 0.498033 0.118690
0.872033 0.497547 0.118205
0.988119 0.497061 0.117719
0.024120 0.620498 0.118272
0.149475 0.619437 0.118838
0.275409 0.618566 0.119009
0.398024 0.618053 0.118496
0.517738 0.617552 0.117995
0.637451 0.617051 0.117494
0.754262 0.616562 0.117005
0.870347 0.616076 0.116519
0.986433 0.615590 0.116033
0.019827 0.735284 0.118427
0.146796 0.734753 0.117896
0.273764 0.734221 0.117364
0.396379 0.733708 0.116851
0.516093 0.733207 0.116350
0.635806 0.732706 0.115849
0.752617 0.732217 0.115360
0.868702 0.731731 0.114874
0.984788 0.731245 0.114388
0.018192 0.850221 0.116792
0.145161 0.849690 0.116261
0.272129 0.849158 0.115729
0.394745 0.848645 0.115216
0.514458 0.848144 0.114715
0.634171 0.847642 0.114214
0.750982 0.847153 0.113725
0.867068 0.846668 0.113239
0.983153 0.846182 0.112753
0.016558 0.965158 0.115158
0.143526 0.964626 0.114626
0.270495 0.964095 0.114095
0.393110 0.963581 0.113581
0.512823 0.963080 0.113080
0.632536 0.962579 0.112579
0.749347 0.962090 0.112090
0.865433 0.961604 0.111604
0.981518 0.961118 0.111118
0.057871 0.028831 0.228372
0.183226 0.027771 0.228938
0.308581 0.026710 0.229504
0.429638 0.025685 0.230050
0.547830 0.024685 0.230583
0.666021 0.023685 0.231116
0.781348 0.022709 0.231637
0.895958 0.021739 0.232154
1.000000 0.020769 0.232671
0.050895 0.148632 0.230212
0.176250 0.147571 0.230777
0.301605 0.146510 0.231343
0.422662 0.145486 0.231889
0.540854 0.144486 0.232422
0.659046 0.143486 0.232956
0.774372 0.142510 0.233476
0.888983 0.141540 0.233993
1.000000 0.140570 0.234510
0.043920 0.268432 0.232051
0.169275 0.267371 0.232617
0.294630 0.266311 0.233182
0.415687 0.265286 0.233728
0.533879 0.264286 0.234262
0.652070 0.263286 0.234795
0.767397 0.262310 0.235315
0.882007 0.261340 0.235833
0.996617 0.260370 0.236350
0.037047 0.386462 0.233863
0.162402 0.385401 0.234429
0.287757 0.384341 0.234994
0.408814 0.383316 0.235541
0.527006 0.382316 0.236074
0.645198 0.381316 0.236607
0.760525 0.380340 0.237128
0.875135 0.379370 0.237645
0.989745 0.378400 0.238162
0.030244 0.503312 0.235657
0.155599 0.502251 0.236223
0.280954 0.501190 0.236788
0.402011 0.500166 0.237335
0.520202 0.499166 0.237868
0.638968 0.498354 0.238011
0.755779 0.497865 0.237522
0.871865 0.497379 0.237036
0.987950 0.496893 0.236550
0.023440 0.620162 0.237451
0.148795 0.619101 0.238017
0.275241 0.618398 0.237841
0.397856 0.617885 0.237327
0.517569 0.617383 0.236826
0.637282 0.616882 0.236325
0.754093 0.616393 0.235836
0.870179 0.615907 0.235350
0.986264 0.615421 0.234864
0.019659 0.735116 0.237259
0.146627 0.734584 0.236727
0.273596 0.734053 0.236196
0.396211 0.733540 0.235682
0.515924 0.733038 0.235181
0.635637 0.732537 0.234680
0.752448 0.732048 0.234191
0.868534 0.731562 0.233705
0.984619 0.731076 0.233219
0.018024 0.850053 0.235624
0.144992 0.849521 0.235092
0.271961 0.848990 0.234561
0.394576 0.848476 0.234048
0.514289 0.847975 0.233547
0.634003 0.847474 0.233045
0.750814 0.846985 0.232556
0.866899 0.846499 0.232071
0.982985 0.846013 0.231585
0.016389 0.964989 0.233989
0.143358 0.964458 0.233458
0.270326 0.963926 0.232926
0.392942 0.963413 0.232413
0.512655 0.962912 0.231912
0.632368 0.962411 0.231411
0.749179 0.961922 0.230922
0.865264 0.961436 0.230436
0.981350 0.960950 0.229950
0.057199 0.028499 0.346092
0.182554 0.027439 0.346658
0.307909 0.026378 0.347224
0.428966 0.025353 0.347770
0.547158 0.024353 0.348303
0.665350 0.023353 0.348836
0.780676 0.022377 0.349357
0.895287 0.021407 0.349874
1.000000 0.020437 0.350391
0.050224 0.148300 0.347932
0.175579 0.147239 0.348497
0.300934 0.146178 0.349063
0.421991 0.145154 0.349609
0.540183 0.144154 0.350142
0.658374 0.143153 0.350676
0.773701 0.142178 0.351196
0.888311 0.141208 0.351713
1.000000 0.140238 0.352230
0.043248 0.268100 0.349771
0.168603 0.267039 0.350337
0.293958 0.265979 0.350902
0.415015 0.264954 0.351448
0.533207 0.263954 0.351982
0.651399 0.262954 0.352515
0.766725 0.261978 0.353035
0.881336 0.261008 0.353552
0.995946 0.260038 0.354070
0.036376 0.386130 0.351583
0.161731 0.385069 0.352149
0.287086 0.384009 0.352714
0.408143 0.382984 0.353261
0.526335 0.381984 0.353794
0.644526 0.380984 0.354327
0.759853 0.380008 0.354847
0.874463 0.379038 0.355365
0.989470 0.378198 0.355612
0.029572 0.502980 0.353377
0.154927 0.501919 0.353943
0.280282 0.500858 0.354508
0.401339 0.499834 0.355055
0.519531 0.498834 0.355588
0.638802 0.498187 0.355387
0.755613 0.497698 0.354898
0.871698 0.497212 0.354412
0.987784 0.496727 0.353927
0.022768 0.619829 0.355171
0.148123 0.618769 0.355737
0.275074 0.618231 0.355217
0.397690 0.617718 0.354704
0.517403 0.617217 0.354203
0.637116 0.616716 0.353702
0.753927 0.616227 0.353213
0.870012 0.615741 0.352727
0.986098 0.615255 0.352241
0.019492 0.734949 0.354635
0.146461 0.734418 0.354104
0.273429 0.733886 0.353572
0.396045 0.733373 0.353059
0.515758 0.732872 0.352558
0.635471 0.732371 0.352057
0.752282 0.731882 0.351568
0.868367 0.731396 0.351082
0.984453 0.730910 0.350596
0.017858 0.849886 0.353000
0.144826 0.849355 0.352469
0.271795 0.848823 0.351937
0.394410 0.848310 0.351424
0.514123 0.847809 0.350923
0.633836 0.847308 0.350422
0.750647 0.846819 0.349933
0.866733 0.846333 0.349447
0.982818 0.845847 0.348961
0.016223 0.964823 0.351366
0.143191 0.964291 0.350834
0.270160 0.963760 0.350303
0.392775 0.963247 0.349789
0.512488 0.962745 0.349288
0.632201 0.962244 0.348787
0.749012 0.961755 0.348298
0.865098 0.961269 0.347812
0.981183 0.960783 0.347326
0.056533 0.028170 0.462839
0.181888 0.027109 0.463405
0.307243 0.026048 0.463971
0.428300 0.025024 0.464517
0.546492 0.024024 0.465050
0.664684 0.023024 0.465583
0.780010 0.022048 0.466104
0.894621 0.021078 0.466621
1.000000 0.020108 0.467138
0.049558 0.147970 0.464679
0.174913 0.146910 0.465244
0.300268 0.145849 0.465810
0.421325 0.144824 0.466356
0.539516 0.143824 0.466889
0.657708 0.142824 0.467423
0.773035 0.141848 0.467943
0.887645 0.140878 0.468460
1.000000 0.139908 0.468977
0.042582 0.267771 0.466518
0.167937 0.266710 0.467084
0.293292 0.265649 0.467649
0.414349 0.264625 0.468195
0.532541 0.263625 0.468729
0.650733 0.262624 0.469262
0.766059 0.261649 0.469782
0.880670 0.260679 0.470299
0.995280 0.259709 0.470817
0.035710 0.385801 0.468330
0.161065 0.384740 0.468896
0.286420 0.383679 0.469461
0.407477 0.382655 0.470008
0.525669 0.381655 0.470541
0.643860 0.380654 0.471074
0.759187 0.379679 0.471594
0.873797 0.378709 0.472112
0.989304 0.378033 0.472019
0.028906 0.502650 0.470124
0.154261 0.501590 0.470690
0.279616 0.500529 0.471255
0.400673 0.499504 0.471802
0.518924 0.498524 0.472295
0.638637 0.498022 0.471794
0.755448 0.497533 0.471305
0.871533 0.497047 0.470819
0.987619 0.496562 0.470333
0.022102 0.619500 0.471918
0.147941 0.618598 0.472155
0.274909 0.618066 0.471624
0.397525 0.617553 0.471110
0.517238 0.617052 0.470609
0.636951 0.616551 0.470108
0.753762 0.616062 0.469619
0.869847 0.615576 0.469133
0.985933 0.615090 0.468647
0.019327 0.734784 0.471042
0.146296 0.734253 0.470510
0.273264 0.733721 0.469979
0.395880 0.733208 0.469465
0.515593 0.732707 0.468964
0.635306 0.732206 0.468463
0.752117 0.731717 0.467974
0.868202 0.731231 0.467488
0.984288 0.730745 0.467002
0.017693 0.849721 0.469407
0.144661 0.849190 0.468875
0.271630 0.848658 0.468344
0.394245 0.848145 0.467831
0.513958 0.847644 0.467329
0.633671 0.847143 0.466828
0.750482 0.846654 0.466339
0.866568 0.846168 0.465853
0.982653 0.845682 0.465367
0.016058 0.964658 0.467772
0.143026 0.964126 0.467241
0.269995 0.963595 0.466709
0.392610 0.963082 0.466196
0.512323 0.962580 0.465695
0.632036 0.962079 0.465194
0.748847 0.961590 0.464705
0.864933 0.961104 0.464219
0.981018 0.960618 0.463733
0.055867 0.027841 0.579586
0.181222 0.026780 0.580152
0.306577 0.025719 0.580718
0.427634 0.024695 0.581264
0.545826 0.023694 0.581797
0.664018 0.022694 0.582330
0.779344 0.021718 0.582851
0.893955 0.020749 0.583368
1.000000 0.019779 0.583885
0.048892 0.147641 0.581426
0.174247 0.146580 0.581991
0.299602 0.145519 0.582557
0.420659 0.144495 0.583103
0.538850 0.143495 0.583636
0.657042 0.142495 0.584170
0.772369 0.141519 0.584690
0.886979 0.140549 0.585207
1.000000 0.139579 0.585724
0.041916 0.267441 0.583265
0.167271 0.266381 0.583831
0.292626 0.265320 0.584396
0.413683 0.264295 0.584942
0.531875 0.263295 0.585476
0.650067 0.262295 0.586009
0.765393 0.261319 0.586529
0.880004 0.260349 0.587047
0.994614 0.259379 0.587564
0.035044 0.385471 0.585077
0.160399 0.384411 0.585643
0.285754 0.383350 0.586208
0.406811 0.382325 0.586755
0.525003 0.381325 0.587288
0.643194 0.380325 0.587821
0.758521 0.379349 0.588342
0.873131 0.378379 0.588859
0.989139 0.377868 0.588425
0.028240 0.502321 0.586871
0.153595 0.501260 0.587437
0.278950 0.500199 0.588002
0.400007 0.499175 0.588549
0.518758 0.498358 0.588701
0.638472 0.497857 0.588200
0.755283 0.497368 0.587711
0.871368 0.496882 0.587225
0.987454 0.496396 0.586739
0.021436 0.619171 0.588665
0.147776 0.618433 0.588561
0.274744 0.617901 0.588030
0.397360 0.617388 0.587517
0.517073 0.616887 0.587016
0.636786 0.616386 0.586514
0.753597 0.615897 0.586025
0.869682 0.615411 0.585539
0.985768 0.614925 0.585054
0.019162 0.734619 0.587448
0.146131 0.734088 0.586916
0.273099 0.733556 0.586385
0.395715 0.733043 0.585872
0.515428 0.732542 0.585371
0.635141 0.732041 0.584869
0.751952 0.731552 0.584380
0.868037 0.731066 0.583895
0.984123 0.730580 0.583409
0.017528 0.849556 0.585813
0.144496 0.849025 0.585282
0.271465 0.848493 0.584750
0.394080 0.847980 0.584237
0.513793 0.847479 0.583736
0.633506 0.846978 0.583235
0.750317 0.846489 0.582746
0.866403 0.846003 0.582260
0.982488 0.845517 0.581774
0.015893 0.964493 0.584178
0.142861 0.963961 0.583647
0.269830 0.963430 0.583115
0.392445 0.962916 0.582602
0.512158 0.962415 0.582101
0.631871 0.961914 0.581600
0.748682 0.961425 0.581111
0.864768 0.960939 0.580625
0.980853 0.960453 0.580139
0.055201 0.027511 0.696333
0.180556 0.026450 0.696899
0.305911 0.025390 0.697465
0.426968 0.024365 0.698011
0.545160 0.023365 0.698544
0.663352 0.022365 0.699077
0.778678 0.021389 0.699598
0.893289 0.020419 0.700115
1.000000 0.019449 0.700632
0.048226 0.147312 0.698173
0.173581 0.146251 0.698738
0.298936 0.145190 0.699304
0.419993 0.144166 0.699850
0.538184 0.143165 0.700383
0.656376 0.142165 0.700917
0.771703 0.141189 0.701437
0.886313 0.140220 0.701954
1.000000 0.139250 0.702471
0.041250 0.267112 0.700012
0.166605 0.266051 0.700578
0.291960 0.264990 0.701143
0.413017 0.263966 0.701690
0.531209 0.262966 0.702223
0.649401 0.261966 0.702756
0.764727 0.260990 0.703276
0.879338 0.260020 0.703794
0.993948 0.259050 0.704311
0.034378 0.385142 0.701824
0.159733 0.384081 0.702390
0.285088 0.383020 0.702955
0.406145 0.381996 0.703502
0.524336 0.380996 0.704035
0.642528 0.379996 0.704568
0.757855 0.379020 0.705089
0.872889 0.378189 0.705318
0.988974 0.377703 0.704832
0.027574 0.501992 0.703618
0.152929 0.500931 0.704184
0.278284 0.499870 0.704749
0.399341 0.498846 0.705296
0.518593 0.498193 0.705108
0.638307 0.497692 0.704607
0.755118 0.497203 0.704118
0.871203 0.496717 0.703632
0.987289 0.496231 0.703146
0.020770 0.618841 0.705412
0.147611 0.618268 0.704968
0.274579 0.617736 0.704436
0.397194 0.617223 0.703923
0.516908 0.616722 0.703422
0.636621 0.616221 0.702921
0.753432 0.615732 0.702432
0.869517 0.615246 0.701946
0.985603 0.614760 0.701460
0.018997 0.734454 0.703854
0.145966 0.733923 0.703323
0.272934 0.733391 0.702791
0.395550 0.732878 0.702278
0.515263 0.732377 0.701777
0.634976 0.731876 0.701276
0.751787 0.731387 0.700787
0.867872 0.730901 0.700301
0.983958 0.730415 0.699815
0.017362 0.849391 0.702220
0.144331 0.848860 0.701688
0.271299 0.848328 0.701157
0.393915 0.847815 0.700643
0.513628 0.847314 0.700142
0.633341 0.846813 0.699641
0.750152 0.846324 0.699152
0.866238 0.845838 0.698666
0.982323 0.845352 0.698180
0.015728 0.964328 0.700585
0.142696 0.963796 0.700053
0.269665 0.963265 0.699522
0.392280 0.962751 0.699009
0.511993 0.962250 0.698507
0.631706 0.961749 0.698006
0.748517 0.961260 0.697517
0.864603 0.960774 0.697031
0.980688 0.960288 0.696545
0.054535 0.027182 0.813081
0.179890 0.026121 0.813646
0.305245 0.025060 0.814212
0.426302 0.024036 0.814758
0.544494 0.023036 0.815291
0.662686 0.022036 0.815825
0.778012 0.021060 0.816345
0.892623 0.020090 0.816862
1.000000 0.019120 0.817379
0.047560 0.146982 0.814920
0.172915 0.145921 0.815485
0.298270 0.144861 0.816051
0.419327 0.143836 0.816597
0.537518 0.142836 0.817131
0.655710 0.141836 0.817664
0.771037 0.140860 0.818184
0.885647 0.139890 0.818701
1.000000 0.138920 0.819218
0.040584 0.266783 0.816759
0.165939 0.265722 0.817325
0.291294 0.264661 0.817890
0.412351 0.263637 0.818437
0.530543 0.262637 0.818970
0.648735 0.261636 0.819503
0.764061 0.260660 0.820024
0.878672 0.259691 0.820541
0.993282 0.258721 0.821058
0.033712 0.384813 0.818571
0.159067 0.383752 0.819137
0.284422 0.382691 0.819702
0.405479 0.381667 0.820249
0.523670 0.380666 0.820782
0.641862 0.379666 0.821315
0.757189 0.378690 0.821836
0.872724 0.378024 0.821724
0.988809 0.377538 0.821238
0.026908 0.501662 0.820365
0.152263 0.500602 0.820931
0.277618 0.499541 0.821497
0.398715 0.498530 0.822015
0.518428 0.498028 0.821514
0.638142 0.497527 0.821013
0.754953 0.497038 0.820524
0.871038 0.496552 0.820038
0.987124 0.496066 0.819552
0.020477 0.618634 0.821906
0.147446 0.618103 0.821374
0.274414 0.617571 0.820843
0.397029 0.617058 0.820329
0.516743 0.616557 0.819828
0.636456 0.616056 0.819327
0.753267 0.615567 0.818838
0.869352 0.615081 0.818352
0.985438 0.614595 0.817866
0.018832 0.734289 0.820261
0.145801 0.733758 0.819729
0.272769 0.733226 0.819198
0.395384 0.732713 0.818684
0.515098 0.732212 0.818183
0.634811 0.731711 0.817682
0.751622 0.731222 0.817193
0.867707 0.730736 0.816707
0.983793 0.730250 0.816221
0.017197 0.849226 0.818626
0.144166 0.848695 0.818095
0.271134 0.848163 0.817563
0.393750 0.847650 0.817050
0.513463 0.847149 0.816549
0.633176 0.846647 0.816047
0.749987 0.846159 0.815559
0.866073 0.845673 0.815073
0.982158 0.845187 0.814587
0.015563 0.964163 0.816991
0.142531 0.963631 0.816460
0.269500 0.963100 0.815928
0.392115 0.962586 0.815415
0.511828 0.962085 0.814914
0.631541 0.961584 0.814413
0.748352 0.961095 0.813924
0.864438 0.960609 0.813438
0.980523 0.960123 0.812952
0.053869 0.026852 0.929828
0.179224 0.025792 0.930393
0.304579 0.024731 0.930959
0.425636 0.023707 0.931505
0.543828 0.022706 0.932038
0.662020 0.021706 0.932572
0.777346 0.020730 0.933092
0.891957 0.019760 0.933609
1.000000 0.018791 0.934126
0.046894 0.146653 0.931667
0.172249 0.145592 0.932232
0.297603 0.144531 0.932798
0.418661 0.143507 0.933344
0.536852 0.142507 0.933878
0.655044 0.141507 0.934411
0.770371 0.140531 0.934931
0.884981 0.139561 0.935448
0.999591 0.138591 0.935965
0.039918 0.266453 0.933506
0.165273 0.265393 0.934072
0.290628 0.264332 0.934637
0.411685 0.263307 0.935184
0.529877 0.262307 0.935717
0.648069 0.261307 0.936250
0.763395 0.260331 0.936771
0.878005 0.259361 0.937288
0.992616 0.258391 0.937805
0.033046 0.384483 0.935318
0.158401 0.383422 0.935884
0.283756 0.382362 0.936450
0.404813 0.381337 0.936996
0.523004 0.380337 0.937529
0.641196 0.379337 0.938062
0.756523 0.378361 0.938583
0.872559 0.377859 0.938130
0.988644 0.377373 0.937644
0.026242 0.501333 0.937112
0.151597 0.500272 0.937678
0.276952 0.499211 0.938244
0.398550 0.498365 0.938422
0.518263 0.497863 0.937921
0.637977 0.497362 0.937419
0.754788 0.496873 0.936930
0.870873 0.496387 0.936444
0.986959 0.495901 0.935959
0.020312 0.618469 0.938312
0.147281 0.617938 0.937781
0.274249 0.617406 0.937249
0.396864 0.616893 0.936736
0.516578 0.616392 0.936235
0.636291 0.615891 0.935734
0.753102 0.615402 0.935245
0.869187 0.614916 0.934759
0.985273 0.614430 0.934273
0.018667 0.734124 0.936667
0.145636 0.733593 0.936136
0.272604 0.733061 0.935604
0.395219 0.732548 0.935091
0.514933 0.732047 0.934590
0.634646 0.731546 0.934089
0.751457 0.731057 0.933600
0.867542 0.730571 0.933114
0.983628 0.730085 0.932628
0.017032 0.849061 0.935032
0.144001 0.848529 0.934501
0.270969 0.847998 0.933969
0.393585 0.847485 0.933456
0.513298 0.846984 0.932955
0.633011 0.846482 0.932454
0.749822 0.845993 0.931965
0.865908 0.845508 0.931479
0.981993 0.845022 0.930993
0.015398 0.963998 0.933398
0.142366 0.963466 0.932866
0.269335 0.962935 0.932335
0.391950 0.962421 0.931821
0.511663 0.961920 0.931320
0.631376 0.961419 0.930819
0.748187 0.960930 0.930330
0.864273 0.960444 0.929844
0.980358 0.959958 0.929358
