luts/everyday_colour_400.cube
TITLE "Fuji Superia 400"
LUT_3D_SIZE 5
0.059217 0.029491 0.000000
0.309930 0.027372 0.000000
0.549182 0.025351 0.000000
0.782703 0.023377 0.000000
1.000000 0.021440 0.000000
0.045276 0.269102 0.000000
0.295989 0.266983 0.000000
0.535238 0.264959 0.000000
0.768757 0.262982 0.000000
0.997977 0.261043 0.000000
0.031603 0.503984 0.000000
0.282313 0.501863 0.000000
0.521562 0.499838 0.000000
0.756116 0.498202 0.000000
0.988287 0.497230 0.000000
0.019996 0.735453 0.000000
0.273933 0.734390 0.000000
0.516261 0.733375 0.000000
0.752785 0.732385 0.000000
0.984956 0.731413 0.000000
0.016726 0.965326 0.000000
0.270663 0.964263 0.000000
0.512992 0.963249 0.000000
0.749516 0.962259 0.000000
0.981687 0.961287 0.000000
0.057871 0.028831 0.228372
0.308581 0.026710 0.229504
0.547830 0.024685 0.230583
0.781348 0.022709 0.231637
1.000000 0.020769 0.232671
0.043920 0.268432 0.232051
0.294630 0.266311 0.233182
0.533879 0.264286 0.234262
0.767397 0.262310 0.235315
0.996617 0.260370 0.236350
0.030244 0.503312 0.235657
0.280954 0.501190 0.236788
0.520202 0.499166 0.237868
0.755779 0.497865 0.237522
0.987950 0.496893 0.236550
0.019659 0.735116 0.237259
0.273596 0.734053 0.236196
0.515924 0.733038 0.235181
0.752448 0.732048 0.234191
0.984619 0.731076 0.233219
0.016389 0.964989 0.233989
0.270326 0.963926 0.232926
0.512655 0.962912 0.231912
0.749179 0.961922 0.230922
0.981350 0.960950 0.229950
0.056533 0.028170 0.462839
0.307243 0.026048 0.463971
0.546492 0.024024 0.465050
0.780010 0.022048 0.466104
1.000000 0.020108 0.467138
0.042582 0.267771 0.466518
0.293292 0.265649 0.467649
0.532541 0.263625 0.468729
0.766059 0.261649 0.469782
0.995280 0.259709 0.470817
0.028906 0.502650 0.470124
0.279616 0.500529 0.471255
0.518924 0.498524 0.472295
0.755448 0.497533 0.471305
0.987619 0.496562 0.470333
0.019327 0.734784 0.471042
0.273264 0.733721 0.469979
0.515593 0.732707 0.468964
0.752117 0.731717 0.467974
0.984288 0.730745 0.467002
0.016058 0.964658 0.467772
0.269995 0.963595 0.466709
0.512323 0.962580 0.465695
0.748847 0.961590 0.464705
0.981018 0.960618 0.463733
0.055201 0.027511 0.696333
0.305911 0.025390 0.697465
0.545160 0.023365 0.698544
0.778678 0.021389 0.699598
1.000000 0.019449 0.700632
0.041250 0.267112 0.700012
0.291960 0.264990 0.701143
0.531209 0.262966 0.702223
0.764727 0.260990 0.703276
0.993948 0.259050 0.704311
0.027574 0.501992 0.703618
0.278284 0.499870 0.704749
0.518593 0.498193 0.705108
0.755118 0.497203 0.704118
0.987289 0.496231 0.703146
0.018997 0.734454 0.703854
0.272934 0.733391 0.702791
0.515263 0.732377 0.701777
0.751787 0.731387 0.700787
0.983958 0.730415 0.699815
0.015728 0.964328 0.700585
0.269665 0.963265 0.699522
0.511993 0.962250 0.698507
0.748517 0.961260 0.697517
0.980688 0.960288 0.696545
0.053869 0.026852 0.929828
0.304579 0.024731 0.930959
0.543828 0.022706 0.932038
0.777346 0.020730 0.933092
1.000000 0.018791 0.934126
0.039918 0.266453 0.933506
0.290628 0.264332 0.934637
0.529877 0.262307 0.935717
0.763395 0.260331 0.936771
0.992616 0.258391 0.937805
0.026242 0.501333 0.937112
0.276952 0.499211 0.938244
0.518263 0.497863 0.937921
0.754788 0.496873 0.936930
0.986959 0.495901 0.935959
0.018667 0.734124 0.936667
0.272604 0.733061 0.935604
0.514933 0.732047 0.934590
0.751457 0.731057 0.933600
0.983628 0.730085 0.932628
0.015398 0.963998 0.933398
0.269335 0.962935 0.932335
0.511663 0.961920 0.931320
0.748187 0.960930 0.930330
0.980358 0.959958 0.929358
