luts/everyday_colour_400.cube
TITLE "Fuji Superia 400"
LUT_3D_SIZE 33
0.059217 0.029491 0.000000
0.090557 0.029226 0.000000
0.121896 0.028961 0.000000
0.153235 0.028696 0.000000
0.184574 0.028431 0.000000
0.215913 0.028167 0.000000
0.247252 0.027902 0.000000
0.278591 0.027637 0.000000
0.309930 0.027372 0.000000
0.341270 0.027107 0.000000
0.371892 0.026849 0.000000
0.401441 0.026599 0.000000
0.430989 0.026349 0.000000
0.460537 0.026100 0.000000
0.490086 0.025850 0.000000
0.519634 0.025600 0.000000
0.549182 0.025351 0.000000
0.578731 0.025101 0.000000
0.608279 0.024851 0.000000
0.637827 0.024602 0.000000
0.667375 0.024352 0.000000
0.696745 0.024104 0.000000
0.725398 0.023862 0.000000
0.754051 0.023619 0.000000
0.782703 0.023377 0.000000
0.811356 0.023135 0.000000
0.840009 0.022893 0.000000
0.868662 0.022651 0.000000
0.897315 0.022409 0.000000
0.925968 0.022167 0.000000
0.954621 0.021925 0.000000
0.983274 0.021683 0.000000
1.000000 0.021440 0.000000
0.057475 0.059442 0.000000
0.088814 0.059177 0.000000
0.120153 0.058912 0.000000
0.151492 0.058648 0.000000
0.182831 0.058383 0.000000
0.214170 0.058118 0.000000
0.245510 0.057853 0.000000
0.276849 0.057588 0.000000
0.308188 0.057324 0.000000
0.339527 0.057059 0.000000
0.370150 0.056800 0.000000
0.399698 0.056550 0.000000
0.429246 0.056301 0.000000
0.458795 0.056051 0.000000
0.488343 0.055801 0.000000
0.517891 0.055552 0.000000
0.547440 0.055302 0.000000
0.576988 0.055052 0.000000
0.606536 0.054803 0.000000
0.636085 0.054553 0.000000
0.665633 0.054303 0.000000
0.695002 0.054055 0.000000
0.723655 0.053813 0.000000
0.752308 0.053571 0.000000
0.780961 0.053329 0.000000
0.809614 0.053087 0.000000
0.838267 0.052844 0.000000
0.866920 0.052602 0.000000
0.895572 0.052360 0.000000
0.924225 0.052118 0.000000
0.952878 0.051876 0.000000
0.981531 0.051634 0.000000
1.000000 0.051392 0.000000
0.055732 0.089393 0.000000
0.087071 0.089129 0.000000
0.118410 0.088864 0.000000
0.149750 0.088599 0.000000
0.181089 0.088334 0.000000
0.212428 0.088069 0.000000
0.243767 0.087805 0.000000
0.275106 0.087540 0.000000
0.306445 0.087275 0.000000
0.337784 0.087010 0.000000
0.368407 0.086751 0.000000
0.397955 0.086502 0.000000
0.427504 0.086252 0.000000
0.457052 0.086002 0.000000
0.486600 0.085753 0.000000
0.516149 0.085503 0.000000
0.545697 0.085253 0.000000
0.575245 0.085004 0.000000
0.604794 0.084754 0.000000
0.634342 0.084504 0.000000
0.663890 0.084255 0.000000
0.693259 0.084006 0.000000
0.721912 0.083764 0.000000
0.750565 0.083522 0.000000
0.779218 0.083280 0.000000
0.807871 0.083038 0.000000
0.836524 0.082796 0.000000
0.865177 0.082554 0.000000
0.893830 0.082312 0.000000
0.922483 0.082069 0.000000
0.951135 0.081827 0.000000
0.979788 0.081585 0.000000
1.000000 0.081342 0.000000
0.053990 0.119345 0.000000
0.085329 0.119080 0.000000
0.116668 0.118815 0.000000
0.148007 0.118550 0.000000
0.179346 0.118286 0.000000
0.210685 0.118021 0.000000
0.242024 0.117756 0.000000
0.273363 0.117491 0.000000
0.304703 0.117226 0.000000
0.336042 0.116961 0.000000
0.366664 0.116703 0.000000
0.396213 0.116453 0.000000
0.425761 0.116203 0.000000
0.455309 0.115954 0.000000
0.484858 0.115704 0.000000
0.514406 0.115454 0.000000
0.543954 0.115205 0.000000
0.573503 0.114955 0.000000
0.603051 0.114705 0.000000
0.632599 0.114456 0.000000
0.662148 0.114206 0.000000
0.691517 0.113958 0.000000
0.720170 0.113716 0.000000
0.748823 0.113473 0.000000
0.777476 0.113231 0.000000
0.806128 0.112989 0.000000
0.834781 0.112747 0.000000
0.863434 0.112505 0.000000
0.892086 0.112262 0.000000
0.920739 0.112020 0.000000
0.949392 0.111777 0.000000
0.978044 0.111535 0.000000
1.000000 0.111292 0.000000
0.052247 0.149296 0.000000
0.083586 0.149031 0.000000
0.114925 0.148766 0.000000
0.146264 0.148502 0.000000
0.177603 0.148237 0.000000
0.208943 0.147972 0.000000
0.240282 0.147707 0.000000
0.271621 0.147442 0.000000
0.302960 0.147178 0.000000
0.334299 0.146913 0.000000
0.364922 0.146654 0.000000
0.394470 0.146404 0.000000
0.424018 0.146155 0.000000
0.453567 0.145905 0.000000
0.483115 0.145655 0.000000
0.512663 0.145406 0.000000
0.542212 0.145156 0.000000
0.571760 0.144906 0.000000
0.601308 0.144657 0.000000
0.630857 0.144407 0.000000
0.660405 0.144157 0.000000
0.689774 0.143909 0.000000
0.718427 0.143667 0.000000
0.747080 0.143425 0.000000
0.775732 0.143182 0.000000
0.804385 0.142940 0.000000
0.833037 0.142697 0.000000
0.861690 0.142455 0.000000
0.890343 0.142212 0.000000
0.918995 0.141970 0.000000
0.947648 0.141727 0.000000
0.976300 0.141485 0.000000
1.000000 0.141242 0.000000
0.050504 0.179247 0.000000
0.081843 0.178983 0.000000
0.113182 0.178718 0.000000
0.144522 0.178453 0.000000
0.175861 0.178188 0.000000
0.207200 0.177923 0.000000
0.238539 0.177659 0.000000
0.269878 0.177394 0.000000
0.301217 0.177129 0.000000
0.332556 0.176864 0.000000
0.363179 0.176605 0.000000
0.392727 0.176356 0.000000
0.422276 0.176106 0.000000
0.451824 0.175856 0.000000
0.481372 0.175607 0.000000
0.510921 0.175357 0.000000
0.540469 0.175107 0.000000
0.570017 0.174858 0.000000
0.599566 0.174608 0.000000
0.629114 0.174358 0.000000
0.658662 0.174108 0.000000
0.688031 0.173860 0.000000
0.716683 0.173617 0.000000
0.745336 0.173375 0.000000
0.773988 0.173132 0.000000
0.802641 0.172890 0.000000
0.831294 0.172647 0.000000
0.859946 0.172405 0.000000
0.888599 0.172162 0.000000
0.917251 0.171920 0.000000
0.945904 0.171677 0.000000
0.974556 0.171435 0.000000
1.000000 0.171192 0.000000
0.048762 0.209199 0.000000
0.080101 0.208934 0.000000
0.111440 0.208669 0.000000
0.142779 0.208404 0.000000
0.174118 0.208140 0.000000
0.205457 0.207875 0.000000
0.236796 0.207610 0.000000
0.268135 0.207345 0.000000
0.299475 0.207080 0.000000
0.330814 0.206815 0.000000
0.361437 0.206557 0.000000
0.390985 0.206307 0.000000
0.420533 0.206057 0.000000
0.450081 0.205808 0.000000
0.479630 0.205558 0.000000
0.509178 0.205308 0.000000
0.538726 0.205058 0.000000
0.568274 0.204808 0.000000
0.597822 0.204558 0.000000
0.627370 0.204308 0.000000
0.656918 0.204058 0.000000
0.686287 0.203810 0.000000
0.714939 0.203567 0.000000
0.743592 0.203325 0.000000
0.772245 0.203082 0.000000
0.800897 0.202840 0.000000
0.829550 0.202597 0.000000
0.858202 0.202355 0.000000
0.886855 0.202112 0.000000
0.915507 0.201870 0.000000
0.944160 0.201628 0.000000
0.972812 0.201385 0.000000
1.000000 0.201143 0.000000
0.047019 0.239150 0.000000
0.078358 0.238885 0.000000
0.109697 0.238621 0.000000
0.141036 0.238356 0.000000
0.172375 0.238091 0.000000
0.203715 0.237826 0.000000
0.235054 0.237561 0.000000
0.266393 0.237296 0.000000
0.297732 0.237032 0.000000
0.329071 0.236767 0.000000
0.359694 0.236508 0.000000
0.389242 0.236258 0.000000
0.418790 0.236009 0.000000
0.448338 0.235759 0.000000
0.477886 0.235509 0.000000
0.507434 0.235259 0.000000
0.536982 0.235008 0.000000
0.566530 0.234758 0.000000
0.596078 0.234508 0.000000
0.625626 0.234258 0.000000
0.655174 0.234008 0.000000
0.684543 0.233760 0.000000
0.713196 0.233517 0.000000
0.741848 0.233275 0.000000
0.770501 0.233032 0.000000
0.799153 0.232790 0.000000
0.827806 0.232547 0.000000
0.856458 0.232305 0.000000
0.885111 0.232063 0.000000
0.913763 0.231820 0.000000
0.942416 0.231578 0.000000
0.971069 0.231335 0.000000
0.999721 0.231093 0.000000
0.045276 0.269102 0.000000
0.076615 0.268837 0.000000
0.107955 0.268572 0.000000
0.139294 0.268307 0.000000
0.170633 0.268042 0.000000
0.201972 0.267777 0.000000
0.233311 0.267513 0.000000
0.264650 0.267248 0.000000
0.295989 0.266983 0.000000
0.327328 0.266718 0.000000
0.357951 0.266459 0.000000
0.387499 0.266209 0.000000
0.417047 0.265959 0.000000
0.446595 0.265709 0.000000
0.476142 0.265459 0.000000
0.505690 0.265209 0.000000
0.535238 0.264959 0.000000
0.564786 0.264709 0.000000
0.594334 0.264459 0.000000
0.623882 0.264208 0.000000
0.653430 0.263958 0.000000
0.682799 0.263710 0.000000
0.711452 0.263467 0.000000
0.740104 0.263225 0.000000
0.768757 0.262982 0.000000
0.797409 0.262740 0.000000
0.826062 0.262498 0.000000
0.854714 0.262255 0.000000
0.883367 0.262013 0.000000
0.912020 0.261770 0.000000
0.940672 0.261528 0.000000
0.969325 0.261285 0.000000
0.997977 0.261043 0.000000
0.043534 0.299053 0.000000
0.074873 0.298788 0.000000
0.106212 0.298523 0.000000
0.137551 0.298258 0.000000
0.168890 0.297994 0.000000
0.200229 0.297729 0.000000
0.231568 0.297464 0.000000
0.262907 0.297198 0.000000
0.294246 0.296933 0.000000
0.325584 0.296668 0.000000
0.356207 0.296409 0.000000
0.385755 0.296159 0.000000
0.415303 0.295909 0.000000
0.444851 0.295659 0.000000
0.474399 0.295409 0.000000
0.503947 0.295159 0.000000
0.533494 0.294909 0.000000
0.563042 0.294659 0.000000
0.592590 0.294409 0.000000
0.622138 0.294159 0.000000
0.651686 0.293909 0.000000
0.681055 0.293660 0.000000
0.709708 0.293418 0.000000
0.738360 0.293175 0.000000
0.767013 0.292933 0.000000
0.795665 0.292690 0.000000
0.824318 0.292448 0.000000
0.852971 0.292205 0.000000
0.881623 0.291963 0.000000
0.910276 0.291720 0.000000
0.938928 0.291478 0.000000
0.967581 0.291235 0.000000
0.996233 0.290993 0.000000
0.041808 0.328709 0.000000
0.073147 0.328444 0.000000
0.104486 0.328179 0.000000
0.135825 0.327914 0.000000
0.167164 0.327649 0.000000
0.198503 0.327384 0.000000
0.229841 0.327119 0.000000
0.261180 0.326853 0.000000
0.292519 0.326588 0.000000
0.323858 0.326323 0.000000
0.354480 0.326064 0.000000
0.384028 0.325814 0.000000
0.413576 0.325564 0.000000
0.443124 0.325314 0.000000
0.472672 0.325064 0.000000
0.502220 0.324814 0.000000
0.531768 0.324564 0.000000
0.561316 0.324314 0.000000
0.590864 0.324064 0.000000
0.620412 0.323814 0.000000
0.649960 0.323564 0.000000
0.679328 0.323315 0.000000
0.707981 0.323073 0.000000
0.736634 0.322830 0.000000
0.765286 0.322588 0.000000
0.793939 0.322345 0.000000
0.822591 0.322103 0.000000
0.851244 0.321860 0.000000
0.879896 0.321618 0.000000
0.908549 0.321375 0.000000
0.937202 0.321133 0.000000
0.965854 0.320890 0.000000
0.994507 0.320648 0.000000
0.040108 0.357922 0.000000
0.071447 0.357657 0.000000
0.102786 0.357392 0.000000
0.134124 0.357127 0.000000
0.165463 0.356861 0.000000
0.196802 0.356596 0.000000
0.228140 0.356331 0.000000
0.259479 0.356066 0.000000
0.290818 0.355801 0.000000
0.322157 0.355536 0.000000
0.352779 0.355276 0.000000
0.382327 0.355026 0.000000
0.411875 0.354776 0.000000
0.441423 0.354526 0.000000
0.470971 0.354276 0.000000
0.500519 0.354026 0.000000
0.530067 0.353776 0.000000
0.559615 0.353526 0.000000
0.589163 0.353276 0.000000
0.618711 0.353026 0.000000
0.648259 0.352776 0.000000
0.677628 0.352527 0.000000
0.706280 0.352285 0.000000
0.734933 0.352043 0.000000
0.763585 0.351800 0.000000
0.792238 0.351558 0.000000
0.820890 0.351315 0.000000
0.849543 0.351073 0.000000
0.878195 0.350830 0.000000
0.906848 0.350588 0.000000
0.935501 0.350345 0.000000
0.964153 0.350103 0.000000
0.992806 0.349860 0.000000
0.038407 0.387135 0.000000
0.069746 0.386869 0.000000
0.101085 0.386604 0.000000
0.132423 0.386339 0.000000
0.163762 0.386074 0.000000
0.195101 0.385809 0.000000
0.226440 0.385544 0.000000
0.257778 0.385278 0.000000
0.289117 0.385013 0.000000
0.320456 0.384748 0.000000
0.351078 0.384489 0.000000
0.380626 0.384239 0.000000
0.410174 0.383989 0.000000
0.439722 0.383739 0.000000
0.469270 0.383489 0.000000
0.498818 0.383239 0.000000
0.528366 0.382989 0.000000
0.557914 0.382739 0.000000
0.587462 0.382488 0.000000
0.617010 0.382238 0.000000
0.646558 0.381988 0.000000
0.675927 0.381740 0.000000
0.704579 0.381497 0.000000
0.733232 0.381255 0.000000
0.761884 0.381012 0.000000
0.790537 0.380770 0.000000
0.819189 0.380528 0.000000
0.847842 0.380285 0.000000
0.876495 0.380043 0.000000
0.905147 0.379800 0.000000
0.933800 0.379558 0.000000
0.962452 0.379315 0.000000
0.991105 0.379073 0.000000
0.036706 0.416347 0.000000
0.068045 0.416082 0.000000
0.099384 0.415817 0.000000
0.130722 0.415552 0.000000
0.162061 0.415286 0.000000
0.193400 0.415021 0.000000
0.224739 0.414756 0.000000
0.256077 0.414491 0.000000
0.287416 0.414226 0.000000
0.318755 0.413960 0.000000
0.349377 0.413701 0.000000
0.378925 0.413451 0.000000
0.408473 0.413201 0.000000
0.438021 0.412951 0.000000
0.467569 0.412701 0.000000
0.497117 0.412451 0.000000
0.526665 0.412201 0.000000
0.556213 0.411951 0.000000
0.585761 0.411701 0.000000
0.615309 0.411451 0.000000
0.644857 0.411201 0.000000
0.674226 0.410952 0.000000
0.702878 0.410710 0.000000
0.731531 0.410467 0.000000
0.760183 0.410225 0.000000
0.788836 0.409982 0.000000
0.817489 0.409740 0.000000
0.846141 0.409497 0.000000
0.874794 0.409255 0.000000
0.903446 0.409013 0.000000
0.932099 0.408770 0.000000
0.960751 0.408528 0.000122
0.989551 0.408334 0.000151
0.035005 0.445560 0.000000
0.066344 0.445294 0.000000
0.097683 0.445029 0.000000
0.129021 0.444764 0.000000
0.160360 0.444499 0.000000
0.191699 0.444234 0.000000
0.223038 0.443968 0.000000
0.254376 0.443703 0.000000
0.285715 0.443438 0.000000
0.317054 0.443173 0.000000
0.347676 0.442914 0.000000
0.377224 0.442664 0.000000
0.406772 0.442414 0.000000
0.436320 0.442164 0.000000
0.465868 0.441913 0.000000
0.495416 0.441663 0.000000
0.524964 0.441413 0.000000
0.554512 0.441163 0.000000
0.584060 0.440913 0.000000
0.613608 0.440663 0.000000
0.643156 0.440413 0.000000
0.672525 0.440165 0.000000
0.701177 0.439922 0.000000
0.729830 0.439680 0.000000
0.758482 0.439437 0.000000
0.787135 0.439195 0.000000
0.815788 0.438952 0.000000
0.844440 0.438710 0.000054
0.873093 0.438467 0.000183
0.902066 0.438330 0.000094
0.931087 0.438209 0.000000
0.960109 0.438087 0.000000
0.989130 0.437966 0.000000
0.033304 0.474772 0.000000
0.064643 0.474507 0.000000
0.095982 0.474242 0.000000
0.127321 0.473976 0.000000
0.158659 0.473711 0.000000
0.189998 0.473446 0.000000
0.221337 0.473181 0.000000
0.252676 0.472916 0.000000
0.284014 0.472650 0.000000
0.315353 0.472385 0.000000
0.345975 0.472126 0.000000
0.375523 0.471876 0.000000
0.405071 0.471626 0.000000
0.434619 0.471376 0.000000
0.464167 0.471126 0.000000
0.493715 0.470876 0.000000
0.523263 0.470626 0.000000
0.552811 0.470376 0.000000
0.582359 0.470126 0.000000
0.611907 0.469876 0.000000
0.641455 0.469626 0.000000
0.670824 0.469377 0.000000
0.699476 0.469135 0.000000
0.728129 0.468892 0.000000
0.756782 0.468650 0.000114
0.785559 0.468448 0.000159
0.814580 0.468327 0.000037
0.843602 0.468205 0.000000
0.872623 0.468084 0.000000
0.901644 0.467962 0.000000
0.930666 0.467841 0.000000
0.959687 0.467719 0.000000
0.988708 0.467598 0.000000
0.031603 0.503984 0.000000
0.062942 0.503719 0.000000
0.094281 0.503454 0.000000
0.125620 0.503189 0.000000
0.156958 0.502924 0.000000
0.188297 0.502658 0.000000
0.219636 0.502393 0.000000
0.250975 0.502128 0.000000
0.282313 0.501863 0.000000
0.313652 0.501598 0.000000
0.344274 0.501338 0.000000
0.373822 0.501088 0.000000
0.403370 0.500838 0.000000
0.432918 0.500588 0.000000
0.462466 0.500338 0.000000
0.492014 0.500088 0.000000
0.521562 0.499838 0.000000
0.551110 0.499588 0.000000
0.580658 0.499338 0.000000
0.610206 0.499088 0.000000
0.639754 0.498838 0.000043
0.669123 0.498590 0.000175
0.698073 0.498445 0.000102
0.727095 0.498323 0.000000
0.756116 0.498202 0.000000
0.785137 0.498080 0.000000
0.814159 0.497959 0.000000
0.843180 0.497837 0.000000
0.872202 0.497716 0.000000
0.901223 0.497594 0.000000
0.930244 0.497473 0.000000
0.959266 0.497351 0.000000
0.988287 0.497230 0.000000
0.029902 0.533197 0.000000
0.061241 0.532932 0.000000
0.092580 0.532666 0.000000
0.123919 0.532401 0.000000
0.155257 0.532136 0.000000
0.186596 0.531871 0.000000
0.217935 0.531606 0.000000
0.249274 0.531340 0.000000
0.280612 0.531075 0.000000
0.311951 0.530810 0.000000
0.342574 0.530551 0.000000
0.372122 0.530301 0.000000
0.401669 0.530051 0.000000
0.431217 0.529801 0.000000
0.460765 0.529551 0.000000
0.490313 0.529301 0.000000
0.519861 0.529051 0.000000
0.549409 0.528801 0.000091
0.579027 0.528573 0.000177
0.608955 0.528448 0.000052
0.638884 0.528323 0.000000
0.668630 0.528198 0.000000
0.697652 0.528077 0.000000
0.726673 0.527955 0.000000
0.755695 0.527834 0.000000
0.784716 0.527712 0.000000
0.813737 0.527591 0.000000
0.842759 0.527469 0.000000
0.871780 0.527348 0.000000
0.900801 0.527226 0.000000
0.929823 0.527105 0.000000
0.958844 0.526983 0.000000
0.987866 0.526862 0.000000
0.028202 0.562409 0.000000
0.059540 0.562144 0.000000
0.090879 0.561879 0.000000
0.122218 0.561614 0.000000
0.153557 0.561348 0.000000
0.184895 0.561083 0.000000
0.216234 0.560818 0.000000
0.247573 0.560553 0.000000
0.278911 0.560288 0.000000
0.310250 0.560022 0.000000
0.340873 0.559763 0.000000
0.370421 0.559513 0.000000
0.399969 0.559263 0.000000
0.429517 0.559013 0.000006
0.459064 0.558763 0.000140
0.488821 0.558581 0.000131
0.518749 0.558456 0.000006
0.548677 0.558331 0.000000
0.578606 0.558206 0.000000
0.608534 0.558080 0.000000
0.638462 0.557955 0.000000
0.668209 0.557830 0.000000
0.697230 0.557709 0.000000
0.726252 0.557587 0.000000
0.755273 0.557466 0.000000
0.784295 0.557345 0.000000
0.813316 0.557223 0.000000
0.842337 0.557102 0.000000
0.871359 0.556980 0.000000
0.900380 0.556859 0.000000
0.929401 0.556737 0.000000
0.958423 0.556616 0.000000
0.987444 0.556494 0.000000
0.026501 0.591622 0.000000
0.057839 0.591356 0.000000
0.089178 0.591091 0.000000
0.120517 0.590826 0.000000
0.151856 0.590561 0.000000
0.183194 0.590296 0.000000
0.214533 0.590030 0.000000
0.245872 0.589765 0.000000
0.277211 0.589500 0.000000
0.308549 0.589235 0.000000
0.339172 0.588976 0.000055
0.368720 0.588726 0.000188
0.398614 0.588589 0.000086
0.428543 0.588464 0.000000
0.458471 0.588339 0.000000
0.488399 0.588214 0.000000
0.518328 0.588088 0.000000
0.548256 0.587963 0.000000
0.578184 0.587838 0.000000
0.608112 0.587712 0.000000
0.638041 0.587587 0.000000
0.667788 0.587463 0.000000
0.696809 0.587341 0.000000
0.725830 0.587220 0.000000
0.754852 0.587098 0.000000
0.783873 0.586977 0.000000
0.812894 0.586855 0.000000
0.841916 0.586734 0.000000
0.870937 0.586612 0.000000
0.899959 0.586491 0.000000
0.928980 0.586369 0.000000
0.958001 0.586248 0.000000
0.987023 0.586126 0.000000
0.024800 0.620834 0.000000
0.056138 0.620569 0.000000
0.087477 0.620304 0.000000
0.118816 0.620038 0.000000
0.150155 0.619773 0.000000
0.181493 0.619508 0.000000
0.212832 0.619243 0.000000
0.244171 0.618978 0.000082
0.275578 0.618735 0.000178
0.307320 0.618602 0.000045
0.338336 0.618472 0.000000
0.368265 0.618347 0.000000
0.398193 0.618221 0.000000
0.428121 0.618096 0.000000
0.458049 0.617971 0.000000
0.487978 0.617846 0.000000
0.517906 0.617720 0.000000
0.547834 0.617595 0.000000
0.577763 0.617470 0.000000
0.607691 0.617344 0.000000
0.637619 0.617219 0.000000
0.667366 0.617095 0.000000
0.696387 0.616973 0.000000
0.725409 0.616852 0.000000
0.754430 0.616730 0.000000
0.783452 0.616609 0.000000
0.812473 0.616487 0.000000
0.841494 0.616366 0.000000
0.870516 0.616244 0.000000
0.899537 0.616123 0.000000
0.928558 0.616001 0.000000
0.957580 0.615880 0.000000
0.986601 0.615758 0.000000
0.023109 0.649869 0.000000
0.054448 0.649604 0.000000
0.085787 0.649339 0.000000
0.117125 0.649074 0.000000
0.148464 0.648809 0.000104
0.179932 0.648586 0.000157
0.211674 0.648453 0.000024
0.243417 0.648320 0.000000
0.275159 0.648187 0.000000
0.306901 0.648054 0.000000
0.337917 0.647925 0.000000
0.367846 0.647799 0.000000
0.397774 0.647674 0.000000
0.427702 0.647549 0.000000
0.457631 0.647423 0.000000
0.487559 0.647298 0.000000
0.517487 0.647173 0.000000
0.547415 0.647048 0.000000
0.577344 0.646922 0.000000
0.607272 0.646797 0.000000
0.637200 0.646672 0.000000
0.666947 0.646547 0.000000
0.695969 0.646426 0.000000
0.724990 0.646304 0.000000
0.754011 0.646183 0.000000
0.783033 0.646061 0.000000
0.812054 0.645940 0.000000
0.841075 0.645818 0.000000
0.870097 0.645697 0.000000
0.899118 0.645575 0.000000
0.928140 0.645454 0.000000
0.957161 0.645332 0.000000
0.986182 0.645211 0.000000
0.021460 0.678197 0.000000
0.052798 0.677931 0.000115
0.084297 0.677719 0.000147
0.116039 0.677586 0.000014
0.147782 0.677453 0.000000
0.179524 0.677320 0.000000
0.211266 0.677187 0.000000
0.243008 0.677054 0.000000
0.274750 0.676921 0.000000
0.306492 0.676789 0.000000
0.337509 0.676659 0.000000
0.367437 0.676533 0.000000
0.397365 0.676408 0.000000
0.427294 0.676283 0.000000
0.457222 0.676158 0.000000
0.487150 0.676032 0.000000
0.517078 0.675907 0.000000
0.547007 0.675782 0.000000
0.576935 0.675656 0.000000
0.606863 0.675531 0.000000
0.636792 0.675406 0.000000
0.666539 0.675281 0.000000
0.695560 0.675160 0.000000
0.724581 0.675038 0.000000
0.753603 0.674917 0.000000
0.782624 0.674795 0.000000
0.811645 0.674674 0.000000
0.840667 0.674552 0.000000
0.869688 0.674431 0.000000
0.898710 0.674310 0.000000
0.927731 0.674188 0.000000
0.956752 0.674067 0.000000
0.985774 0.673945 0.000000
0.020404 0.706719 0.000004
0.052146 0.706586 0.000000
0.083889 0.706453 0.000000
0.115631 0.706320 0.000000
0.147373 0.706187 0.000000
0.179115 0.706054 0.000000
0.210857 0.705921 0.000000
0.242599 0.705788 0.000000
0.274341 0.705656 0.000000
0.306083 0.705523 0.000000
0.337100 0.705393 0.000000
0.367028 0.705268 0.000000
0.396957 0.705142 0.000000
0.426885 0.705017 0.000000
0.456813 0.704892 0.000000
0.486741 0.704766 0.000000
0.516670 0.704641 0.000000
0.546598 0.704516 0.000000
0.576526 0.704391 0.000000
0.606455 0.704265 0.000000
0.636383 0.704140 0.000000
0.666130 0.704016 0.000000
0.695151 0.703894 0.000000
0.724173 0.703773 0.000000
0.753194 0.703651 0.000000
0.782215 0.703530 0.000000
0.811237 0.703408 0.000000
0.840258 0.703287 0.000000
0.869279 0.703165 0.000000
0.898301 0.703044 0.000000
0.927322 0.702922 0.000000
0.956344 0.702801 0.000000
0.985365 0.702679 0.000000
0.019996 0.735453 0.000000
0.051738 0.735320 0.000000
0.083480 0.735187 0.000000
0.115222 0.735054 0.000000
0.146964 0.734921 0.000000
0.178706 0.734788 0.000000
0.210448 0.734656 0.000000
0.242191 0.734523 0.000000
0.273933 0.734390 0.000000
0.305675 0.734257 0.000000
0.336691 0.734127 0.000000
0.366620 0.734002 0.000000
0.396548 0.733877 0.000000
0.426476 0.733751 0.000000
0.456405 0.733626 0.000000
0.486333 0.733501 0.000000
0.516261 0.733375 0.000000
0.546189 0.733250 0.000000
0.576118 0.733125 0.000000
0.606046 0.733000 0.000000
0.635974 0.732874 0.000000
0.665721 0.732750 0.000000
0.694743 0.732628 0.000000
0.723764 0.732507 0.000000
0.752785 0.732385 0.000000
0.781807 0.732264 0.000000
0.810828 0.732142 0.000000
0.839849 0.732021 0.000000
0.868871 0.731899 0.000000
0.897892 0.731778 0.000000
0.926914 0.731656 0.000000
0.955935 0.731535 0.000000
0.984956 0.731413 0.000000
0.019587 0.764187 0.000000
0.051329 0.764054 0.000000
0.083071 0.763921 0.000000
0.114813 0.763788 0.000000
0.146555 0.763655 0.000000
0.178298 0.763523 0.000000
0.210040 0.763390 0.000000
0.241782 0.763257 0.000000
0.273524 0.763124 0.000000
0.305266 0.762991 0.000000
0.336283 0.762861 0.000000
0.366211 0.762736 0.000000
0.396139 0.762611 0.000000
0.426068 0.762485 0.000000
0.455996 0.762360 0.000000
0.485924 0.762235 0.000000
0.515852 0.762110 0.000000
0.545781 0.761984 0.000000
0.575709 0.761859 0.000000
0.605637 0.761734 0.000000
0.635566 0.761608 0.000000
0.665312 0.761484 0.000000
0.694334 0.761362 0.000000
0.723355 0.761241 0.000000
0.752377 0.761119 0.000000
0.781398 0.760998 0.000000
0.810419 0.760876 0.000000
0.839441 0.760755 0.000000
0.868462 0.760634 0.000000
0.897483 0.760512 0.000000
0.926505 0.760391 0.000000
0.955526 0.760269 0.000000
0.984548 0.760148 0.000000
0.019178 0.792921 0.000000
0.050920 0.792788 0.000000
0.082663 0.792655 0.000000
0.114405 0.792523 0.000000
0.146147 0.792390 0.000000
0.177889 0.792257 0.000000
0.209631 0.792124 0.000000
0.241373 0.791991 0.000000
0.273115 0.791858 0.000000
0.304857 0.791725 0.000000
0.335874 0.791595 0.000000
0.365802 0.791470 0.000000
0.395731 0.791345 0.000000
0.425659 0.791220 0.000000
0.455587 0.791094 0.000000
0.485515 0.790969 0.000000
0.515444 0.790844 0.000000
0.545372 0.790718 0.000000
0.575300 0.790593 0.000000
0.605229 0.790468 0.000000
0.635157 0.790343 0.000000
0.664904 0.790218 0.000000
0.693925 0.790097 0.000000
0.722947 0.789975 0.000000
0.751968 0.789854 0.000000
0.780989 0.789732 0.000000
0.810011 0.789611 0.000000
0.839032 0.789489 0.000000
0.868053 0.789368 0.000000
