luts/instant_print.cube
TITLE "Polaroid 600"
LUT_3D_SIZE 9
0.077357 0.095368 0.166490
0.162437 0.100130 0.168565
0.247517 0.104891 0.170640
0.331178 0.109573 0.172681
0.413895 0.114203 0.174698
0.496611 0.118832 0.176716
0.577752 0.123373 0.178695
0.656530 0.127782 0.180616
0.735307 0.132191 0.182538
0.097894 0.190361 0.173471
0.182974 0.195123 0.175546
0.268053 0.199884 0.177621
0.351715 0.204566 0.179662
0.434432 0.209196 0.181679
0.517148 0.213825 0.183697
0.598289 0.218366 0.185676
0.677066 0.222775 0.187597
0.755844 0.227184 0.189518
0.118431 0.285354 0.180452
0.203510 0.290116 0.182527
0.288590 0.294877 0.184602
0.372252 0.299559 0.186642
0.454968 0.304189 0.188660
0.537685 0.308818 0.190677
0.618825 0.313359 0.192656
0.697603 0.317768 0.194578
0.776380 0.322177 0.196499
0.138625 0.378764 0.187316
0.223705 0.383526 0.189391
0.308784 0.388287 0.191466
0.392446 0.392969 0.193507
0.475163 0.397598 0.195524
0.557879 0.402228 0.197542
0.639020 0.406769 0.199521
0.717797 0.411178 0.201442
0.796575 0.415586 0.203363
0.158591 0.471118 0.194103
0.243671 0.475880 0.196178
0.328751 0.480641 0.198253
0.412412 0.485324 0.200294
0.495129 0.489953 0.202311
0.577845 0.494582 0.204329
0.657653 0.499091 0.208503
0.734200 0.503445 0.214101
0.810746 0.507799 0.219699
0.178557 0.563473 0.200890
0.263637 0.568234 0.202965
0.348717 0.572996 0.205040
0.430149 0.577623 0.210755
0.510522 0.582195 0.216633
0.590896 0.586767 0.222511
0.669739 0.591252 0.228277
0.746286 0.595606 0.233875
0.822832 0.599961 0.239473
0.195555 0.655405 0.212417
0.278226 0.660107 0.218463
0.360896 0.664810 0.224508
0.442188 0.669434 0.230453
0.522562 0.674006 0.236331
0.602936 0.678578 0.242209
0.681779 0.683063 0.247975
0.758325 0.687417 0.253573
0.834872 0.691771 0.259171
0.207526 0.746688 0.232002
0.290196 0.751391 0.238048
0.372866 0.756094 0.244094
0.454159 0.760718 0.250039
0.534532 0.765290 0.255917
0.614906 0.769862 0.261794
0.693749 0.774347 0.267560
0.770296 0.778701 0.273158
0.846842 0.783055 0.278756
0.219496 0.837972 0.251587
0.302167 0.842675 0.257633
0.384837 0.847378 0.263679
0.466129 0.852002 0.269624
0.546503 0.856574 0.275502
0.626877 0.861146 0.281380
0.705720 0.865631 0.287146
0.782266 0.869985 0.292744
0.858813 0.874339 0.298342
0.079661 0.097165 0.255023
0.164741 0.101927 0.257098
0.249820 0.106688 0.259173
0.333482 0.111370 0.261214
0.416198 0.115999 0.263231
0.498915 0.120629 0.265249
0.580056 0.125170 0.267228
0.658833 0.129579 0.269149
0.737611 0.133987 0.271071
0.100198 0.192158 0.262004
0.185277 0.196920 0.264079
0.270357 0.201681 0.266154
0.354019 0.206363 0.268195
0.436735 0.210992 0.270212
0.519451 0.215622 0.272230
0.600592 0.220163 0.274209
0.679370 0.224572 0.276130
0.758147 0.228980 0.278051
0.120734 0.287151 0.268985
0.205814 0.291913 0.271060
0.290894 0.296674 0.273135
0.374555 0.301356 0.275175
0.457272 0.305985 0.277193
0.539988 0.310615 0.279210
0.621129 0.315156 0.281189
0.699906 0.319565 0.283111
0.778684 0.323973 0.285032
0.140929 0.380561 0.275849
0.226008 0.385322 0.277924
0.311088 0.390084 0.279999
0.394750 0.394766 0.282040
0.477466 0.399395 0.284057
0.560182 0.404024 0.286075
0.641323 0.408565 0.288054
0.720101 0.412974 0.289975
0.798878 0.417383 0.291896
0.160895 0.472915 0.282636
0.245974 0.477677 0.284711
0.331054 0.482438 0.286786
0.414716 0.487120 0.288827
0.497432 0.491750 0.290844
0.580149 0.496379 0.292862
0.659048 0.500865 0.298535
0.735594 0.505219 0.304133
0.812141 0.509574 0.309731
0.180861 0.565269 0.289423
0.265941 0.570031 0.291498
0.350251 0.574774 0.294841
0.431543 0.579398 0.300787
0.511917 0.583970 0.306664
0.592291 0.588542 0.312542
0.671133 0.593027 0.318308
0.747680 0.597381 0.323906
0.824226 0.601735 0.329504
0.196950 0.657179 0.302448
0.279620 0.661882 0.308494
0.362290 0.666584 0.314540
0.443582 0.671208 0.320485
0.523956 0.675780 0.326363
0.604330 0.680352 0.332241
0.683173 0.684837 0.338006
0.759719 0.689192 0.343604
0.836266 0.693546 0.349202
0.208920 0.748463 0.322033
0.291590 0.753166 0.328079
0.374261 0.757868 0.334125
0.455553 0.762492 0.340070
0.535927 0.767064 0.345948
0.616301 0.771636 0.351826
0.695143 0.776121 0.357592
0.771690 0.780476 0.363190
0.848236 0.784830 0.368788
0.220891 0.839747 0.341619
0.303561 0.844450 0.347664
0.386231 0.849152 0.353710
0.467523 0.853776 0.359655
0.547897 0.858348 0.365533
0.628271 0.862920 0.371411
0.707114 0.867405 0.377177
0.783660 0.871759 0.382775
0.860207 0.876114 0.388373
0.081964 0.098962 0.343556
0.167044 0.103723 0.345631
0.252124 0.108485 0.347706
0.335786 0.113167 0.349747
0.418502 0.117796 0.351764
0.501218 0.122425 0.353782
0.582359 0.126966 0.355761
0.661137 0.131375 0.357682
0.739914 0.135784 0.359604
0.102501 0.193955 0.350537
0.187581 0.198716 0.352612
0.272661 0.203478 0.354687
0.356322 0.208160 0.356728
0.439039 0.212789 0.358745
0.521755 0.217418 0.360763
0.602896 0.221959 0.362742
0.681673 0.226368 0.364663
0.760451 0.230777 0.366584
0.123038 0.288948 0.357518
0.208117 0.293709 0.359593
0.293197 0.298471 0.361668
0.376859 0.303153 0.363708
0.459575 0.307782 0.365726
0.542292 0.312411 0.367743
0.623432 0.316952 0.369722
0.702210 0.321361 0.371644
0.780987 0.325770 0.373565
0.143232 0.382358 0.364382
0.228312 0.387119 0.366457
0.313391 0.391881 0.368532
0.397053 0.396563 0.370573
0.479770 0.401192 0.372590
0.562486 0.405821 0.374608
0.643627 0.410362 0.376587
0.722404 0.414771 0.378508
0.801182 0.419180 0.380429
0.163198 0.474712 0.371169
0.248278 0.479473 0.373244
0.333358 0.484235 0.375319
0.417019 0.488917 0.377360
0.499736 0.493546 0.379377
0.581599 0.498155 0.382800
0.660442 0.502639 0.388566
0.736989 0.506994 0.394164
0.813535 0.511348 0.399762
0.183164 0.567066 0.377956
0.268244 0.571828 0.380031
0.351645 0.576548 0.384873
0.432937 0.581172 0.390818
0.513311 0.585744 0.396696
0.593685 0.590316 0.402574
0.672528 0.594801 0.408340
0.749074 0.599155 0.413938
0.825621 0.603510 0.419535
0.198344 0.658953 0.392479
0.281014 0.663656 0.398525
0.363684 0.668359 0.404571
0.444977 0.672983 0.410516
0.525351 0.677555 0.416394
0.605724 0.682127 0.422272
0.684567 0.686612 0.428038
0.761114 0.690966 0.433636
0.837660 0.695320 0.439234
0.210315 0.750237 0.412065
0.292985 0.754940 0.418110
0.375655 0.759643 0.424156
0.456947 0.764267 0.430101
0.537321 0.768839 0.435979
0.617695 0.773411 0.441857
0.696538 0.777896 0.447623
0.773084 0.782250 0.453221
0.849631 0.786604 0.458819
0.222285 0.841521 0.431650
0.304955 0.846224 0.437696
0.387625 0.850927 0.443741
0.468918 0.855551 0.449687
0.549292 0.860123 0.455564
0.629665 0.864695 0.461442
0.708508 0.869180 0.467208
0.785055 0.873534 0.472806
0.861601 0.877888 0.478404
0.084061 0.100597 0.424121
0.169140 0.105358 0.426196
0.254220 0.110120 0.428271
0.337882 0.114802 0.430312
0.420598 0.119431 0.432329
0.503315 0.124060 0.434347
0.584455 0.128601 0.436326
0.663233 0.133010 0.438247
0.742010 0.137419 0.440169
0.104597 0.195590 0.431102
0.189677 0.200351 0.433177
0.274757 0.205113 0.435252
0.358418 0.209795 0.437293
0.441135 0.214424 0.439310
0.523851 0.219053 0.441328
0.604992 0.223594 0.443307
0.683770 0.228003 0.445228
0.762547 0.232412 0.447149
0.125134 0.290583 0.438083
0.210214 0.295344 0.440158
0.295293 0.300106 0.442233
0.378955 0.304788 0.444273
0.461671 0.309417 0.446291
0.544388 0.314046 0.448308
0.625529 0.318587 0.450287
0.704306 0.322996 0.452209
0.783084 0.327405 0.454130
0.145328 0.383993 0.444947
0.230408 0.388754 0.447022
0.315488 0.393516 0.449097
0.399149 0.398198 0.451138
0.481866 0.402827 0.453155
0.564582 0.407456 0.455173
0.645723 0.411997 0.457152
0.724501 0.416406 0.459073
0.802718 0.420801 0.461917
0.165294 0.476347 0.451734
0.250374 0.481108 0.453809
0.335454 0.485870 0.455884
0.419116 0.490552 0.457925
0.501832 0.495181 0.459942
0.582868 0.499769 0.464729
0.661711 0.504254 0.470494
0.738257 0.508609 0.476092
0.814804 0.512963 0.481690
0.185261 0.568701 0.458521
0.270244 0.573460 0.460755
0.352914 0.578163 0.466801
0.434206 0.582787 0.472746
0.514580 0.587359 0.478624
0.594954 0.591931 0.484502
0.673797 0.596416 0.490268
0.750343 0.600770 0.495866
0.826890 0.605124 0.501464
0.199613 0.660568 0.474408
0.282283 0.665271 0.480454
0.364953 0.669973 0.486500
0.446246 0.674598 0.492445
0.526619 0.679170 0.498322
0.606993 0.683742 0.504200
0.685836 0.688227 0.509966
0.762383 0.692581 0.515564
0.838929 0.696935 0.521162
0.211583 0.751852 0.493993
0.294254 0.756555 0.500039
0.376924 0.761257 0.506085
0.458216 0.765882 0.512030
0.538590 0.770454 0.517908
0.618964 0.775026 0.523786
0.697807 0.779511 0.529551
0.774353 0.783865 0.535149
0.850900 0.788219 0.540747
0.223554 0.843136 0.513578
0.306224 0.847839 0.519624
0.388894 0.852541 0.525670
0.470187 0.857166 0.531615
0.550560 0.861738 0.537493
0.630934 0.866310 0.543371
0.709777 0.870794 0.549137
0.786324 0.875149 0.554735
0.862870 0.879503 0.560333
0.086019 0.102124 0.499374
0.171098 0.106885 0.501449
0.256178 0.111647 0.503525
0.339840 0.116329 0.505565
0.422556 0.120958 0.507582
0.505273 0.125588 0.509600
0.586413 0.130129 0.511579
0.665191 0.134537 0.513500
0.743968 0.138946 0.515422
0.106555 0.197117 0.506355
0.191635 0.201878 0.508430
0.276715 0.206640 0.510505
0.360376 0.211322 0.512546
0.443093 0.215951 0.514563
0.525809 0.220581 0.516581
0.606950 0.225122 0.518560
0.685728 0.229530 0.520481
0.764505 0.233939 0.522402
0.127092 0.292110 0.513336
0.212172 0.296871 0.515411
0.297251 0.301633 0.517486
0.380913 0.306315 0.519527
0.463629 0.310944 0.521544
0.546346 0.315574 0.523561
0.627487 0.320115 0.525540
0.706264 0.324523 0.527462
0.785042 0.328932 0.529383
0.147286 0.385520 0.520200
0.232366 0.390281 0.522275
0.317446 0.395043 0.524350
0.401107 0.399725 0.526391
0.483824 0.404354 0.528408
0.566540 0.408983 0.530426
0.647681 0.413524 0.532405
0.726459 0.417933 0.534326
0.803904 0.422309 0.538443
0.167252 0.477874 0.526987
0.252332 0.482636 0.529062
0.337412 0.487397 0.531137
0.421074 0.492079 0.533178
0.503679 0.496706 0.535377
0.584053 0.501278 0.541255
0.662896 0.505763 0.547021
0.739443 0.510117 0.552619
0.815989 0.514471 0.558217
0.187219 0.570228 0.533774
0.271429 0.574969 0.537282
0.354099 0.579671 0.543328
0.435391 0.584295 0.549273
0.515765 0.588867 0.555151
0.596139 0.593439 0.561029
0.674982 0.597924 0.566795
0.751528 0.602279 0.572393
0.828075 0.606633 0.577991
0.200798 0.662077 0.550935
0.283468 0.666779 0.556980
0.366138 0.671482 0.563026
0.447431 0.676106 0.568971
0.527805 0.680678 0.574849
0.608178 0.685250 0.580727
0.687021 0.689735 0.586493
0.763568 0.694089 0.592091
0.840114 0.698443 0.597689
0.212769 0.753361 0.570520
0.295439 0.758063 0.576566
0.378109 0.762766 0.582611
0.459401 0.767390 0.588556
0.539775 0.771962 0.594434
0.620149 0.776534 0.600312
0.698992 0.781019 0.606078
0.775538 0.785373 0.611676
0.852085 0.789727 0.617274
0.224739 0.844644 0.590105
0.307409 0.849347 0.596151
0.390079 0.854050 0.602197
0.471372 0.858674 0.608142
0.551746 0.863246 0.614020
0.632119 0.867818 0.619897
0.710962 0.872303 0.625663
0.787509 0.876657 0.631261
0.864055 0.881011 0.636859
0.087977 0.103651 0.574627
0.173056 0.108413 0.576703
0.258136 0.113174 0.578778
0.341798 0.117856 0.580818
0.424514 0.122485 0.582836
0.507231 0.127115 0.584853
0.588371 0.131656 0.586832
0.667149 0.136065 0.588753
0.745926 0.140473 0.590675
0.108513 0.198644 0.581608
0.193593 0.203406 0.583683
0.278673 0.208167 0.585758
0.362334 0.212849 0.587799
0.445051 0.217478 0.589816
0.527767 0.222108 0.591834
0.608908 0.226649 0.593813
0.687686 0.231058 0.595734
0.766463 0.235466 0.597656
0.129050 0.293637 0.588589
0.214130 0.298399 0.590664
0.299209 0.303160 0.592739
0.382871 0.307842 0.594780
0.465587 0.312471 0.596797
0.548304 0.317101 0.598814
0.629445 0.321642 0.600793
0.708222 0.326051 0.602715
0.787000 0.330459 0.604636
0.149244 0.387047 0.595453
0.234324 0.391808 0.597528
0.319404 0.396570 0.599603
0.403065 0.401252 0.601644
0.485782 0.405881 0.603661
0.568498 0.410511 0.605679
0.649639 0.415052 0.607658
0.728417 0.419460 0.609579
0.805089 0.423818 0.614970
0.169210 0.479401 0.602240
0.254290 0.484163 0.604315
0.339370 0.488924 0.606390
0.423032 0.493606 0.608431
0.504865 0.498214 0.611904
0.585238 0.502786 0.617782
0.664081 0.507271 0.623548
0.740628 0.511625 0.629146
0.817174 0.515979 0.634744
0.189177 0.571756 0.609027
0.272614 0.576477 0.613809
0.355284 0.581179 0.619855
0.436576 0.585804 0.625800
0.516950 0.590376 0.631677
0.597324 0.594948 0.637555
0.676167 0.599433 0.643321
0.752713 0.603787 0.648919
0.829260 0.608141 0.654517
0.201983 0.663585 0.627461
0.284653 0.668287 0.633507
0.367324 0.672990 0.639553
0.448616 0.677614 0.645498
0.528990 0.682186 0.651376
0.609364 0.686758 0.657254
0.688207 0.691243 0.663019
0.764753 0.695597 0.668617
0.841300 0.699952 0.674215
0.213954 0.754869 0.647046
0.296624 0.759571 0.653092
0.379294 0.764274 0.659138
0.460587 0.768898 0.665083
0.540960 0.773470 0.670961
0.621334 0.778042 0.676839
0.700177 0.782527 0.682605
0.776724 0.786881 0.688203
0.853270 0.791236 0.693801
0.225924 0.846153 0.666632
0.308594 0.850855 0.672677
0.391265 0.855558 0.678723
0.472557 0.860182 0.684668
0.552931 0.864754 0.690546
0.633305 0.869326 0.696424
0.712148 0.873811 0.702190
0.788694 0.878165 0.707788
0.865241 0.882520 0.713386
0.089919 0.105166 0.649290
0.174999 0.109928 0.651365
0.260079 0.114689 0.653440
0.343740 0.119371 0.655481
0.426457 0.124001 0.657498
0.509173 0.128630 0.659516
0.590314 0.133171 0.661495
0.669092 0.137580 0.663416
0.747869 0.141989 0.665338
0.110456 0.200159 0.656271
0.195536 0.204921 0.658346
0.280615 0.209682 0.660421
0.364277 0.214364 0.662462
0.446994 0.218994 0.664479
0.529710 0.223623 0.666497
0.610851 0.228164 0.668476
0.689628 0.232573 0.670397
0.768406 0.236982 0.672318
0.130993 0.295152 0.663252
0.216072 0.299914 0.665327
0.301152 0.304675 0.667402
0.384814 0.309357 0.669442
0.467530 0.313987 0.671460
0.550247 0.318616 0.673477
0.631387 0.323157 0.675456
0.710165 0.327566 0.677378
0.788942 0.331975 0.679299
0.151187 0.388562 0.670116
0.236267 0.393324 0.672191
0.321346 0.398085 0.674266
0.405008 0.402767 0.676307
0.487724 0.407396 0.678324
0.570441 0.412026 0.680342
0.651582 0.416567 0.682321
0.729718 0.420960 0.685299
0.806265 0.425314 0.690897
0.171153 0.480916 0.676903
0.256233 0.485678 0.678978
0.341313 0.490439 0.681053
0.424974 0.495122 0.683094
0.506041 0.499710 0.687830
0.586414 0.504282 0.693708
0.665257 0.508767 0.699474
0.741804 0.513122 0.705072
0.818350 0.517476 0.710670
0.191119 0.573271 0.683690
0.273790 0.577973 0.689735
0.356460 0.582676 0.695781
0.437752 0.587300 0.701726
0.518126 0.591872 0.707604
0.598500 0.596444 0.713482
0.677343 0.600929 0.719248
0.753889 0.605283 0.724846
0.830436 0.609638 0.730444
0.203159 0.665081 0.703388
0.285829 0.669784 0.709433
0.368500 0.674487 0.715479
0.449792 0.679111 0.721424
0.530166 0.683683 0.727302
0.610540 0.688255 0.733180
0.689382 0.692740 0.738946
0.765929 0.697094 0.744544
0.842475 0.701448 0.750142
0.215130 0.756365 0.722973
0.297800 0.761068 0.729019
0.380470 0.765771 0.735064
0.461762 0.770395 0.741009
0.542136 0.774967 0.746887
0.622510 0.779539 0.752765
0.701353 0.784024 0.758531
0.777899 0.788378 0.764129
0.854446 0.792732 0.769727
0.227100 0.847649 0.742558
0.309770 0.852352 0.748604
0.392441 0.857054 0.754650
0.473733 0.861679 0.760595
0.554107 0.866251 0.766473
0.634481 0.870823 0.772350
0.713323 0.875308 0.778116
0.789870 0.879662 0.783714
0.866416 0.884016 0.789312
0.091839 0.106664 0.723068
0.176919 0.111425 0.725143
0.261998 0.116187 0.727218
0.345660 0.120869 0.729258
0.428376 0.125498 0.731276
0.511093 0.130127 0.733293
0.592234 0.134668 0.735272
0.671011 0.139077 0.737194
0.749789 0.143486 0.739115
0.112376 0.201657 0.730049
0.197455 0.206418 0.732124
0.282535 0.211180 0.734199
0.366197 0.215862 0.736239
0.448913 0.220491 0.738257
0.531630 0.225120 0.740274
0.612770 0.229661 0.742253
0.691548 0.234070 0.744174
0.770325 0.238479 0.746096
0.132912 0.296650 0.737029
0.217992 0.301411 0.739104
0.303072 0.306173 0.741179
0.386733 0.310855 0.743220
0.469450 0.315484 0.745237
0.552166 0.320113 0.747255
0.633307 0.324654 0.749234
0.712084 0.329063 0.751155
0.790862 0.333472 0.753077
0.153107 0.390059 0.743894
0.238186 0.394821 0.745969
0.323266 0.399582 0.748044
0.406928 0.404265 0.750084
0.489644 0.408894 0.752102
0.572360 0.413523 0.754119
0.653501 0.418064 0.756098
0.730880 0.422439 0.760325
0.807427 0.426793 0.765923
0.173073 0.482414 0.750680
0.258152 0.487175 0.752756
0.343232 0.491937 0.754831
0.426829 0.496617 0.756979
0.507203 0.501189 0.762856
0.587576 0.505761 0.768734
0.666419 0.510246 0.774500
0.742966 0.514600 0.780098
0.819512 0.518955 0.785696
0.192282 0.574749 0.758715
0.274952 0.579452 0.764761
0.357622 0.584155 0.770807
0.438914 0.588779 0.776752
0.519288 0.593351 0.782630
0.599662 0.597923 0.788508
0.678505 0.602408 0.794274
0.755051 0.606762 0.799872
0.831598 0.611116 0.805470
0.204321 0.666560 0.778414
0.286991 0.671263 0.784459
0.369662 0.675965 0.790505
0.450954 0.680590 0.796450
0.531328 0.685161 0.802328
0.611702 0.689733 0.808206
0.690544 0.694218 0.813972
0.767091 0.698573 0.819570
0.843637 0.702927 0.825168
0.216292 0.757844 0.797999
0.298962 0.762547 0.804045
0.381632 0.767249 0.810091
0.462924 0.771873 0.816036
0.543298 0.776445 0.821913
0.623672 0.781017 0.827791
0.702515 0.785502 0.833557
0.779061 0.789857 0.839155
0.855608 0.794211 0.844753
0.228262 0.849128 0.817584
0.310932 0.853831 0.823630
0.393603 0.858533 0.829676
0.474895 0.863157 0.835621
0.555269 0.867729 0.841499
0.635643 0.872301 0.847377
0.714485 0.876786 0.853142
0.791032 0.881141 0.858740
0.867578 0.885495 0.864338
0.093315 0.107717 0.774617
0.178449 0.112533 0.779433
0.263584 0.117350 0.784250
0.347299 0.122086 0.788986
0.430069 0.126768 0.793668
0.512838 0.131450 0.798350
0.594031 0.136044 0.802944
0.672860 0.140503 0.807403
0.751688 0.144963 0.811863
0.114036 0.202894 0.790819
0.199170 0.207710 0.795635
0.284304 0.212527 0.800452
0.368020 0.217263 0.805188
0.450790 0.221945 0.809870
0.533549 0.226617 0.814052
0.614690 0.231159 0.816031
0.693467 0.235567 0.817952
0.772245 0.239976 0.819873
0.134756 0.298071 0.807021
0.219891 0.302887 0.811837
0.304991 0.307670 0.814957
0.388653 0.312352 0.816997
0.471369 0.316981 0.819015
0.554086 0.321610 0.821032
0.635227 0.326152 0.823011
0.714004 0.330560 0.824933
0.792782 0.334969 0.826854
0.155026 0.391557 0.817671
0.240106 0.396318 0.819746
0.325186 0.401080 0.821821
0.408847 0.405762 0.823862
0.491564 0.410391 0.825879
0.574280 0.415020 0.827897
0.655421 0.419561 0.829876
0.732042 0.423917 0.835351
0.808589 0.428272 0.840949
0.174992 0.483911 0.824458
0.260072 0.488672 0.826533
0.345152 0.493434 0.828608
0.427991 0.498096 0.832005
0.508364 0.502668 0.837883
0.588738 0.507240 0.843760
0.667581 0.511725 0.849526
0.744128 0.516079 0.855124
0.820674 0.520433 0.860722
0.193443 0.576228 0.833742
0.276114 0.580931 0.839787
0.358784 0.585633 0.845833
0.440076 0.590258 0.851778
0.520450 0.594830 0.857656
0.600824 0.599402 0.863534
0.679667 0.603887 0.869300
0.756213 0.608241 0.874898
0.832760 0.612595 0.880496
0.205483 0.668039 0.853440
0.288153 0.672741 0.859486
0.370823 0.677444 0.865531
0.452116 0.682068 0.871476
0.532490 0.686640 0.877354
0.612863 0.691212 0.883232
0.691706 0.695697 0.888998
0.768253 0.700051 0.894596
0.844799 0.704406 0.900194
0.217454 0.759323 0.873025
0.300124 0.764025 0.879071
0.382794 0.768728 0.885117
0.464086 0.773352 0.891062
0.544460 0.777924 0.896940
0.624834 0.782496 0.902817
0.703677 0.786981 0.908583
0.780223 0.791335 0.914181
0.856770 0.795690 0.919779
0.229424 0.850607 0.892610
0.312094 0.855309 0.898656
0.394764 0.860012 0.904702
0.476057 0.864636 0.910647
0.556431 0.869208 0.916525
0.636804 0.873780 0.922403
0.715632 0.878249 0.927389
0.792153 0.882578 0.931718
0.868674 0.886907 0.936047
