luts/instant_print.cube
TITLE "Polaroid 600"
LUT_3D_SIZE 33
0.077357 0.095368 0.166490
0.098627 0.096559 0.167009
0.119897 0.097749 0.167528
0.141167 0.098939 0.168047
0.162437 0.100130 0.168565
0.183707 0.101320 0.169084
0.204977 0.102511 0.169603
0.226247 0.103701 0.170122
0.247517 0.104891 0.170640
0.268787 0.106082 0.171159
0.289820 0.107259 0.171672
0.310499 0.108416 0.172177
0.331178 0.109573 0.172681
0.351858 0.110731 0.173185
0.372537 0.111888 0.173690
0.393216 0.113045 0.174194
0.413895 0.114203 0.174698
0.434574 0.115360 0.175203
0.455253 0.116517 0.175707
0.475932 0.117675 0.176211
0.496611 0.118832 0.176716
0.517290 0.119989 0.177220
0.537969 0.121147 0.177725
0.558058 0.122271 0.178214
0.577752 0.123373 0.178695
0.597446 0.124475 0.179175
0.617141 0.125577 0.179656
0.636835 0.126680 0.180136
0.656530 0.127782 0.180616
0.676224 0.128884 0.181097
0.695918 0.129986 0.181577
0.715613 0.131088 0.182057
0.735307 0.132191 0.182538
0.082492 0.119117 0.168235
0.103761 0.120307 0.168754
0.125031 0.121497 0.169273
0.146301 0.122688 0.169792
0.167571 0.123878 0.170311
0.188841 0.125068 0.170829
0.210111 0.126259 0.171348
0.231381 0.127449 0.171867
0.252651 0.128640 0.172386
0.273921 0.129830 0.172904
0.294954 0.131007 0.173417
0.315634 0.132164 0.173922
0.336313 0.133322 0.174426
0.356992 0.134479 0.174930
0.377671 0.135636 0.175435
0.398350 0.136794 0.175939
0.419029 0.137951 0.176444
0.439708 0.139108 0.176948
0.460387 0.140266 0.177452
0.481066 0.141423 0.177957
0.501745 0.142580 0.178461
0.522425 0.143738 0.178965
0.543104 0.144895 0.179470
0.563192 0.146019 0.179960
0.582886 0.147121 0.180440
0.602581 0.148223 0.180920
0.622275 0.149326 0.181401
0.641969 0.150428 0.181881
0.661664 0.151530 0.182361
0.681358 0.152632 0.182842
0.701053 0.153734 0.183322
0.720747 0.154837 0.183802
0.740441 0.155939 0.184283
0.087626 0.142865 0.169981
0.108896 0.144055 0.170499
0.130166 0.145246 0.171018
0.151435 0.146436 0.171537
0.172705 0.147626 0.172056
0.193975 0.148817 0.172574
0.215245 0.150007 0.173093
0.236515 0.151197 0.173612
0.257785 0.152388 0.174131
0.279055 0.153578 0.174650
0.300089 0.154755 0.175163
0.320768 0.155913 0.175667
0.341447 0.157070 0.176171
0.362126 0.158227 0.176676
0.382805 0.159385 0.177180
0.403484 0.160542 0.177684
0.424163 0.161699 0.178189
0.444842 0.162857 0.178693
0.465521 0.164014 0.179197
0.486200 0.165171 0.179702
0.506880 0.166328 0.180206
0.527559 0.167486 0.180711
0.548238 0.168643 0.181215
0.568326 0.169767 0.181705
0.588020 0.170870 0.182185
0.607715 0.171972 0.182666
0.627409 0.173074 0.183146
0.647104 0.174176 0.183626
0.666798 0.175278 0.184107
0.686492 0.176381 0.184587
0.706187 0.177483 0.185067
0.725881 0.178585 0.185548
0.745575 0.179687 0.186028
0.092760 0.166613 0.171726
0.114030 0.167803 0.172245
0.135300 0.168994 0.172763
0.156570 0.170184 0.173282
0.177840 0.171375 0.173801
0.199109 0.172565 0.174320
0.220379 0.173755 0.174838
0.241649 0.174946 0.175357
0.262919 0.176136 0.175876
0.284189 0.177326 0.176395
0.305223 0.178504 0.176908
0.325902 0.179661 0.177412
0.346581 0.180818 0.177916
0.367260 0.181976 0.178421
0.387939 0.183133 0.178925
0.408618 0.184290 0.179430
0.429297 0.185447 0.179934
0.449976 0.186605 0.180438
0.470656 0.187762 0.180943
0.491335 0.188919 0.181447
0.512014 0.190077 0.181951
0.532693 0.191234 0.182456
0.553372 0.192391 0.182960
0.573460 0.193516 0.183450
0.593155 0.194618 0.183930
0.612849 0.195720 0.184411
0.632543 0.196822 0.184891
0.652238 0.197924 0.185371
0.671932 0.199027 0.185852
0.691626 0.200129 0.186332
0.711321 0.201231 0.186812
0.731015 0.202333 0.187293
0.750710 0.203435 0.187773
0.097894 0.190361 0.173471
0.119164 0.191552 0.173990
0.140434 0.192742 0.174509
0.161704 0.193932 0.175027
0.182974 0.195123 0.175546
0.204244 0.196313 0.176065
0.225514 0.197504 0.176584
0.246783 0.198694 0.177102
0.268053 0.199884 0.177621
0.289323 0.201075 0.178140
0.310357 0.202252 0.178653
0.331036 0.203409 0.179157
0.351715 0.204566 0.179662
0.372394 0.205724 0.180166
0.393073 0.206881 0.180670
0.413752 0.208038 0.181175
0.434432 0.209196 0.181679
0.455111 0.210353 0.182183
0.475790 0.211510 0.182688
0.496469 0.212668 0.183192
0.517148 0.213825 0.183697
0.537827 0.214982 0.184201
0.558506 0.216140 0.184705
0.578594 0.217264 0.185195
0.598289 0.218366 0.185676
0.617983 0.219468 0.186156
0.637677 0.220570 0.186636
0.657372 0.221673 0.187117
0.677066 0.222775 0.187597
0.696761 0.223877 0.188077
0.716455 0.224979 0.188558
0.736149 0.226081 0.189038
0.755844 0.227184 0.189518
0.103028 0.214110 0.175216
0.124298 0.215300 0.175735
0.145568 0.216490 0.176254
0.166838 0.217681 0.176772
0.188108 0.218871 0.177291
0.209378 0.220061 0.177810
0.230648 0.221252 0.178329
0.251918 0.222442 0.178848
0.273188 0.223633 0.179366
0.294458 0.224823 0.179885
0.315491 0.226000 0.180398
0.336170 0.227157 0.180902
0.356849 0.228315 0.181407
0.377528 0.229472 0.181911
0.398207 0.230629 0.182416
0.418887 0.231787 0.182920
0.439566 0.232944 0.183424
0.460245 0.234101 0.183929
0.480924 0.235259 0.184433
0.501603 0.236416 0.184937
0.522282 0.237573 0.185442
0.542961 0.238731 0.185946
0.563640 0.239888 0.186450
0.583729 0.241012 0.186940
0.603423 0.242114 0.187421
0.623117 0.243216 0.187901
0.642812 0.244319 0.188381
0.662506 0.245421 0.188862
0.682200 0.246523 0.189342
0.701895 0.247625 0.189822
0.721589 0.248727 0.190303
0.741284 0.249830 0.190783
0.760978 0.250932 0.191264
0.108162 0.237858 0.176961
0.129432 0.239048 0.177480
0.150702 0.240239 0.177999
0.171972 0.241429 0.178518
0.193242 0.242619 0.179036
0.214512 0.243810 0.179555
0.235782 0.245000 0.180074
0.257052 0.246190 0.180593
0.278322 0.247381 0.181112
0.299592 0.248571 0.181630
0.320625 0.249748 0.182143
0.341304 0.250906 0.182648
0.361983 0.252063 0.183152
0.382663 0.253220 0.183656
0.403342 0.254378 0.184161
0.424021 0.255535 0.184665
0.444700 0.256692 0.185169
0.465379 0.257850 0.185674
0.486058 0.259007 0.186178
0.506737 0.260164 0.186683
0.527416 0.261321 0.187187
0.548095 0.262479 0.187691
0.568774 0.263636 0.188196
0.588863 0.264760 0.188686
0.608557 0.265863 0.189166
0.628251 0.266965 0.189646
0.647946 0.268067 0.190127
0.667640 0.269169 0.190607
0.687335 0.270271 0.191087
0.707029 0.271374 0.191568
0.726723 0.272476 0.192048
0.746418 0.273578 0.192528
0.766112 0.274680 0.193009
0.113296 0.261606 0.178707
0.134566 0.262796 0.179225
0.155836 0.263987 0.179744
0.177106 0.265177 0.180263
0.198376 0.266368 0.180782
0.219646 0.267558 0.181300
0.240916 0.268748 0.181819
0.262186 0.269939 0.182338
0.283456 0.271129 0.182857
0.304726 0.272319 0.183375
0.325759 0.273497 0.183888
0.346439 0.274654 0.184393
0.367118 0.275811 0.184897
0.387797 0.276969 0.185402
0.408476 0.278126 0.185906
0.429155 0.279283 0.186410
0.449834 0.280440 0.186915
0.470513 0.281598 0.187419
0.491192 0.282755 0.187923
0.511871 0.283912 0.188428
0.532550 0.285070 0.188932
0.553229 0.286227 0.189436
0.573909 0.287384 0.189941
0.593997 0.288509 0.190431
0.613691 0.289611 0.190911
0.633386 0.290713 0.191391
0.653080 0.291815 0.191872
0.672774 0.292917 0.192352
0.692469 0.294020 0.192833
0.712163 0.295122 0.193313
0.731857 0.296224 0.193793
0.751552 0.297326 0.194274
0.771246 0.298428 0.194754
0.118431 0.285354 0.180452
0.139701 0.286545 0.180970
0.160970 0.287735 0.181489
0.182240 0.288925 0.182008
0.203510 0.290116 0.182527
0.224780 0.291306 0.183046
0.246050 0.292497 0.183564
0.267320 0.293687 0.184083
0.288590 0.294877 0.184602
0.309860 0.296068 0.185121
0.330894 0.297245 0.185634
0.351573 0.298402 0.186138
0.372252 0.299559 0.186642
0.392931 0.300717 0.187147
0.413610 0.301874 0.187651
0.434289 0.303031 0.188155
0.454968 0.304189 0.188660
0.475647 0.305346 0.189164
0.496326 0.306503 0.189669
0.517005 0.307661 0.190173
0.537685 0.308818 0.190677
0.558364 0.309975 0.191182
0.579043 0.311133 0.191686
0.599131 0.312257 0.192176
0.618825 0.313359 0.192656
0.638520 0.314461 0.193137
0.658214 0.315563 0.193617
0.677908 0.316666 0.194097
0.697603 0.317768 0.194578
0.717297 0.318870 0.195058
0.736992 0.319972 0.195538
0.756686 0.321074 0.196019
0.776380 0.322177 0.196499
0.123565 0.309103 0.182197
0.144835 0.310293 0.182716
0.166105 0.311483 0.183234
0.187375 0.312674 0.183753
0.208644 0.313864 0.184272
0.229914 0.315054 0.184791
0.251184 0.316245 0.185310
0.272454 0.317435 0.185828
0.293724 0.318626 0.186347
0.314994 0.319816 0.186866
0.336028 0.320993 0.187379
0.356707 0.322150 0.187883
0.377386 0.323308 0.188388
0.398065 0.324465 0.188892
0.418744 0.325622 0.189396
0.439423 0.326780 0.189901
0.460102 0.327937 0.190405
0.480781 0.329094 0.190909
0.501460 0.330252 0.191414
0.522140 0.331409 0.191918
0.542819 0.332566 0.192422
0.563498 0.333724 0.192927
0.584177 0.334881 0.193431
0.604265 0.336005 0.193921
0.623960 0.337107 0.194401
0.643654 0.338209 0.194882
0.663348 0.339312 0.195362
0.683043 0.340414 0.195843
0.702737 0.341516 0.196323
0.722431 0.342618 0.196803
0.742126 0.343720 0.197284
0.761820 0.344823 0.197764
0.781515 0.345925 0.198244
0.128642 0.332587 0.183923
0.149912 0.333777 0.184441
0.171182 0.334968 0.184960
0.192452 0.336158 0.185479
0.213722 0.337348 0.185998
0.234992 0.338539 0.186517
0.256261 0.339729 0.187035
0.277531 0.340920 0.187554
0.298801 0.342110 0.188073
0.320071 0.343300 0.188592
0.341105 0.344477 0.189105
0.361784 0.345635 0.189609
0.382463 0.346792 0.190113
0.403142 0.347949 0.190618
0.423821 0.349107 0.191122
0.444500 0.350264 0.191626
0.465179 0.351421 0.192131
0.485859 0.352579 0.192635
0.506538 0.353736 0.193140
0.527217 0.354893 0.193644
0.547896 0.356051 0.194148
0.568575 0.357208 0.194653
0.589254 0.358365 0.195157
0.609342 0.359489 0.195647
0.629037 0.360592 0.196127
0.648731 0.361694 0.196608
0.668425 0.362796 0.197088
0.688120 0.363898 0.197568
0.707814 0.365000 0.198049
0.727509 0.366103 0.198529
0.747203 0.367205 0.199009
0.766897 0.368307 0.199490
0.786592 0.369409 0.199970
0.133633 0.355676 0.185619
0.154903 0.356866 0.186138
0.176173 0.358056 0.186657
0.197443 0.359247 0.187176
0.218713 0.360437 0.187694
0.239983 0.361627 0.188213
0.261253 0.362818 0.188732
0.282523 0.364008 0.189251
0.303793 0.365199 0.189770
0.325063 0.366389 0.190288
0.346096 0.367566 0.190801
0.366775 0.368723 0.191306
0.387455 0.369881 0.191810
0.408134 0.371038 0.192314
0.428813 0.372195 0.192819
0.449492 0.373353 0.193323
0.470171 0.374510 0.193828
0.490850 0.375667 0.194332
0.511529 0.376825 0.194836
0.532208 0.377982 0.195341
0.552887 0.379139 0.195845
0.573566 0.380296 0.196349
0.594246 0.381454 0.196854
0.614334 0.382578 0.197344
0.634028 0.383680 0.197824
0.653723 0.384782 0.198304
0.673417 0.385885 0.198785
0.693111 0.386987 0.199265
0.712806 0.388089 0.199745
0.732500 0.389191 0.200226
0.752194 0.390293 0.200706
0.771889 0.391396 0.201186
0.791583 0.392498 0.201667
0.138625 0.378764 0.187316
0.159895 0.379954 0.187835
0.181165 0.381145 0.188354
0.202435 0.382335 0.188872
0.223705 0.383526 0.189391
0.244975 0.384716 0.189910
0.266245 0.385906 0.190429
0.287514 0.387097 0.190948
0.308784 0.388287 0.191466
0.330054 0.389477 0.191985
0.351088 0.390655 0.192498
0.371767 0.391812 0.193002
0.392446 0.392969 0.193507
0.413125 0.394127 0.194011
0.433804 0.395284 0.194516
0.454483 0.396441 0.195020
0.475163 0.397598 0.195524
0.495842 0.398756 0.196029
0.516521 0.399913 0.196533
0.537200 0.401070 0.197037
0.557879 0.402228 0.197542
0.578558 0.403385 0.198046
0.599237 0.404542 0.198550
0.619325 0.405667 0.199040
0.639020 0.406769 0.199521
0.658714 0.407871 0.200001
0.678408 0.408973 0.200481
0.698103 0.410075 0.200962
0.717797 0.411178 0.201442
0.737492 0.412280 0.201922
0.757186 0.413382 0.202403
0.776880 0.414484 0.202883
0.796575 0.415586 0.203363
0.143617 0.401853 0.189013
0.164886 0.403043 0.189532
0.186156 0.404233 0.190050
0.207426 0.405424 0.190569
0.228696 0.406614 0.191088
0.249966 0.407805 0.191607
0.271236 0.408995 0.192125
0.292506 0.410185 0.192644
0.313776 0.411376 0.193163
0.335046 0.412566 0.193682
0.356079 0.413743 0.194195
0.376759 0.414901 0.194699
0.397438 0.416058 0.195203
0.418117 0.417215 0.195708
0.438796 0.418372 0.196212
0.459475 0.419530 0.196717
0.480154 0.420687 0.197221
0.500833 0.421844 0.197725
0.521512 0.423002 0.198230
0.542191 0.424159 0.198734
0.562870 0.425316 0.199238
0.583550 0.426474 0.199743
0.604229 0.427631 0.200247
0.624317 0.428755 0.200737
0.644011 0.429857 0.201217
0.663706 0.430960 0.201698
0.683400 0.432062 0.202178
0.703094 0.433164 0.202658
0.722789 0.434266 0.203139
0.742483 0.435368 0.203619
0.762178 0.436471 0.204099
0.781872 0.437573 0.204580
0.801566 0.438675 0.205060
0.148608 0.424941 0.190710
0.169878 0.426132 0.191228
0.191148 0.427322 0.191747
0.212418 0.428512 0.192266
0.233688 0.429703 0.192785
0.254958 0.430893 0.193303
0.276228 0.432084 0.193822
0.297498 0.433274 0.194341
0.318767 0.434464 0.194860
0.340037 0.435655 0.195378
0.361071 0.436832 0.195891
0.381750 0.437989 0.196396
0.402429 0.439146 0.196900
0.423108 0.440304 0.197405
0.443787 0.441461 0.197909
0.464466 0.442618 0.198413
0.485146 0.443776 0.198918
0.505825 0.444933 0.199422
0.526504 0.446090 0.199926
0.547183 0.447248 0.200431
0.567862 0.448405 0.200935
0.588541 0.449562 0.201439
0.609220 0.450720 0.201944
0.629308 0.451844 0.202434
0.649003 0.452946 0.202914
0.668697 0.454048 0.203394
0.688392 0.455150 0.203875
0.708086 0.456253 0.204355
0.727780 0.457355 0.204835
0.747294 0.458453 0.205614
0.766430 0.459541 0.207014
0.785567 0.460630 0.208413
0.804704 0.461718 0.209813
0.153600 0.448030 0.192406
0.174870 0.449220 0.192925
0.196139 0.450411 0.193444
0.217409 0.451601 0.193963
0.238679 0.452791 0.194481
0.259949 0.453982 0.195000
0.281219 0.455172 0.195519
0.302489 0.456362 0.196038
0.323759 0.457553 0.196556
0.345029 0.458743 0.197075
0.366063 0.459920 0.197588
0.386742 0.461078 0.198093
0.407421 0.462235 0.198597
0.428100 0.463392 0.199101
0.448779 0.464550 0.199606
0.469458 0.465707 0.200110
0.490137 0.466864 0.200614
0.510816 0.468022 0.201119
0.531495 0.469179 0.201623
0.552174 0.470336 0.202127
0.572854 0.471493 0.202632
0.593533 0.472651 0.203136
0.614212 0.473808 0.203641
0.634300 0.474932 0.204130
0.653994 0.476035 0.204611
0.673689 0.477137 0.205091
0.692905 0.478227 0.206359
0.712042 0.479316 0.207758
0.731179 0.480404 0.209158
0.750315 0.481493 0.210557
0.769452 0.482582 0.211957
0.788588 0.483670 0.213356
0.807725 0.484759 0.214756
0.158591 0.471118 0.194103
0.179861 0.472309 0.194622
0.201131 0.473499 0.195140
0.222401 0.474690 0.195659
0.243671 0.475880 0.196178
0.264941 0.477070 0.196697
0.286211 0.478261 0.197216
0.307481 0.479451 0.197734
0.328751 0.480641 0.198253
0.350021 0.481832 0.198772
0.371054 0.483009 0.199285
0.391733 0.484166 0.199789
0.412412 0.485324 0.200294
0.433091 0.486481 0.200798
0.453770 0.487638 0.201302
0.474450 0.488795 0.201807
0.495129 0.489953 0.202311
0.515808 0.491110 0.202815
0.536487 0.492267 0.203320
0.557166 0.493425 0.203824
0.577845 0.494582 0.204329
0.598524 0.495739 0.204833
0.618997 0.496892 0.205676
0.638517 0.498002 0.207104
0.657653 0.499091 0.208503
0.676790 0.500179 0.209903
0.695927 0.501268 0.211302
0.715063 0.502356 0.212702
0.734200 0.503445 0.214101
0.753337 0.504533 0.215501
0.772473 0.505622 0.216900
0.791610 0.506711 0.218300
0.810746 0.507799 0.219699
0.163583 0.494207 0.195800
0.184853 0.495397 0.196318
0.206123 0.496588 0.196837
0.227392 0.497778 0.197356
0.248662 0.498968 0.197875
0.269932 0.500159 0.198393
0.291202 0.501349 0.198912
0.312472 0.502540 0.199431
0.333742 0.503730 0.199950
0.355012 0.504920 0.200469
0.376046 0.506098 0.200982
0.396725 0.507255 0.201486
0.417404 0.508412 0.201990
0.438083 0.509569 0.202495
0.458762 0.510727 0.202999
0.479441 0.511884 0.203503
0.500120 0.513041 0.204008
0.520799 0.514199 0.204512
0.541478 0.515356 0.205016
0.561739 0.516503 0.206211
0.581832 0.517646 0.207681
0.601925 0.518789 0.209150
0.622019 0.519932 0.210620
0.641538 0.521042 0.212047
0.660675 0.522131 0.213447
0.679811 0.523220 0.214846
0.698948 0.524308 0.216246
0.718085 0.525397 0.217645
0.737221 0.526485 0.219045
0.756358 0.527574 0.220444
0.775495 0.528662 0.221844
0.794631 0.529751 0.223243
0.813768 0.530839 0.224643
0.168574 0.517296 0.197496
0.189844 0.518486 0.198015
0.211114 0.519676 0.198534
0.232384 0.520867 0.199053
0.253654 0.522057 0.199571
0.274924 0.523247 0.200090
0.296194 0.524438 0.200609
0.317464 0.525628 0.201128
0.338734 0.526819 0.201647
0.360004 0.528009 0.202165
0.381037 0.529186 0.202678
0.401716 0.530343 0.203183
0.422395 0.531501 0.203687
0.443074 0.532658 0.204191
0.463754 0.533815 0.204696
0.484386 0.534972 0.205277
0.504480 0.536115 0.206746
0.524573 0.537257 0.208216
0.544666 0.538400 0.209685
0.564760 0.539543 0.211155
0.584853 0.540686 0.212624
0.604947 0.541829 0.214094
0.625040 0.542972 0.215563
0.644560 0.544083 0.216991
0.663696 0.545171 0.218390
0.682833 0.546260 0.219790
0.701969 0.547349 0.221189
0.721106 0.548437 0.222589
0.740243 0.549526 0.223988
0.759379 0.550614 0.225388
0.778516 0.551703 0.226787
0.797653 0.552791 0.228187
0.816789 0.553880 0.229586
0.173566 0.540384 0.199193
0.194836 0.541575 0.199712
0.216106 0.542765 0.200231
0.237376 0.543955 0.200749
0.258645 0.545146 0.201268
0.279915 0.546336 0.201787
0.301185 0.547526 0.202306
0.322455 0.548717 0.202824
0.343725 0.549907 0.203343
0.364995 0.551098 0.203862
0.386029 0.552275 0.204375
0.406708 0.553432 0.204879
0.427127 0.554583 0.205812
0.447221 0.555726 0.207281
0.467314 0.556869 0.208751
0.487408 0.558012 0.210220
0.507501 0.559155 0.211690
0.527594 0.560298 0.213159
0.547688 0.561441 0.214629
0.567781 0.562584 0.216098
0.587875 0.563727 0.217568
0.607968 0.564870 0.219037
0.628062 0.566013 0.220507
0.647581 0.567123 0.221934
0.666718 0.568212 0.223333
0.685854 0.569300 0.224733
0.704991 0.570389 0.226132
0.724128 0.571478 0.227532
0.743264 0.572566 0.228931
0.762401 0.573655 0.230331
0.781537 0.574743 0.231730
0.800674 0.575832 0.233130
0.819811 0.576920 0.234529
0.178557 0.563473 0.200890
0.199827 0.564663 0.201409
0.221097 0.565853 0.201927
0.242367 0.567044 0.202446
0.263637 0.568234 0.202965
0.284907 0.569425 0.203484
0.306177 0.570615 0.204002
0.327447 0.571805 0.204521
0.348717 0.572996 0.205040
0.369524 0.574175 0.206322
0.389962 0.575337 0.207816
0.410055 0.576480 0.209286
0.430149 0.577623 0.210755
0.450242 0.578766 0.212225
0.470335 0.579909 0.213694
0.490429 0.581052 0.215164
0.510522 0.582195 0.216633
0.530616 0.583338 0.218103
0.550709 0.584481 0.219572
0.570803 0.585624 0.221041
0.590896 0.586767 0.222511
0.610990 0.587910 0.223980
0.631083 0.589053 0.225450
0.650602 0.590164 0.226877
0.669739 0.591252 0.228277
0.688876 0.592341 0.229676
0.708012 0.593429 0.231076
0.727149 0.594518 0.232475
0.746286 0.595606 0.233875
0.765422 0.596695 0.235274
0.784559 0.597784 0.236674
0.803695 0.598872 0.238073
0.822832 0.599961 0.239473
0.183549 0.586561 0.202586
0.204819 0.587752 0.203105
0.226089 0.588942 0.203624
0.247359 0.590132 0.204143
0.268629 0.591323 0.204662
0.289875 0.592513 0.205219
0.310542 0.593688 0.206731
0.331210 0.594864 0.208242
0.351878 0.596040 0.209754
0.372545 0.597215 0.211265
0.392983 0.598378 0.212760
0.413076 0.599521 0.214229
0.433170 0.600664 0.215699
0.453263 0.601807 0.217168
0.473357 0.602950 0.218638
0.493450 0.604093 0.220107
0.513544 0.605236 0.221576
0.533637 0.606379 0.223046
0.553731 0.607522 0.224515
0.573824 0.608665 0.225985
0.593918 0.609808 0.227454
0.614011 0.610951 0.228924
0.634104 0.612094 0.230393
0.653624 0.613204 0.231821
0.672760 0.614293 0.233220
0.691897 0.615381 0.234620
0.711034 0.616470 0.236019
0.730170 0.617558 0.237419
0.749307 0.618647 0.238818
0.768444 0.619735 0.240218
0.787580 0.620824 0.241617
0.806717 0.621913 0.243017
0.825853 0.623001 0.244416
0.188540 0.609650 0.204283
0.209810 0.610840 0.204802
0.230894 0.612026 0.205628
0.251561 0.613202 0.207140
0.272229 0.614377 0.208651
0.292896 0.615553 0.210163
0.313564 0.616729 0.211674
0.334231 0.617904 0.213185
0.354899 0.619080 0.214697
0.375567 0.620256 0.216208
0.396004 0.621418 0.217703
0.416098 0.622561 0.219173
0.436191 0.623704 0.220642
0.456285 0.624847 0.222111
0.476378 0.625990 0.223581
0.496472 0.627133 0.225050
0.516565 0.628276 0.226520
0.536659 0.629419 0.227989
0.556752 0.630562 0.229459
0.576846 0.631705 0.230928
0.596939 0.632848 0.232398
0.617032 0.633991 0.233867
0.637126 0.635134 0.235337
0.656645 0.636245 0.236764
0.675782 0.637333 0.238164
0.694918 0.638422 0.239563
0.714055 0.639510 0.240963
0.733192 0.640599 0.242362
0.752328 0.641687 0.243762
0.771465 0.642776 0.245161
0.790602 0.643864 0.246561
0.809738 0.644953 0.247960
0.828875 0.646042 0.249360
0.192563 0.632584 0.207520
0.213230 0.633759 0.209032
0.233898 0.634935 0.210543
0.254565 0.636110 0.212055
0.275233 0.637286 0.213566
0.295900 0.638462 0.215078
0.316568 0.639637 0.216589
0.337236 0.640813 0.218101
0.357903 0.641989 0.219612
0.378571 0.643164 0.221124
0.399009 0.644327 0.222618
0.419102 0.645470 0.224088
0.439195 0.646613 0.225557
0.459289 0.647756 0.227027
0.479382 0.648899 0.228496
0.499476 0.650042 0.229966
0.519569 0.651185 0.231435
0.539663 0.652328 0.232904
0.559756 0.653471 0.234374
0.579850 0.654614 0.235843
0.599943 0.655757 0.237313
0.620037 0.656900 0.238782
0.640130 0.658043 0.240252
0.659649 0.659153 0.241679
0.678786 0.660242 0.243079
0.697923 0.661330 0.244478
0.717059 0.662419 0.245878
0.736196 0.663508 0.247277
0.755332 0.664596 0.248677
0.774469 0.665685 0.250076
0.793606 0.666773 0.251476
0.812742 0.667862 0.252875
0.831879 0.668950 0.254275
0.195555 0.655405 0.212417
0.216223 0.656580 0.213928
0.236890 0.657756 0.215440
0.257558 0.658931 0.216951
0.278226 0.660107 0.218463
0.298893 0.661283 0.219974
0.319561 0.662458 0.221485
0.340228 0.663634 0.222997
0.360896 0.664810 0.224508
0.381563 0.665985 0.226020
0.402001 0.667148 0.227514
0.422095 0.668291 0.228984
0.442188 0.669434 0.230453
0.462282 0.670577 0.231923
0.482375 0.671720 0.233392
0.502468 0.672863 0.234862
0.522562 0.674006 0.236331
0.542655 0.675149 0.237801
0.562749 0.676292 0.239270
0.582842 0.677435 0.240740
0.602936 0.678578 0.242209
0.623029 0.679721 0.243679
0.643123 0.680864 0.245148
0.662642 0.681974 0.246576
0.681779 0.683063 0.247975
0.700915 0.684151 0.249375
0.720052 0.685240 0.250774
0.739188 0.686329 0.252174
0.758325 0.687417 0.253573
0.777462 0.688506 0.254973
0.796598 0.689594 0.256372
0.815735 0.690683 0.257772
0.834872 0.691771 0.259171
0.198548 0.678225 0.217313
0.219216 0.679401 0.218825
0.239883 0.680577 0.220336
0.260551 0.681752 0.221847
0.281218 0.682928 0.223359
0.301886 0.684104 0.224870
0.322553 0.685279 0.226382
0.343221 0.686455 0.227893
0.363888 0.687631 0.229405
0.384556 0.688806 0.230916
0.404994 0.689969 0.232411
0.425087 0.691112 0.233880
0.445181 0.692255 0.235350
0.465274 0.693398 0.236819
0.485368 0.694541 0.238289
0.505461 0.695684 0.239758
0.525555 0.696827 0.241228
0.545648 0.697970 0.242697
0.565741 0.699113 0.244167
0.585835 0.700256 0.245636
0.605928 0.701399 0.247106
0.626022 0.702542 0.248575
0.646115 0.703685 0.250044
0.665635 0.704795 0.251472
0.684771 0.705884 0.252871
0.703908 0.706972 0.254271
0.723044 0.708061 0.255670
0.742181 0.709150 0.257070
0.761318 0.710238 0.258469
0.780454 0.711327 0.259869
0.799591 0.712415 0.261268
0.818728 0.713504 0.262668
0.837864 0.714592 0.264067
0.201541 0.701046 0.222209
0.222208 0.702222 0.223721
0.242876 0.703398 0.225232
0.263543 0.704573 0.226744
0.284211 0.705749 0.228255
0.304878 0.706925 0.229767
0.325546 0.708100 0.231278
0.346213 0.709276 0.232790
0.366881 0.710452 0.234301
0.387549 0.711627 0.235812
0.407986 0.712790 0.237307
0.428080 0.713933 0.238777
0.448173 0.715076 0.240246
0.468267 0.716219 0.241716
0.488360 0.717362 0.243185
0.508454 0.718505 0.244654
0.528547 0.719648 0.246124
0.548641 0.720791 0.247593
0.568734 0.721934 0.249063
0.588828 0.723077 0.250532
0.608921 0.724220 0.252002
0.629014 0.725363 0.253471
0.649108 0.726506 0.254941
0.668627 0.727616 0.256368
0.687764 0.728705 0.257768
0.706900 0.729793 0.259167
0.726037 0.730882 0.260567
0.745174 0.731971 0.261966
0.764310 0.733059 0.263366
