luts/instant_print.cube
TITLE "Polaroid 600"
LUT_3D_SIZE 5
0.077357 0.095368 0.166490
0.247517 0.104891 0.170640
0.413895 0.114203 0.174698
0.577752 0.123373 0.178695
0.735307 0.132191 0.182538
0.118431 0.285354 0.180452
0.288590 0.294877 0.184602
0.454968 0.304189 0.188660
0.618825 0.313359 0.192656
0.776380 0.322177 0.196499
0.158591 0.471118 0.194103
0.328751 0.480641 0.198253
0.495129 0.489953 0.202311
0.657653 0.499091 0.208503
0.810746 0.507799 0.219699
0.195555 0.655405 0.212417
0.360896 0.664810 0.224508
0.522562 0.674006 0.236331
0.681779 0.683063 0.247975
0.834872 0.691771 0.259171
0.219496 0.837972 0.251587
0.384837 0.847378 0.263679
0.546503 0.856574 0.275502
0.705720 0.865631 0.287146
0.858813 0.874339 0.298342
0.081964 0.098962 0.343556
0.252124 0.108485 0.347706
0.418502 0.117796 0.351764
0.582359 0.126966 0.355761
0.739914 0.135784 0.359604
0.123038 0.288948 0.357518
0.293197 0.298471 0.361668
0.459575 0.307782 0.365726
0.623432 0.316952 0.369722
0.780987 0.325770 0.373565
0.163198 0.474712 0.371169
0.333358 0.484235 0.375319
0.499736 0.493546 0.379377
0.660442 0.502639 0.388566
0.813535 0.511348 0.399762
0.198344 0.658953 0.392479
0.363684 0.668359 0.404571
0.525351 0.677555 0.416394
0.684567 0.686612 0.428038
0.837660 0.695320 0.439234
0.222285 0.841521 0.431650
0.387625 0.850927 0.443741
0.549292 0.860123 0.455564
0.708508 0.869180 0.467208
0.861601 0.877888 0.478404
0.086019 0.102124 0.499374
0.256178 0.111647 0.503525
0.422556 0.120958 0.507582
0.586413 0.130129 0.511579
0.743968 0.138946 0.515422
0.127092 0.292110 0.513336
0.297251 0.301633 0.517486
0.463629 0.310944 0.521544
0.627487 0.320115 0.525540
0.785042 0.328932 0.529383
0.167252 0.477874 0.526987
0.337412 0.487397 0.531137
0.503679 0.496706 0.535377
0.662896 0.505763 0.547021
0.815989 0.514471 0.558217
0.200798 0.662077 0.550935
0.366138 0.671482 0.563026
0.527805 0.680678 0.574849
0.687021 0.689735 0.586493
0.840114 0.698443 0.597689
0.224739 0.844644 0.590105
0.390079 0.854050 0.602197
0.551746 0.863246 0.614020
0.710962 0.872303 0.625663
0.864055 0.881011 0.636859
0.089919 0.105166 0.649290
0.260079 0.114689 0.653440
0.426457 0.124001 0.657498
0.590314 0.133171 0.661495
0.747869 0.141989 0.665338
0.130993 0.295152 0.663252
0.301152 0.304675 0.667402
0.467530 0.313987 0.671460
0.631387 0.323157 0.675456
0.788942 0.331975 0.679299
0.171153 0.480916 0.676903
0.341313 0.490439 0.681053
0.506041 0.499710 0.687830
0.665257 0.508767 0.699474
0.818350 0.517476 0.710670
0.203159 0.665081 0.703388
0.368500 0.674487 0.715479
0.530166 0.683683 0.727302
0.689382 0.692740 0.738946
0.842475 0.701448 0.750142
0.227100 0.847649 0.742558
0.392441 0.857054 0.754650
0.554107 0.866251 0.766473
0.713323 0.875308 0.778116
0.866416 0.884016 0.789312
0.093315 0.107717 0.774617
0.263584 0.117350 0.784250
0.430069 0.126768 0.793668
0.594031 0.136044 0.802944
0.751688 0.144963 0.811863
0.134756 0.298071 0.807021
0.304991 0.307670 0.814957
0.471369 0.316981 0.819015
0.635227 0.326152 0.823011
0.792782 0.334969 0.826854
0.174992 0.483911 0.824458
0.345152 0.493434 0.828608
0.508364 0.502668 0.837883
0.667581 0.511725 0.849526
0.820674 0.520433 0.860722
0.205483 0.668039 0.853440
0.370823 0.677444 0.865531
0.532490 0.686640 0.877354
0.691706 0.695697 0.888998
0.844799 0.704406 0.900194
0.229424 0.850607 0.892610
0.394764 0.860012 0.904702
0.556431 0.869208 0.916525
0.715632 0.878249 0.927389
0.868674 0.886907 0.936047
