luts/lofi_grain_800.cube
TITLE "Lomography 800"
LUT_3D_SIZE 5
0.205286 0.087517 0.035000
0.491782 0.079655 0.035000
0.738759 0.072875 0.035000
0.946200 0.067160 0.035000
0.965000 0.064275 0.035000
0.154676 0.353585 0.035000
0.441143 0.345694 0.035000
0.688096 0.338891 0.035000
0.895537 0.333176 0.035000
0.965000 0.329910 0.035000
0.105823 0.610100 0.035000
0.394361 0.602415 0.035000
0.649920 0.596466 0.035000
0.864590 0.591470 0.035000
0.965000 0.588615 0.035000
0.083582 0.820858 0.035000
0.380030 0.813958 0.035000
0.635589 0.808009 0.035000
0.850259 0.803013 0.035000
0.965000 0.800158 0.035000
0.075765 0.936245 0.035000
0.372213 0.929345 0.035000
0.627772 0.923397 0.035000
0.842442 0.918400 0.035000
0.965000 0.915545 0.035000
0.201138 0.085444 0.258298
0.487604 0.077552 0.255544
0.734558 0.070749 0.253170
0.941999 0.065035 0.251176
0.965000 0.062094 0.250361
0.150475 0.351460 0.249353
0.436942 0.343568 0.246599
0.683895 0.336765 0.244225
0.891336 0.331050 0.242231
0.965000 0.327785 0.241091
0.101622 0.607975 0.240727
0.392849 0.600556 0.235384
0.648408 0.594608 0.228328
0.863077 0.589611 0.222402
0.965000 0.586756 0.219015
0.082069 0.818999 0.222681
0.378518 0.812099 0.214497
0.634077 0.806151 0.207442
0.848746 0.801155 0.201515
0.965000 0.798299 0.198128
0.074252 0.934386 0.211289
0.370701 0.927486 0.203104
0.626260 0.921538 0.196049
0.840929 0.916542 0.190122
0.963598 0.913687 0.186736
0.196572 0.083134 0.517892
0.483038 0.075242 0.515138
0.729991 0.068439 0.512764
0.937432 0.062724 0.510770
0.965000 0.059724 0.509895
0.145909 0.349149 0.508947
0.432375 0.341258 0.506193
0.679329 0.334455 0.503819
0.886770 0.328740 0.501824
0.965000 0.325475 0.500685
0.097056 0.605664 0.500321
0.391205 0.598536 0.493388
0.646764 0.592588 0.486332
0.861433 0.587591 0.480406
0.965000 0.584736 0.477019
0.080425 0.816979 0.480685
0.376874 0.810079 0.472501
0.632433 0.804131 0.465445
0.847102 0.799135 0.459519
0.965000 0.796279 0.456132
0.072608 0.932366 0.469292
0.369057 0.925466 0.461108
0.624616 0.919518 0.454053
0.839285 0.914522 0.448126
0.961953 0.911667 0.444740
0.192553 0.081100 0.746335
0.479019 0.073209 0.743581
0.725973 0.066406 0.741206
0.933414 0.060691 0.739212
0.965000 0.057638 0.738285
0.141890 0.347116 0.737389
0.428357 0.339225 0.734635
0.675310 0.332422 0.732261
0.882751 0.326707 0.730267
0.965000 0.323441 0.729127
0.093309 0.603658 0.728615
0.389758 0.596758 0.720431
0.645317 0.590810 0.713376
0.859987 0.585814 0.707449
0.965000 0.582959 0.704062
0.078978 0.815201 0.707729
0.375427 0.808302 0.699544
0.630986 0.802353 0.692489
0.845655 0.797357 0.686562
0.965000 0.794502 0.683176
0.071161 0.930589 0.696336
0.367610 0.923689 0.688152
0.623169 0.917741 0.681096
0.837838 0.912744 0.675170
0.960507 0.909889 0.671783
0.190178 0.079899 0.881323
0.476645 0.072007 0.878569
0.723598 0.065204 0.876195
0.931039 0.059490 0.874201
0.965000 0.056405 0.873242
0.139516 0.345915 0.872378
0.425982 0.338023 0.869624
0.672936 0.331220 0.867250
0.880377 0.325506 0.865256
0.965000 0.322287 0.863858
0.092455 0.602608 0.862777
0.388903 0.595708 0.854593
0.644462 0.589760 0.847538
0.859132 0.584763 0.841611
0.965000 0.581908 0.838225
0.078123 0.814151 0.841891
0.374572 0.807251 0.833706
0.630131 0.801303 0.826651
0.844801 0.796306 0.820724
0.965000 0.793451 0.817338
0.070306 0.929538 0.830498
0.366755 0.922638 0.822314
0.622314 0.916690 0.815258
0.836984 0.911694 0.809332
0.959652 0.908838 0.805945
