luts/lofi_grain_800.cube
TITLE "Lomography 800"
LUT_3D_SIZE 33
0.205286 0.087517 0.035000
0.241098 0.086534 0.035000
0.276910 0.085551 0.035000
0.312722 0.084569 0.035000
0.348534 0.083586 0.035000
0.384346 0.082603 0.035000
0.420158 0.081620 0.035000
0.455970 0.080638 0.035000
0.491782 0.079655 0.035000
0.522655 0.078808 0.035000
0.553527 0.077961 0.035000
0.584400 0.077114 0.035000
0.615272 0.076266 0.035000
0.646145 0.075419 0.035000
0.677017 0.074572 0.035000
0.707889 0.073725 0.035000
0.738759 0.072875 0.035000
0.764689 0.072160 0.035000
0.790619 0.071446 0.035000
0.816549 0.070732 0.035000
0.842479 0.070018 0.035000
0.868410 0.069303 0.035000
0.894340 0.068589 0.035000
0.920270 0.067875 0.035000
0.946200 0.067160 0.035000
0.961017 0.066752 0.035000
0.965000 0.066344 0.035000
0.965000 0.065936 0.035000
0.965000 0.065527 0.035000
0.965000 0.065119 0.035000
0.965000 0.064711 0.035000
0.965000 0.064338 0.035000
0.965000 0.064275 0.035000
0.198966 0.120781 0.035000
0.234778 0.119798 0.035000
0.270590 0.118815 0.035000
0.306402 0.117833 0.035000
0.342214 0.116850 0.035000
0.378026 0.115867 0.035000
0.413838 0.114885 0.035000
0.449650 0.113902 0.035000
0.485462 0.112919 0.035000
0.516334 0.112072 0.035000
0.547207 0.111225 0.035000
0.578079 0.110378 0.035000
0.608949 0.109528 0.035000
0.639818 0.108678 0.035000
0.670688 0.107828 0.035000
0.701557 0.106977 0.035000
0.732426 0.106127 0.035000
0.758356 0.105412 0.035000
0.784286 0.104698 0.035000
0.810216 0.103984 0.035000
0.836147 0.103269 0.035000
0.862077 0.102555 0.035000
0.888007 0.101841 0.035000
0.913937 0.101127 0.035000
0.939867 0.100412 0.035000
0.954684 0.100004 0.035000
0.965000 0.099596 0.035000
0.965000 0.099188 0.035000
0.965000 0.098779 0.035000
0.965000 0.098371 0.035000
0.965000 0.097963 0.035000
0.965000 0.097555 0.035000
0.965000 0.097444 0.035000
0.192645 0.154045 0.035000
0.228457 0.153062 0.035000
0.264269 0.152079 0.035000
0.300081 0.151097 0.035000
0.335893 0.150114 0.035000
0.371705 0.149131 0.035000
0.407517 0.148149 0.035000
0.443329 0.147166 0.035000
0.479140 0.146182 0.035000
0.510009 0.145331 0.035000
0.540878 0.144481 0.035000
0.571747 0.143631 0.035000
0.602616 0.142780 0.035000
0.633486 0.141930 0.035000
0.664355 0.141079 0.035000
0.695224 0.140229 0.035000
0.726093 0.139379 0.035000
0.752023 0.138664 0.035000
0.777954 0.137950 0.035000
0.803884 0.137236 0.035000
0.829814 0.136521 0.035000
0.855744 0.135807 0.035000
0.881674 0.135093 0.035000
0.907604 0.134378 0.035000
0.933534 0.133664 0.035000
0.948352 0.133256 0.035000
0.963169 0.132848 0.035000
0.965000 0.132440 0.035000
0.965000 0.132031 0.035000
0.965000 0.131623 0.035000
0.965000 0.131215 0.035000
0.965000 0.130807 0.035000
0.965000 0.130612 0.035000
0.186324 0.187309 0.035000
0.222136 0.186326 0.035000
0.257948 0.185344 0.035000
0.293760 0.184361 0.035000
0.329572 0.183378 0.035000
0.365382 0.182393 0.035000
0.401190 0.181407 0.035000
0.436999 0.180420 0.035000
0.472807 0.179434 0.035000
0.503676 0.178583 0.035000
0.534545 0.177733 0.035000
0.565414 0.176883 0.035000
0.596284 0.176032 0.035000
0.627153 0.175182 0.035000
0.658022 0.174331 0.035000
0.688891 0.173481 0.035000
0.719760 0.172631 0.035000
0.745691 0.171916 0.035000
0.771621 0.171202 0.035000
0.797551 0.170488 0.035000
0.823481 0.169773 0.035000
0.849411 0.169059 0.035000
0.875341 0.168345 0.035000
0.901271 0.167630 0.035000
0.927201 0.166916 0.035000
0.942019 0.166508 0.035000
0.956836 0.166100 0.035000
0.965000 0.165692 0.035000
0.965000 0.165283 0.035000
0.965000 0.164875 0.035000
0.965000 0.164467 0.035000
0.965000 0.164059 0.035000
0.965000 0.163781 0.035000
0.180004 0.220573 0.035000
0.215816 0.219590 0.035000
0.251624 0.218604 0.035000
0.287433 0.217618 0.035000
0.323241 0.216632 0.035000
0.359049 0.215645 0.035000
0.394857 0.214659 0.035000
0.430666 0.213672 0.035000
0.466474 0.212686 0.035000
0.497343 0.211835 0.035000
0.528212 0.210985 0.035000
0.559082 0.210135 0.035000
0.589951 0.209284 0.035000
0.620820 0.208434 0.035000
0.651689 0.207583 0.035000
0.682558 0.206733 0.035000
0.713428 0.205883 0.035000
0.739358 0.205168 0.035000
0.765288 0.204454 0.035000
0.791218 0.203740 0.035000
0.817148 0.203025 0.035000
0.843078 0.202311 0.035000
0.869008 0.201597 0.035000
0.894938 0.200882 0.035000
0.920869 0.200168 0.035000
0.935686 0.199760 0.035000
0.950503 0.199352 0.035000
0.965000 0.198944 0.035000
0.965000 0.198535 0.035000
0.965000 0.198127 0.035000
0.965000 0.197719 0.035000
0.965000 0.197311 0.035000
0.965000 0.196950 0.035000
0.173675 0.253829 0.035000
0.209483 0.252843 0.035000
0.245292 0.251856 0.035000
0.281100 0.250870 0.035000
0.316908 0.249883 0.035000
0.352716 0.248897 0.035000
0.388525 0.247911 0.035000
0.424333 0.246924 0.035000
0.460141 0.245938 0.035000
0.491010 0.245087 0.035000
0.521880 0.244237 0.035000
0.552749 0.243387 0.035000
0.583618 0.242536 0.035000
0.614487 0.241686 0.035000
0.645356 0.240835 0.035000
0.676226 0.239985 0.035000
0.707095 0.239135 0.035000
0.733025 0.238420 0.035000
0.758955 0.237706 0.035000
0.784885 0.236992 0.035000
0.810815 0.236277 0.035000
0.836745 0.235563 0.035000
0.862676 0.234849 0.035000
0.888606 0.234134 0.035000
0.914536 0.233420 0.035000
0.929353 0.233012 0.035000
0.944170 0.232604 0.035000
0.958987 0.232195 0.035000
0.965000 0.231787 0.035000
0.965000 0.231379 0.035000
0.965000 0.230971 0.035000
0.965000 0.230563 0.035000
0.965000 0.230155 0.035000
0.167342 0.287081 0.035000
0.203150 0.286095 0.035000
0.238959 0.285108 0.035000
0.274767 0.284122 0.035000
0.310575 0.283135 0.035000
0.346383 0.282149 0.035000
0.382192 0.281163 0.035000
0.418000 0.280176 0.035000
0.453808 0.279190 0.035000
0.484678 0.278339 0.035000
0.515547 0.277489 0.035000
0.546416 0.276639 0.035000
0.577285 0.275788 0.035000
0.608154 0.274938 0.035000
0.639024 0.274087 0.035000
0.669893 0.273237 0.035000
0.700762 0.272387 0.035000
0.726692 0.271672 0.035000
0.752622 0.270958 0.035000
0.778552 0.270244 0.035000
0.804482 0.269529 0.035000
0.830413 0.268815 0.035000
0.856343 0.268101 0.035000
0.882273 0.267386 0.035000
0.908203 0.266672 0.035000
0.923020 0.266264 0.035000
0.937837 0.265856 0.035000
0.952655 0.265447 0.035000
0.965000 0.265039 0.035000
0.965000 0.264631 0.035000
0.965000 0.264223 0.035000
0.965000 0.263815 0.035000
0.965000 0.263407 0.035000
0.161009 0.320333 0.035000
0.196818 0.319347 0.035000
0.232626 0.318360 0.035000
0.268434 0.317374 0.035000
0.304242 0.316387 0.035000
0.340051 0.315401 0.035000
0.375859 0.314415 0.035000
0.411667 0.313428 0.035000
0.447475 0.312442 0.035000
0.478345 0.311591 0.035000
0.509214 0.310741 0.035000
0.540083 0.309890 0.035000
0.570952 0.309040 0.035000
0.601821 0.308190 0.035000
0.632691 0.307339 0.035000
0.663560 0.306489 0.035000
0.694429 0.305639 0.035000
0.720359 0.304924 0.035000
0.746289 0.304210 0.035000
0.772219 0.303496 0.035000
0.798150 0.302781 0.035000
0.824080 0.302067 0.035000
0.850010 0.301353 0.035000
0.875940 0.300638 0.035000
0.901870 0.299924 0.035000
0.916687 0.299516 0.035000
0.931505 0.299108 0.035000
0.946322 0.298699 0.035000
0.961139 0.298291 0.035000
0.965000 0.297883 0.035000
0.965000 0.297475 0.035000
0.965000 0.297067 0.035000
0.965000 0.296659 0.035000
0.154676 0.353585 0.035000
0.190485 0.352599 0.035000
0.226293 0.351612 0.035000
0.262101 0.350626 0.035000
0.297910 0.349639 0.035000
0.333718 0.348653 0.035000
0.369526 0.347666 0.035000
0.405334 0.346680 0.035000
0.441143 0.345694 0.035000
0.472012 0.344843 0.035000
0.502881 0.343993 0.035000
0.533750 0.343142 0.035000
0.564619 0.342292 0.035000
0.595489 0.341442 0.035000
0.626358 0.340591 0.035000
0.657227 0.339741 0.035000
0.688096 0.338891 0.035000
0.714026 0.338176 0.035000
0.739957 0.337462 0.035000
0.765887 0.336748 0.035000
0.791817 0.336033 0.035000
0.817747 0.335319 0.035000
0.843677 0.334605 0.035000
0.869607 0.333890 0.035000
0.895537 0.333176 0.035000
0.910355 0.332768 0.035000
0.925172 0.332360 0.035000
0.939989 0.331951 0.035000
0.954806 0.331543 0.035000
0.965000 0.331135 0.035000
0.965000 0.330727 0.035000
0.965000 0.330319 0.035000
0.965000 0.329910 0.035000
0.148570 0.385650 0.035000
0.184378 0.384663 0.035000
0.220186 0.383677 0.035000
0.255995 0.382690 0.035000
0.291803 0.381704 0.035000
0.327611 0.380717 0.035000
0.363419 0.379731 0.035000
0.399228 0.378744 0.035000
0.435036 0.377758 0.035000
0.465905 0.376908 0.035000
0.496774 0.376057 0.035000
0.527644 0.375207 0.035000
0.558513 0.374356 0.035000
0.589382 0.373506 0.035000
0.620251 0.372656 0.035000
0.651120 0.371805 0.035000
0.681990 0.370955 0.035000
0.707920 0.370241 0.035000
0.733850 0.369526 0.035000
0.759780 0.368812 0.035000
0.785710 0.368098 0.035000
0.811640 0.367383 0.035000
0.837570 0.366669 0.035000
0.863501 0.365955 0.035000
0.889431 0.365240 0.035000
0.904248 0.364832 0.035000
0.919065 0.364424 0.035000
0.933882 0.364016 0.035000
0.948700 0.363608 0.035000
0.963517 0.363199 0.035000
0.965000 0.362791 0.035000
0.965000 0.362383 0.035000
0.965000 0.361975 0.035000
0.142463 0.417714 0.035000
0.178271 0.416727 0.035000
0.214080 0.415741 0.035000
0.249888 0.414755 0.035000
0.285696 0.413768 0.035000
0.321505 0.412782 0.035000
0.357313 0.411795 0.035000
0.393121 0.410809 0.035000
0.428929 0.409822 0.035000
0.459799 0.408972 0.035000
0.490668 0.408122 0.035000
0.521537 0.407271 0.035000
0.552406 0.406421 0.035000
0.583275 0.405570 0.035000
0.614145 0.404720 0.035000
0.645014 0.403870 0.035000
0.675883 0.403019 0.035000
0.701813 0.402305 0.035000
0.727743 0.401591 0.035000
0.753673 0.400876 0.035000
0.779603 0.400162 0.035000
0.805534 0.399448 0.035000
0.831464 0.398733 0.035000
0.857394 0.398019 0.035000
0.883324 0.397305 0.035000
0.898141 0.396897 0.035000
0.912958 0.396488 0.035000
0.927776 0.396080 0.035000
0.942593 0.395672 0.035000
0.957410 0.395264 0.035000
0.965000 0.394856 0.035000
0.965000 0.394447 0.035000
0.965000 0.394039 0.035000
0.136356 0.449778 0.035000
0.172165 0.448792 0.035000
0.207973 0.447805 0.035000
0.243781 0.446819 0.035000
0.279590 0.445833 0.035000
0.315398 0.444846 0.035000
0.351206 0.443860 0.035000
0.387014 0.442873 0.035000
0.422823 0.441887 0.035000
0.453692 0.441036 0.035000
0.484561 0.440186 0.035000
0.515430 0.439336 0.035000
0.546299 0.438485 0.035000
0.577169 0.437635 0.035000
0.608038 0.436784 0.035000
0.638907 0.435934 0.035000
0.669776 0.435084 0.035000
0.695706 0.434369 0.035000
0.721637 0.433655 0.035000
0.747567 0.432941 0.035000
0.773497 0.432226 0.035000
0.799427 0.431512 0.035000
0.825357 0.430798 0.035000
0.851287 0.430083 0.035000
0.877217 0.429369 0.035000
0.892035 0.428961 0.035000
0.906852 0.428553 0.035000
0.921669 0.428145 0.035000
0.936917 0.427779 0.035000
0.952250 0.427422 0.035000
0.965000 0.427065 0.035000
0.965000 0.426708 0.035000
0.965000 0.426352 0.035000
0.130250 0.481843 0.035000
0.166058 0.480856 0.035000
0.201866 0.479870 0.035000
0.237675 0.478883 0.035000
0.273483 0.477897 0.035000
0.309291 0.476911 0.035000
0.345099 0.475924 0.035000
0.380908 0.474938 0.035000
0.416716 0.473951 0.035000
0.447585 0.473101 0.035000
0.478454 0.472250 0.035000
0.509324 0.471400 0.035000
0.540193 0.470550 0.035000
0.571062 0.469699 0.035000
0.601931 0.468849 0.035000
0.632800 0.467999 0.035000
0.663670 0.467148 0.035000
0.689600 0.466434 0.035000
0.715530 0.465719 0.035000
0.741460 0.465005 0.035000
0.767390 0.464291 0.035000
0.793320 0.463577 0.035000
0.819716 0.462908 0.035000
0.846550 0.462284 0.035000
0.873384 0.461659 0.035000
0.888717 0.461302 0.035000
0.904051 0.460946 0.035000
0.919384 0.460589 0.035000
0.934718 0.460232 0.035000
0.950052 0.459875 0.035000
0.965000 0.459518 0.035000
0.965000 0.459161 0.035000
0.965000 0.458804 0.035000
0.124143 0.513907 0.035000
0.159951 0.512921 0.035000
0.195760 0.511934 0.035000
0.231568 0.510948 0.035000
0.267376 0.509961 0.035000
0.303185 0.508975 0.035000
0.338993 0.507988 0.035000
0.374801 0.507002 0.035000
0.410609 0.506016 0.035000
0.441479 0.505165 0.035000
0.472348 0.504315 0.035000
0.503217 0.503464 0.035000
0.534086 0.502614 0.035000
0.564955 0.501764 0.035000
0.595825 0.500913 0.035000
0.626694 0.500063 0.035000
0.657563 0.499213 0.035000
0.683493 0.498498 0.035000
0.710183 0.497859 0.035000
0.737017 0.497235 0.035000
0.763851 0.496610 0.035000
0.790684 0.495986 0.035000
0.817518 0.495361 0.035000
0.844352 0.494737 0.035000
0.871185 0.494112 0.035000
0.886519 0.493755 0.035000
0.901852 0.493398 0.035000
0.917186 0.493041 0.035000
0.932519 0.492684 0.035000
0.947853 0.492328 0.035000
0.963187 0.491971 0.035000
0.965000 0.491614 0.035000
0.965000 0.491257 0.035000
0.118037 0.545972 0.035000
0.153845 0.544985 0.035000
0.189653 0.543999 0.035000
0.225461 0.543012 0.035000
0.261270 0.542026 0.035000
0.297078 0.541039 0.035000
0.332886 0.540053 0.035000
0.368694 0.539066 0.035000
0.404503 0.538080 0.035000
0.435372 0.537230 0.035000
0.466241 0.536379 0.035000
0.497110 0.535529 0.035000
0.527979 0.534678 0.035000
0.558849 0.533828 0.035000
0.590427 0.533048 0.035000
0.622372 0.532305 0.035000
0.654317 0.531561 0.035000
0.681151 0.530937 0.035000
0.707985 0.530312 0.035000
0.734818 0.529687 0.035000
0.761652 0.529063 0.035000
0.788486 0.528438 0.035000
0.815319 0.527814 0.035000
0.842153 0.527189 0.035000
0.868987 0.526565 0.035000
0.884320 0.526208 0.035000
0.899654 0.525851 0.035000
0.914987 0.525494 0.035000
0.930321 0.525137 0.035000
0.945655 0.524780 0.035000
0.960988 0.524423 0.035000
0.965000 0.524066 0.035000
0.965000 0.523709 0.035000
0.111930 0.578036 0.035000
0.147738 0.577049 0.035000
0.183546 0.576063 0.035000
0.219355 0.575077 0.035000
0.255163 0.574090 0.035000
0.290971 0.573104 0.035000
0.326779 0.572117 0.035000
0.362588 0.571131 0.035000
0.398396 0.570144 0.035000
0.429265 0.569294 0.035000
0.460449 0.568475 0.035000
0.492394 0.567731 0.035000
0.524339 0.566988 0.035000
0.556284 0.566244 0.035000
0.588229 0.565501 0.035000
0.620174 0.564757 0.035000
0.652119 0.564014 0.035000
0.678952 0.563389 0.035000
0.705786 0.562765 0.035000
0.732620 0.562140 0.035000
0.759453 0.561516 0.035000
0.786287 0.560891 0.035000
0.813121 0.560266 0.035000
0.839955 0.559642 0.035000
0.866788 0.559017 0.035000
0.882122 0.558660 0.035000
0.897455 0.558303 0.035000
0.912789 0.557947 0.035000
0.928122 0.557590 0.035000
0.943456 0.557233 0.035000
0.958790 0.556876 0.035000
0.965000 0.556519 0.035000
0.965000 0.556162 0.035000
0.105823 0.610100 0.035000
0.141631 0.609114 0.035000
0.177440 0.608127 0.035000
0.213248 0.607141 0.035000
0.249056 0.606155 0.035000
0.284865 0.605168 0.035000
0.320673 0.604182 0.035000
0.357305 0.603277 0.035000
0.394361 0.602415 0.035000
0.426306 0.601671 0.035000
0.458251 0.600928 0.035000
0.490196 0.600184 0.035000
0.522141 0.599440 0.035000
0.554086 0.598697 0.035000
0.586030 0.597953 0.035000
0.617975 0.597210 0.035000
0.649920 0.596466 0.035000
0.676754 0.595842 0.035000
0.703588 0.595217 0.035000
0.730421 0.594593 0.035000
0.757255 0.593968 0.035000
0.784089 0.593344 0.035000
0.810922 0.592719 0.035000
0.837756 0.592094 0.035000
0.864590 0.591470 0.035000
0.879923 0.591113 0.035000
0.895257 0.590756 0.035000
0.910590 0.590399 0.035000
0.925924 0.590042 0.035000
0.941257 0.589685 0.035000
0.956591 0.589329 0.035000
0.965000 0.588972 0.035000
0.965000 0.588615 0.035000
0.100847 0.636227 0.035000
0.136656 0.635240 0.035000
0.172464 0.634254 0.035000
0.208272 0.633268 0.035000
0.244346 0.632307 0.035000
0.281402 0.631445 0.035000
0.318458 0.630582 0.035000
0.355514 0.629720 0.035000
0.392570 0.628857 0.035000
0.424515 0.628114 0.035000
0.456460 0.627370 0.035000
0.488404 0.626627 0.035000
0.520349 0.625883 0.035000
0.552294 0.625140 0.035000
0.584239 0.624396 0.035000
0.616184 0.623653 0.035000
0.648129 0.622909 0.035000
0.674962 0.622285 0.035000
0.701796 0.621660 0.035000
0.728630 0.621036 0.035000
0.755464 0.620411 0.035000
0.782297 0.619786 0.035000
0.809131 0.619162 0.035000
0.835965 0.618537 0.035000
0.862798 0.617913 0.035000
0.878132 0.617556 0.035000
0.893465 0.617199 0.035000
0.908799 0.616842 0.035000
0.924133 0.616485 0.035000
0.939466 0.616128 0.035000
0.954800 0.615771 0.035000
0.965000 0.615415 0.035000
0.965000 0.615058 0.035000
0.095872 0.662353 0.035000
0.131680 0.661367 0.035000
0.168442 0.660475 0.035000
0.205498 0.659613 0.035000
0.242554 0.658750 0.035000
0.279610 0.657888 0.035000
0.316666 0.657025 0.035000
0.353722 0.656163 0.035000
0.390778 0.655300 0.035000
0.422723 0.654557 0.035000
0.454668 0.653813 0.035000
0.486613 0.653070 0.035000
0.518558 0.652326 0.035000
0.550503 0.651583 0.035000
0.582448 0.650839 0.035000
0.614393 0.650096 0.035000
0.646337 0.649352 0.035000
0.673171 0.648728 0.035000
0.700005 0.648103 0.035000
0.726838 0.647478 0.035000
0.753672 0.646854 0.035000
0.780506 0.646229 0.035000
0.807340 0.645605 0.035000
0.834173 0.644980 0.035000
0.861007 0.644356 0.035000
0.876341 0.643999 0.035000
0.891674 0.643642 0.035000
0.907008 0.643285 0.035000
0.922341 0.642928 0.035000
0.937675 0.642571 0.035000
0.953008 0.642214 0.035000
0.965000 0.641857 0.035000
0.965000 0.641501 0.035000
0.092539 0.688643 0.035000
0.129595 0.687781 0.035000
0.166651 0.686918 0.035000
0.203707 0.686056 0.035000
0.240763 0.685193 0.035000
0.277819 0.684331 0.035000
0.314875 0.683468 0.035000
0.351931 0.682606 0.035000
0.388987 0.681743 0.035000
0.420932 0.681000 0.035000
0.452877 0.680256 0.035000
0.484822 0.679513 0.035000
0.516766 0.678769 0.035000
0.548711 0.678026 0.035000
0.580656 0.677282 0.035000
0.612601 0.676539 0.035000
0.644546 0.675795 0.035000
0.671380 0.675170 0.035000
0.698213 0.674546 0.035000
0.725047 0.673921 0.035000
0.751881 0.673297 0.035000
0.778714 0.672672 0.035000
0.805548 0.672048 0.035000
0.832382 0.671423 0.035000
0.859216 0.670799 0.035000
0.874549 0.670442 0.035000
0.889883 0.670085 0.035000
0.905216 0.669728 0.035000
0.920550 0.669371 0.035000
0.935883 0.669014 0.035000
0.951217 0.668657 0.035000
0.965000 0.668300 0.035000
0.965000 0.667943 0.035000
0.090747 0.715086 0.035000
0.127803 0.714224 0.035000
0.164859 0.713361 0.035000
0.201915 0.712499 0.035000
0.238971 0.711636 0.035000
0.276027 0.710774 0.035000
0.313083 0.709911 0.035000
0.350140 0.709049 0.035000
0.387196 0.708186 0.035000
0.419140 0.707443 0.035000
0.451085 0.706699 0.035000
0.483030 0.705956 0.035000
0.514975 0.705212 0.035000
0.546920 0.704469 0.035000
0.578865 0.703725 0.035000
0.610810 0.702981 0.035000
0.642755 0.702238 0.035000
0.669588 0.701613 0.035000
0.696422 0.700989 0.035000
0.723256 0.700364 0.035000
0.750089 0.699740 0.035000
0.776923 0.699115 0.035000
0.803757 0.698491 0.035000
0.830591 0.697866 0.035000
0.857424 0.697241 0.035000
0.872758 0.696885 0.035000
0.888091 0.696528 0.035000
0.903425 0.696171 0.035000
0.918758 0.695814 0.035000
0.934092 0.695457 0.035000
0.949425 0.695100 0.035000
0.964759 0.694743 0.035000
0.965000 0.694386 0.035000
0.088956 0.741529 0.035000
0.126012 0.740666 0.035000
0.163068 0.739804 0.035000
0.200124 0.738941 0.035000
0.237180 0.738079 0.035000
0.274236 0.737216 0.035000
0.311292 0.736354 0.035000
0.348348 0.735492 0.035000
0.385404 0.734629 0.035000
0.417349 0.733885 0.035000
0.449294 0.733142 0.035000
0.481239 0.732398 0.035000
0.513184 0.731655 0.035000
0.545129 0.730911 0.035000
0.577073 0.730168 0.035000
0.609018 0.729424 0.035000
0.640963 0.728681 0.035000
0.667797 0.728056 0.035000
0.694631 0.727432 0.035000
0.721464 0.726807 0.035000
0.748298 0.726183 0.035000
0.775132 0.725558 0.035000
0.801965 0.724933 0.035000
0.828799 0.724309 0.035000
0.855633 0.723684 0.035000
0.870966 0.723327 0.035000
0.886300 0.722971 0.035000
0.901633 0.722614 0.035000
0.916967 0.722257 0.035000
0.932301 0.721900 0.035000
0.947634 0.721543 0.035000
0.962968 0.721186 0.035000
0.965000 0.720829 0.035000
0.087164 0.767972 0.035000
0.124220 0.767109 0.035000
0.161276 0.766247 0.035000
0.198333 0.765384 0.035000
0.235389 0.764522 0.035000
0.272445 0.763659 0.035000
0.309501 0.762797 0.035000
0.346557 0.761934 0.035000
0.383613 0.761072 0.035000
0.415558 0.760328 0.035000
0.447503 0.759585 0.035000
0.479447 0.758841 0.035000
0.511392 0.758098 0.035000
0.543337 0.757354 0.035000
0.575282 0.756611 0.035000
0.607227 0.755867 0.035000
0.639172 0.755124 0.035000
0.666006 0.754499 0.035000
0.692839 0.753875 0.035000
0.719673 0.753250 0.035000
0.746507 0.752625 0.035000
0.773340 0.752001 0.035000
0.800174 0.751376 0.035000
0.827008 0.750752 0.035000
0.853841 0.750127 0.035000
0.869175 0.749770 0.035000
0.884509 0.749413 0.035000
0.899842 0.749057 0.035000
0.915176 0.748700 0.035000
0.930509 0.748343 0.035000
0.945843 0.747986 0.035000
0.961176 0.747629 0.035000
0.965000 0.747272 0.035000
0.085373 0.794415 0.035000
0.122429 0.793552 0.035000
0.159485 0.792690 0.035000
0.196541 0.791827 0.035000
0.233597 0.790965 0.035000
0.270653 0.790102 0.035000
0.307709 0.789240 0.035000
0.344765 0.788377 0.035000
0.381821 0.787515 0.035000
0.413766 0.786771 0.035000
0.445711 0.786028 0.035000
0.477656 0.785284 0.035000
0.509601 0.784541 0.035000
0.541546 0.783797 0.035000
0.573491 0.783054 0.035000
0.605436 0.782310 0.035000
0.637380 0.781567 0.035000
0.664214 0.780942 0.035000
0.691048 0.780317 0.035000
0.717882 0.779693 0.035000
0.744715 0.779068 0.035000
0.771549 0.778444 0.035000
0.798383 0.777819 0.035000
0.825216 0.777195 0.035000
0.852050 0.776570 0.035000
0.867384 0.776213 0.035000
0.882717 0.775856 0.035000
0.898051 0.775499 0.035000
0.913384 0.775143 0.035000
0.928718 0.774786 0.035000
0.944051 0.774429 0.035000
0.959385 0.774072 0.035000
0.965000 0.773715 0.035000
0.083582 0.820858 0.035000
0.120638 0.819995 0.035000
0.157694 0.819133 0.035000
0.194750 0.818270 0.035000
0.231806 0.817408 0.035000
0.268862 0.816545 0.035000
0.305918 0.815683 0.035000
0.342974 0.814820 0.035000
0.380030 0.813958 0.035000
0.411975 0.813214 0.035000
0.443920 0.812471 0.035000
0.475865 0.811727 0.035000
0.507810 0.810984 0.035000
0.539754 0.810240 0.035000
0.571699 0.809497 0.035000
0.603644 0.808753 0.035000
0.635589 0.808009 0.035000
0.662423 0.807385 0.035000
0.689256 0.806760 0.035000
0.716090 0.806136 0.035000
0.742924 0.805511 0.035000
0.769758 0.804887 0.035000
0.796591 0.804262 0.035000
0.823425 0.803638 0.035000
0.850259 0.803013 0.035000
0.865592 0.802656 0.035000
0.880926 0.802299 0.035000
0.896259 0.801942 0.035000
0.911593 0.801585 0.035000
0.926926 0.801229 0.035000
0.942260 0.800872 0.035000
0.957593 0.800515 0.035000
0.965000 0.800158 0.035000
0.082604 0.835281 0.035000
0.119661 0.834418 0.035000
0.156717 0.833556 0.035000
0.193773 0.832694 0.035000
0.230829 0.831831 0.035000
0.267885 0.830969 0.035000
0.304941 0.830106 0.035000
0.341997 0.829244 0.035000
0.379053 0.828381 0.035000
0.410998 0.827638 0.035000
0.442943 0.826894 0.035000
0.474888 0.826151 0.035000
0.506832 0.825407 0.035000
0.538777 0.824663 0.035000
0.570722 0.823920 0.035000
0.602667 0.823176 0.035000
0.634612 0.822433 0.035000
0.661446 0.821808 0.035000
0.688279 0.821184 0.035000
0.715113 0.820559 0.035000
0.741947 0.819935 0.035000
0.768780 0.819310 0.035000
0.795614 0.818686 0.035000
0.822448 0.818061 0.035000
0.849282 0.817436 0.035000
0.864615 0.817080 0.035000
0.879949 0.816723 0.035000
0.895282 0.816366 0.035000
0.910616 0.816009 0.035000
0.925949 0.815652 0.035000
0.941283 0.815295 0.035000
0.956616 0.814938 0.035000
0.965000 0.814581 0.035000
0.081627 0.849704 0.035000
0.118683 0.848842 0.035000
0.155739 0.847979 0.035000
0.192796 0.847117 0.035000
0.229852 0.846254 0.035000
0.266908 0.845392 0.035000
0.303964 0.844529 0.035000
0.341020 0.843667 0.035000
0.378076 0.842804 0.035000
0.410021 0.842061 0.035000
0.441966 0.841317 0.035000
0.473910 0.840574 0.035000
0.505855 0.839830 0.035000
0.537800 0.839087 0.035000
0.569745 0.838343 0.035000
0.601690 0.837600 0.035000
0.633635 0.836856 0.035000
0.660469 0.836232 0.035000
0.687302 0.835607 0.035000
0.714136 0.834983 0.035000
0.740970 0.834358 0.035000
0.767803 0.833733 0.035000
0.794637 0.833109 0.035000
0.821471 0.832484 0.035000
0.848304 0.831860 0.035000
0.863638 0.831503 0.035000
0.878971 0.831146 0.035000
0.894305 0.830789 0.035000
0.909639 0.830432 0.035000
