luts/lofi_grain_800.cube
TITLE "Lomography 800"
LUT_3D_SIZE 9
0.205286 0.087517 0.035000
0.348534 0.083586 0.035000
0.491782 0.079655 0.035000
0.615272 0.076266 0.035000
0.738759 0.072875 0.035000
0.842479 0.070018 0.035000
0.946200 0.067160 0.035000
0.965000 0.065527 0.035000
0.965000 0.064275 0.035000
0.180004 0.220573 0.035000
0.323241 0.216632 0.035000
0.466474 0.212686 0.035000
0.589951 0.209284 0.035000
0.713428 0.205883 0.035000
0.817148 0.203025 0.035000
0.920869 0.200168 0.035000
0.965000 0.198535 0.035000
0.965000 0.196950 0.035000
0.154676 0.353585 0.035000
0.297910 0.349639 0.035000
0.441143 0.345694 0.035000
0.564619 0.342292 0.035000
0.688096 0.338891 0.035000
0.791817 0.336033 0.035000
0.895537 0.333176 0.035000
0.954806 0.331543 0.035000
0.965000 0.329910 0.035000
0.130250 0.481843 0.035000
0.273483 0.477897 0.035000
0.416716 0.473951 0.035000
0.540193 0.470550 0.035000
0.663670 0.467148 0.035000
0.767390 0.464291 0.035000
0.873384 0.461659 0.035000
0.934718 0.460232 0.035000
0.965000 0.458804 0.035000
0.105823 0.610100 0.035000
0.249056 0.606155 0.035000
0.394361 0.602415 0.035000
0.522141 0.599440 0.035000
0.649920 0.596466 0.035000
0.757255 0.593968 0.035000
0.864590 0.591470 0.035000
0.925924 0.590042 0.035000
0.965000 0.588615 0.035000
0.090747 0.715086 0.035000
0.238971 0.711636 0.035000
0.387196 0.708186 0.035000
0.514975 0.705212 0.035000
0.642755 0.702238 0.035000
0.750089 0.699740 0.035000
0.857424 0.697241 0.035000
0.918758 0.695814 0.035000
0.965000 0.694386 0.035000
0.083582 0.820858 0.035000
0.231806 0.817408 0.035000
0.380030 0.813958 0.035000
0.507810 0.810984 0.035000
0.635589 0.808009 0.035000
0.742924 0.805511 0.035000
0.850259 0.803013 0.035000
0.911593 0.801585 0.035000
0.965000 0.800158 0.035000
0.079673 0.878551 0.035000
0.227897 0.875101 0.035000
0.376122 0.871651 0.035000
0.503901 0.868677 0.035000
0.631681 0.865703 0.035000
0.739015 0.863205 0.035000
0.846350 0.860707 0.035000
0.907684 0.859279 0.035000
0.965000 0.857851 0.035000
0.075765 0.936245 0.035000
0.223989 0.932795 0.035000
0.372213 0.929345 0.035000
0.499993 0.926371 0.035000
0.627772 0.923397 0.035000
0.735107 0.920898 0.035000
0.842442 0.918400 0.035000
0.903776 0.916973 0.035000
0.965000 0.915545 0.035000
0.203239 0.086507 0.138885
0.346472 0.082561 0.137508
0.489705 0.078615 0.136131
0.613182 0.075214 0.134944
0.736658 0.071812 0.133757
0.840379 0.068955 0.132760
0.944099 0.066097 0.131763
0.965000 0.064465 0.131193
0.965000 0.063184 0.130976
0.177907 0.219515 0.134413
0.321140 0.215569 0.133036
0.464373 0.211623 0.131659
0.587850 0.208221 0.130472
0.711327 0.204820 0.129284
0.815048 0.201963 0.128287
0.918768 0.199105 0.127290
0.965000 0.197473 0.126720
0.965000 0.195860 0.126170
0.152576 0.352522 0.129940
0.295809 0.348577 0.128563
0.439042 0.344631 0.127186
0.562519 0.341229 0.125999
0.685996 0.337828 0.124812
0.789716 0.334970 0.123815
0.893437 0.332113 0.122818
0.952706 0.330480 0.122248
0.965000 0.328848 0.121678
0.128149 0.480780 0.125627
0.271382 0.476834 0.124250
0.414615 0.472888 0.122873
0.538092 0.469487 0.121686
0.661569 0.466085 0.120499
0.765293 0.463228 0.119500
0.872628 0.460730 0.116537
0.933962 0.459303 0.114843
0.965000 0.457875 0.113150
0.103723 0.609038 0.121314
0.246956 0.605092 0.119937
0.393605 0.601485 0.116702
0.521384 0.598511 0.113174
0.649164 0.595537 0.109646
0.756499 0.593039 0.106683
0.863834 0.590541 0.103720
0.925168 0.589113 0.102027
0.965000 0.587686 0.100333
0.089991 0.714157 0.114443
0.238215 0.710707 0.110351
0.386439 0.707257 0.106258
0.514219 0.704283 0.102731
0.641998 0.701309 0.099203
0.749333 0.698810 0.096240
0.856668 0.696312 0.093277
0.918002 0.694885 0.091583
0.965000 0.693457 0.089890
0.082825 0.819928 0.103999
0.231050 0.816478 0.099907
0.379274 0.813028 0.095815
0.507053 0.810054 0.092287
0.634833 0.807080 0.088760
0.742168 0.804582 0.085796
0.849502 0.802084 0.082833
0.910837 0.800656 0.081140
0.965000 0.799229 0.079447
0.078917 0.877622 0.098303
0.227141 0.874172 0.094211
0.375365 0.870722 0.090119
0.503145 0.867748 0.086591
0.630924 0.864774 0.083063
0.738259 0.862276 0.080100
0.845594 0.859777 0.077137
0.906928 0.858350 0.075444
0.965000 0.856922 0.073750
0.075008 0.935316 0.092607
0.223233 0.931866 0.088515
0.371457 0.928416 0.084422
0.499236 0.925442 0.080895
0.627016 0.922467 0.077367
0.734351 0.919969 0.074404
0.841685 0.917471 0.071440
0.903020 0.916043 0.069747
0.964354 0.914616 0.068054
0.201138 0.085444 0.258298
0.344371 0.081498 0.256921
0.487604 0.077552 0.255544
0.611081 0.074151 0.254357
0.734558 0.070749 0.253170
0.838278 0.067892 0.252173
0.941999 0.065035 0.251176
0.965000 0.063402 0.250606
0.965000 0.062094 0.250361
0.175807 0.218452 0.253826
0.319040 0.214506 0.252449
0.462273 0.210560 0.251072
0.585750 0.207159 0.249885
0.709226 0.203757 0.248698
0.812947 0.200900 0.247700
0.916667 0.198043 0.246703
0.965000 0.196410 0.246133
0.965000 0.194777 0.245564
0.150475 0.351460 0.249353
0.293708 0.347514 0.247976
0.436942 0.343568 0.246599
0.560418 0.340167 0.245412
0.683895 0.336765 0.244225
0.787616 0.333908 0.243228
0.891336 0.331050 0.242231
0.950605 0.329418 0.241661
0.965000 0.327785 0.241091
0.126049 0.479717 0.245040
0.269282 0.475771 0.243663
0.412515 0.471826 0.242286
0.535992 0.468424 0.241099
0.659468 0.465023 0.239912
0.764537 0.462299 0.238182
0.871871 0.459801 0.235219
0.933206 0.458373 0.233525
0.965000 0.456946 0.231832
0.101622 0.607975 0.240727
0.244855 0.604029 0.239350
0.392849 0.600556 0.235384
0.520628 0.597582 0.231856
0.648408 0.594608 0.228328
0.755742 0.592110 0.225365
0.863077 0.589611 0.222402
0.924411 0.588184 0.220708
0.965000 0.586756 0.219015
0.089235 0.713228 0.233125
0.237459 0.709778 0.229032
0.385683 0.706328 0.224940
0.513463 0.703354 0.221413
0.641242 0.700380 0.217885
0.748577 0.697881 0.214922
0.855912 0.695383 0.211958
0.917246 0.693955 0.210265
0.965000 0.692528 0.208572
0.082069 0.818999 0.222681
0.230293 0.815549 0.218589
0.378518 0.812099 0.214497
0.506297 0.809125 0.210969
0.634077 0.806151 0.207442
0.741411 0.803653 0.204478
0.848746 0.801155 0.201515
0.910080 0.799727 0.199822
0.965000 0.798299 0.198128
0.078161 0.876693 0.216985
0.226385 0.873243 0.212893
0.374609 0.869793 0.208801
0.502389 0.866819 0.205273
0.630168 0.863845 0.201745
0.737503 0.861346 0.198782
0.844838 0.858848 0.195819
0.906172 0.857421 0.194125
0.965000 0.855993 0.192432
0.074252 0.934386 0.211289
0.222476 0.930936 0.207196
0.370701 0.927486 0.203104
0.498480 0.924512 0.199577
0.626260 0.921538 0.196049
0.733594 0.919040 0.193086
0.840929 0.916542 0.190122
0.902263 0.915114 0.188429
0.963598 0.913687 0.186736
0.198855 0.084289 0.388095
0.342088 0.080343 0.386718
0.485321 0.076397 0.385341
0.608798 0.072996 0.384154
0.732275 0.069594 0.382967
0.835995 0.066737 0.381970
0.939716 0.063880 0.380973
0.965000 0.062247 0.380403
0.965000 0.060909 0.380128
0.173523 0.217297 0.383623
0.316757 0.213351 0.382246
0.459990 0.209405 0.380869
0.583466 0.206003 0.379682
0.706943 0.202602 0.378494
0.810664 0.199745 0.377497
0.914384 0.196887 0.376500
0.965000 0.195255 0.375930
0.965000 0.193622 0.375361
0.148192 0.350304 0.379150
0.291425 0.346359 0.377773
0.434658 0.342413 0.376396
0.558135 0.339011 0.375209
0.681612 0.335610 0.374022
0.785332 0.332753 0.373025
0.889053 0.329895 0.372027
0.948322 0.328263 0.371458
0.965000 0.326630 0.370888
0.123765 0.478562 0.374837
0.266999 0.474616 0.373460
0.410232 0.470670 0.372083
0.533708 0.467269 0.370896
0.657185 0.463867 0.369709
0.763715 0.461289 0.367184
0.871049 0.458791 0.364220
0.932384 0.457363 0.362527
0.965000 0.455936 0.360834
0.099339 0.606820 0.370524
0.243802 0.602996 0.368478
0.392027 0.599546 0.364386
0.519806 0.596572 0.360858
0.647586 0.593598 0.357330
0.754920 0.591100 0.354367
0.862255 0.588601 0.351404
0.923589 0.587174 0.349710
0.965000 0.585746 0.348017
0.088413 0.712218 0.362127
0.236637 0.708768 0.358034
0.384861 0.705318 0.353942
0.512641 0.702344 0.350415
0.640420 0.699369 0.346887
0.747755 0.696871 0.343924
0.855090 0.694373 0.340960
0.916424 0.692945 0.339267
0.965000 0.691518 0.337574
0.081247 0.817989 0.351683
0.229471 0.814539 0.347591
0.377696 0.811089 0.343499
0.505475 0.808115 0.339971
0.633255 0.805141 0.336444
0.740589 0.802643 0.333480
0.847924 0.800145 0.330517
0.909258 0.798717 0.328824
0.965000 0.797289 0.327130
0.077339 0.875683 0.345987
0.225563 0.872233 0.341895
0.373787 0.868783 0.337803
0.501567 0.865809 0.334275
0.629346 0.862835 0.330747
0.736681 0.860336 0.327784
0.844016 0.857838 0.324821
0.905350 0.856411 0.323127
0.965000 0.854983 0.321434
0.073430 0.933376 0.340290
0.221654 0.929926 0.336198
0.369879 0.926476 0.332106
0.497658 0.923502 0.328578
0.625438 0.920528 0.325051
0.732772 0.918030 0.322088
0.840107 0.915532 0.319124
0.901441 0.914104 0.317431
0.962776 0.912677 0.315738
0.196572 0.083134 0.517892
0.339805 0.079188 0.516515
0.483038 0.075242 0.515138
0.606515 0.071840 0.513951
0.729991 0.068439 0.512764
0.833712 0.065582 0.511767
0.937432 0.062724 0.510770
0.965000 0.061092 0.510200
0.965000 0.059724 0.509895
0.171240 0.216141 0.513420
0.314473 0.212196 0.512043
0.457706 0.208250 0.510665
0.581183 0.204848 0.509478
0.704660 0.201447 0.508291
0.808381 0.198589 0.507294
0.912101 0.195732 0.506297
0.965000 0.194099 0.505727
0.965000 0.192467 0.505157
0.145909 0.349149 0.508947
0.289142 0.345203 0.507570
0.432375 0.341258 0.506193
0.555852 0.337856 0.505006
0.679329 0.334455 0.503819
0.783049 0.331597 0.502821
0.886770 0.328740 0.501824
0.946039 0.327107 0.501255
0.965000 0.325475 0.500685
0.121482 0.477407 0.504634
0.264715 0.473461 0.503257
0.407948 0.469515 0.501880
0.531425 0.466114 0.500693
0.655558 0.462777 0.499149
0.762893 0.460279 0.496186
0.870227 0.457781 0.493222
0.931561 0.456353 0.491529
0.965000 0.454926 0.489836
0.097056 0.605664 0.500321
0.242980 0.601986 0.497480
0.391205 0.598536 0.493388
0.518984 0.595562 0.489860
0.646764 0.592588 0.486332
0.754098 0.590090 0.483369
0.861433 0.587591 0.480406
0.922767 0.586164 0.478712
0.965000 0.584736 0.477019
0.087591 0.711208 0.491129
0.235815 0.707758 0.487036
0.384039 0.704308 0.482944
0.511819 0.701334 0.479417
0.639598 0.698359 0.475889
0.746933 0.695861 0.472926
0.854268 0.693363 0.469962
0.915602 0.691935 0.468269
0.965000 0.690508 0.466576
0.080425 0.816979 0.480685
0.228649 0.813529 0.476593
0.376874 0.810079 0.472501
0.504653 0.807105 0.468973
0.632433 0.804131 0.465445
0.739767 0.801633 0.462482
0.847102 0.799135 0.459519
0.908436 0.797707 0.457826
0.965000 0.796279 0.456132
0.076517 0.874673 0.474989
0.224741 0.871223 0.470897
0.372965 0.867773 0.466805
0.500745 0.864799 0.463277
0.628524 0.861825 0.459749
0.735859 0.859326 0.456786
0.843194 0.856828 0.453823
0.904528 0.855401 0.452129
0.965000 0.853973 0.450436
0.072608 0.932366 0.469292
0.220832 0.928916 0.465200
0.369057 0.925466 0.461108
0.496836 0.922492 0.457580
0.624616 0.919518 0.454053
0.731950 0.917020 0.451089
0.839285 0.914522 0.448126
0.900619 0.913094 0.446433
0.961953 0.911667 0.444740
0.194562 0.082117 0.632113
0.337795 0.078171 0.630736
0.481028 0.074225 0.629359
0.604505 0.070824 0.628172
0.727982 0.067422 0.626985
0.831703 0.064565 0.625988
0.935423 0.061708 0.624991
0.965000 0.060075 0.624421
0.965000 0.058681 0.624090
0.169231 0.215125 0.627641
0.312464 0.211179 0.626264
0.455697 0.207233 0.624887
0.579174 0.203832 0.623700
0.702651 0.200430 0.622513
0.806371 0.197573 0.621515
0.910092 0.194716 0.620518
0.965000 0.193083 0.619948
0.965000 0.191450 0.619379
0.143900 0.348133 0.623168
0.287133 0.344187 0.621791
0.430366 0.340241 0.620414
0.553843 0.336840 0.619227
0.677319 0.333438 0.618040
0.781040 0.330581 0.617043
0.884760 0.327724 0.616046
0.944029 0.326091 0.615476
0.965000 0.324458 0.614906
0.119473 0.476390 0.618855
0.262706 0.472445 0.617478
0.405939 0.468499 0.616101
0.529416 0.465097 0.614914
0.654834 0.461889 0.612671
0.762169 0.459390 0.609707
0.869504 0.456892 0.606744
0.930838 0.455465 0.605051
0.965000 0.454037 0.603358
0.095046 0.604648 0.614542
0.242257 0.601097 0.611001
0.390481 0.597647 0.606909
0.518261 0.594673 0.603382
0.646040 0.591699 0.599854
0.753375 0.589201 0.596891
0.860710 0.586703 0.593927
0.922044 0.585275 0.592234
0.965000 0.583847 0.590541
0.086867 0.710319 0.604650
0.235091 0.706869 0.600558
0.383316 0.703419 0.596466
0.511095 0.700445 0.592938
0.638875 0.697471 0.589411
0.746210 0.694972 0.586447
0.853544 0.692474 0.583484
0.914878 0.691047 0.581791
0.965000 0.689619 0.580097
0.079702 0.816090 0.594207
0.227926 0.812640 0.590115
0.376150 0.809190 0.586023
0.503930 0.806216 0.582495
0.631709 0.803242 0.578967
0.739044 0.800744 0.576004
0.846379 0.798246 0.573041
0.907713 0.796818 0.571347
0.965000 0.795391 0.569654
0.075793 0.873784 0.588511
0.224017 0.870334 0.584418
0.372242 0.866884 0.580326
0.500021 0.863910 0.576799
0.627801 0.860936 0.573271
0.735135 0.858438 0.570308
0.842470 0.855939 0.567344
0.903804 0.854512 0.565651
0.965000 0.853084 0.563958
0.071885 0.931477 0.582814
0.220109 0.928028 0.578722
0.368333 0.924578 0.574630
0.496113 0.921603 0.571102
0.623892 0.918629 0.567574
0.731227 0.916131 0.564611
0.838562 0.913633 0.561648
0.899896 0.912205 0.559955
0.961230 0.910778 0.558261
0.192553 0.081100 0.746335
0.335786 0.077155 0.744958
0.479019 0.073209 0.743581
0.602496 0.069807 0.742394
0.725973 0.066406 0.741206
0.829693 0.063549 0.740209
0.933414 0.060691 0.739212
0.965000 0.059058 0.738642
0.965000 0.057638 0.738285
0.167222 0.214108 0.741862
0.310455 0.210163 0.740485
0.453688 0.206217 0.739108
0.577165 0.202815 0.737921
0.700642 0.199414 0.736734
0.804362 0.196556 0.735737
0.908083 0.193699 0.734739
0.965000 0.192066 0.734170
0.965000 0.190434 0.733600
0.141890 0.347116 0.737389
0.285123 0.343170 0.736012
0.428357 0.339225 0.734635
0.551833 0.335823 0.733448
0.675310 0.332422 0.732261
0.779031 0.329564 0.731264
0.882751 0.326707 0.730267
0.942020 0.325074 0.729697
0.965000 0.323441 0.729127
0.117464 0.475374 0.733076
0.260697 0.471428 0.731699
0.403930 0.467482 0.730322
0.527407 0.464081 0.729135
0.654111 0.461000 0.726192
0.761446 0.458502 0.723229
0.868781 0.456003 0.720266
0.930115 0.454576 0.718573
0.965000 0.453148 0.716879
0.093309 0.603658 0.728615
0.241534 0.600208 0.724523
0.389758 0.596758 0.720431
0.517537 0.593784 0.716903
0.645317 0.590810 0.713376
0.752652 0.588312 0.710412
0.859987 0.585814 0.707449
0.921321 0.584386 0.705756
0.965000 0.582959 0.704062
0.086144 0.709430 0.718172
0.234368 0.705980 0.714080
0.382592 0.702530 0.709988
0.510372 0.699556 0.706460
0.638151 0.696582 0.702932
0.745486 0.694084 0.699969
0.852821 0.691585 0.697006
0.914155 0.690158 0.695312
0.965000 0.688730 0.693619
0.078978 0.815201 0.707729
0.227203 0.811752 0.703637
0.375427 0.808302 0.699544
0.503206 0.805327 0.696017
0.630986 0.802353 0.692489
0.738321 0.799855 0.689526
0.845655 0.797357 0.686562
0.906990 0.795929 0.684869
0.965000 0.794502 0.683176
0.075070 0.872895 0.702032
0.223294 0.869445 0.697940
0.371518 0.865995 0.693848
0.499298 0.863021 0.690320
0.627077 0.860047 0.686793
0.734412 0.857549 0.683829
0.841747 0.855050 0.680866
0.903081 0.853623 0.679173
0.964415 0.852195 0.677479
0.071161 0.930589 0.696336
0.219386 0.927139 0.692244
0.367610 0.923689 0.688152
0.495389 0.920715 0.684624
0.623169 0.917741 0.681096
0.730504 0.915242 0.678133
0.837838 0.912744 0.675170
0.899173 0.911316 0.673476
0.960507 0.909889 0.671783
0.191366 0.080500 0.813829
0.334599 0.076554 0.812452
0.477832 0.072608 0.811075
0.601309 0.069207 0.809888
0.724786 0.065805 0.808701
0.828506 0.062948 0.807704
0.932227 0.060091 0.806706
0.965000 0.058458 0.806137
0.965000 0.057022 0.805763
0.166034 0.213508 0.809356
0.309268 0.209562 0.807979
0.452501 0.205616 0.806602
0.575977 0.202215 0.805415
0.699454 0.198813 0.804228
0.803175 0.195956 0.803231
0.906895 0.193098 0.802234
0.965000 0.191466 0.801664
0.965000 0.189833 0.801094
0.140703 0.346515 0.804884
0.283936 0.342570 0.803507
0.427169 0.338624 0.802130
0.550646 0.335222 0.800943
0.674123 0.331821 0.799755
0.777843 0.328964 0.798758
0.881564 0.326106 0.797761
0.940833 0.324474 0.797191
0.965000 0.322841 0.796622
0.116276 0.474773 0.800571
0.259510 0.470827 0.799194
0.402743 0.466881 0.797817
0.526219 0.463480 0.796630
0.653684 0.460475 0.793274
0.761018 0.457976 0.790310
0.868353 0.455478 0.787347
0.929687 0.454050 0.785654
0.965000 0.452623 0.783960
0.092882 0.603133 0.795696
0.241106 0.599683 0.791604
0.389330 0.596233 0.787512
0.517110 0.593259 0.783984
0.644889 0.590285 0.780457
0.752224 0.587787 0.777493
0.859559 0.585289 0.774530
0.920893 0.583861 0.772837
0.965000 0.582433 0.771144
0.085716 0.708905 0.785253
0.233941 0.705455 0.781161
0.382165 0.702005 0.777069
0.509944 0.699031 0.773541
0.637724 0.696057 0.770013
0.745059 0.693558 0.767050
0.852394 0.691060 0.764087
0.913728 0.689633 0.762393
0.965000 0.688205 0.760700
0.078551 0.814676 0.774810
0.226775 0.811226 0.770718
0.374999 0.807776 0.766625
0.502779 0.804802 0.763098
0.630558 0.801828 0.759570
0.737893 0.799330 0.756607
0.845228 0.796832 0.753643
0.906562 0.795404 0.751950
0.965000 0.793977 0.750257
0.074642 0.872370 0.769113
0.222867 0.868920 0.765021
0.371091 0.865470 0.760929
0.498870 0.862496 0.757401
0.626650 0.859522 0.753874
0.733985 0.857024 0.750910
0.841319 0.854525 0.747947
0.902654 0.853098 0.746254
0.963988 0.851670 0.744560
0.070734 0.930063 0.763417
0.218958 0.926613 0.759325
0.367182 0.923164 0.755233
0.494962 0.920189 0.751705
0.622741 0.917215 0.748177
0.730076 0.914717 0.745214
0.837411 0.912219 0.742251
0.898745 0.910791 0.740557
0.960079 0.909364 0.738864
0.190178 0.079899 0.881323
0.333412 0.075953 0.879946
0.476645 0.072007 0.878569
0.600121 0.068606 0.877382
0.723598 0.065204 0.876195
0.827319 0.062347 0.875198
0.931039 0.059490 0.874201
0.965000 0.057857 0.873631
0.965000 0.056405 0.873242
0.164847 0.212907 0.876851
0.308080 0.208961 0.875474
0.451313 0.205015 0.874097
0.574790 0.201614 0.872910
0.698267 0.198212 0.871723
0.801987 0.195355 0.870725
0.905708 0.192498 0.869728
0.964977 0.190865 0.869158
0.965000 0.189232 0.868589
0.139516 0.345915 0.872378
0.282749 0.341969 0.871001
0.425982 0.338023 0.869624
0.549459 0.334622 0.868437
0.672936 0.331220 0.867250
0.776656 0.328363 0.866253
0.880377 0.325506 0.865256
0.939646 0.323873 0.864686
0.965000 0.322287 0.863858
0.115089 0.474172 0.868065
0.258322 0.470227 0.866688
0.401555 0.466281 0.865311
0.525477 0.462923 0.863882
0.653256 0.459949 0.860355
0.760591 0.457451 0.857391
0.867926 0.454953 0.854428
0.929260 0.453525 0.852735
0.965000 0.452098 0.851041
0.092455 0.602608 0.862777
0.240679 0.599158 0.858685
0.388903 0.595708 0.854593
0.516683 0.592734 0.851065
0.644462 0.589760 0.847538
0.751797 0.587262 0.844574
0.859132 0.584763 0.841611
0.920466 0.583336 0.839918
0.965000 0.581908 0.838225
0.085289 0.708380 0.852334
0.233513 0.704930 0.848242
0.381737 0.701480 0.844150
0.509517 0.698506 0.840622
0.637296 0.695531 0.837094
0.744631 0.693033 0.834131
0.851966 0.690535 0.831168
0.913300 0.689107 0.829475
0.965000 0.687680 0.827781
0.078123 0.814151 0.841891
0.226348 0.810701 0.837799
0.374572 0.807251 0.833706
0.502351 0.804277 0.830179
0.630131 0.801303 0.826651
0.737466 0.798805 0.823688
0.844801 0.796306 0.820724
0.906135 0.794879 0.819031
0.965000 0.793451 0.817338
0.074215 0.871845 0.836194
0.222439 0.868395 0.832102
0.370663 0.864945 0.828010
0.498443 0.861971 0.824482
0.626222 0.858997 0.820955
0.733557 0.856498 0.817991
0.840892 0.854000 0.815028
0.902226 0.852572 0.813335
0.963560 0.851145 0.811641
0.070306 0.929538 0.830498
0.218531 0.926088 0.826406
0.366755 0.922638 0.822314
0.494534 0.919664 0.818786
0.622314 0.916690 0.815258
0.729649 0.914192 0.812295
0.836984 0.911694 0.809332
0.898318 0.910266 0.807638
0.959652 0.908838 0.805945
