luts/medium_format.cube
TITLE "Camera Hasselblad"
LUT_3D_SIZE 5
0.010036 0.010036 0.019536
0.250194 0.012694 0.022194
0.484862 0.015290 0.024790
0.718158 0.017872 0.027372
0.951453 0.020454 0.029953
0.018976 0.256476 0.028476
0.259134 0.259134 0.031134
0.493802 0.261730 0.033730
0.727098 0.264312 0.036312
0.960394 0.266894 0.038894
0.027712 0.497283 0.037212
0.267869 0.499941 0.039869
0.502537 0.502537 0.042466
0.735851 0.505535 0.045862
0.969192 0.509142 0.050450
0.036429 0.737435 0.047370
0.276632 0.741148 0.052093
0.511345 0.744776 0.056708
0.744685 0.748383 0.061296
0.978025 0.751990 0.065884
0.045263 0.980284 0.062804
0.285466 0.983997 0.067527
0.520179 0.987625 0.072142
0.753519 0.991232 0.076730
0.986859 0.994839 0.081318
0.010939 0.010939 0.257939
0.251096 0.013596 0.260596
0.485764 0.016193 0.263193
0.719060 0.018774 0.265774
0.952356 0.021356 0.268356
0.019879 0.257379 0.266879
0.260036 0.260036 0.269536
0.494704 0.262633 0.272133
0.728000 0.265214 0.274714
0.961296 0.267796 0.277296
0.028614 0.498186 0.275614
0.268772 0.500843 0.278272
0.503440 0.503440 0.280869
0.736769 0.506796 0.284966
0.970110 0.510403 0.289554
0.037347 0.738696 0.286474
0.277550 0.742409 0.291197
0.512263 0.746037 0.295812
0.745603 0.749644 0.300400
0.978943 0.753251 0.304988
0.046181 0.981545 0.301908
0.286384 0.985258 0.306631
0.521097 0.988886 0.311246
0.754437 0.992493 0.315834
0.987777 0.996100 0.320422
0.011820 0.011820 0.490892
0.251978 0.014478 0.493549
0.486646 0.017075 0.496146
0.719942 0.019656 0.498728
0.953238 0.022238 0.501309
0.020760 0.258260 0.499832
0.260918 0.260918 0.502489
0.495586 0.263515 0.505086
0.728882 0.266096 0.507668
0.962178 0.268678 0.510249
0.029496 0.499068 0.508568
0.269654 0.501725 0.511225
0.504326 0.504421 0.514016
0.737666 0.508028 0.518604
0.971007 0.511635 0.523192
0.038244 0.739928 0.520113
0.278447 0.743641 0.524836
0.513160 0.747270 0.529451
0.746500 0.750877 0.534039
0.979840 0.754483 0.538626
0.047078 0.982777 0.535547
0.287281 0.986490 0.540270
0.521994 0.990118 0.544885
0.755334 0.993725 0.549473
0.988674 0.997332 0.554061
0.012697 0.012697 0.722483
0.252855 0.015355 0.725140
0.487523 0.017951 0.727737
0.720819 0.020533 0.730319
0.954115 0.023115 0.732900
0.021637 0.259137 0.731423
0.261795 0.261795 0.734080
0.496463 0.264391 0.736677
0.729759 0.266973 0.739259
0.963055 0.269555 0.741840
0.030373 0.499944 0.740159
0.270530 0.502602 0.742816
0.505218 0.505646 0.746289
0.738558 0.509253 0.750877
0.971898 0.512860 0.755465
0.039136 0.741153 0.752385
0.279339 0.744866 0.757108
0.514052 0.748495 0.761723
0.747392 0.752101 0.766311
0.980732 0.755708 0.770899
0.047970 0.984002 0.767819
0.288173 0.987715 0.772542
0.522886 0.991343 0.777157
0.756226 0.994950 0.781745
0.989566 0.998557 0.786333
0.013574 0.013574 0.954074
0.253731 0.016231 0.956731
0.488400 0.018828 0.959328
0.721695 0.021410 0.961910
0.954991 0.023991 0.964491
0.022514 0.260014 0.963014
0.262671 0.262671 0.965671
0.497340 0.265268 0.968268
0.730635 0.267850 0.970850
0.963931 0.270431 0.973431
0.031250 0.500821 0.971750
0.271407 0.503478 0.974407
0.506104 0.506865 0.977032
0.739437 0.510465 0.979651
0.972769 0.514064 0.982269
0.040012 0.742363 0.980512
0.280207 0.746068 0.983207
0.514913 0.749689 0.985841
0.748245 0.753288 0.988460
0.981578 0.756888 0.991078
0.048821 0.985186 0.989321
0.289016 0.988891 0.992016
0.523721 0.992512 0.994650
0.757054 0.996111 0.997269
0.990387 0.999711 0.999887
