luts/medium_format.cube
TITLE "Camera Hasselblad"
LUT_3D_SIZE 33
0.010036 0.010036 0.019536
0.040056 0.010368 0.019868
0.070075 0.010700 0.020200
0.100095 0.011033 0.020533
0.130115 0.011365 0.020865
0.160135 0.011697 0.021197
0.190154 0.012029 0.021529
0.220174 0.012361 0.021861
0.250194 0.012694 0.022194
0.280213 0.013026 0.022526
0.309890 0.013354 0.022854
0.339052 0.013677 0.023177
0.368214 0.014000 0.023500
0.397376 0.014322 0.023822
0.426538 0.014645 0.024145
0.455700 0.014968 0.024468
0.484862 0.015290 0.024790
0.514024 0.015613 0.025113
0.543186 0.015936 0.025436
0.572348 0.016258 0.025758
0.601510 0.016581 0.026081
0.630672 0.016904 0.026404
0.659834 0.017227 0.026727
0.688996 0.017549 0.027049
0.718158 0.017872 0.027372
0.747320 0.018195 0.027695
0.776482 0.018517 0.028017
0.805644 0.018840 0.028340
0.834806 0.019163 0.028663
0.863968 0.019485 0.028985
0.893130 0.019808 0.029308
0.922292 0.020131 0.029631
0.951453 0.020454 0.029953
0.011154 0.040841 0.020654
0.041173 0.041173 0.020986
0.071193 0.041505 0.021318
0.101213 0.041838 0.021650
0.131232 0.042170 0.021982
0.161252 0.042502 0.022315
0.191272 0.042834 0.022647
0.221291 0.043166 0.022979
0.251311 0.043499 0.023311
0.281331 0.043831 0.023643
0.311007 0.044159 0.023972
0.340169 0.044482 0.024294
0.369331 0.044805 0.024617
0.398493 0.045127 0.024940
0.427655 0.045450 0.025262
0.456817 0.045773 0.025585
0.485979 0.046095 0.025908
0.515141 0.046418 0.026231
0.544303 0.046741 0.026553
0.573465 0.047063 0.026876
0.602627 0.047386 0.027199
0.631789 0.047709 0.027521
0.660951 0.048032 0.027844
0.690113 0.048354 0.028167
0.719275 0.048677 0.028489
0.748437 0.049000 0.028812
0.777599 0.049322 0.029135
0.806761 0.049645 0.029458
0.835923 0.049968 0.029780
0.865085 0.050290 0.030103
0.894247 0.050613 0.030426
0.923409 0.050936 0.030748
0.952571 0.051259 0.031071
0.012271 0.071646 0.021771
0.042291 0.071978 0.022103
0.072310 0.072310 0.022435
0.102330 0.072643 0.022768
0.132350 0.072975 0.023100
0.162370 0.073307 0.023432
0.192389 0.073639 0.023764
0.222409 0.073971 0.024096
0.252429 0.074304 0.024429
0.282448 0.074636 0.024761
0.312125 0.074964 0.025089
0.341287 0.075287 0.025412
0.370449 0.075610 0.025735
0.399611 0.075932 0.026057
0.428773 0.076255 0.026380
0.457935 0.076578 0.026703
0.487097 0.076900 0.027025
0.516259 0.077223 0.027348
0.545421 0.077546 0.027671
0.574583 0.077868 0.027993
0.603745 0.078191 0.028316
0.632907 0.078514 0.028639
0.662069 0.078837 0.028962
0.691231 0.079159 0.029284
0.720393 0.079482 0.029607
0.749555 0.079805 0.029930
0.778717 0.080127 0.030252
0.807879 0.080450 0.030575
0.837041 0.080773 0.030898
0.866203 0.081095 0.031220
0.895365 0.081418 0.031543
0.924527 0.081741 0.031866
0.953688 0.082064 0.032189
0.013389 0.102451 0.022889
0.043408 0.102783 0.023221
0.073428 0.103115 0.023553
0.103448 0.103448 0.023885
0.133467 0.103780 0.024217
0.163487 0.104112 0.024550
0.193507 0.104444 0.024882
0.223526 0.104776 0.025214
0.253546 0.105109 0.025546
0.283566 0.105441 0.025878
0.313242 0.105769 0.026207
0.342404 0.106092 0.026529
0.371566 0.106415 0.026852
0.400728 0.106737 0.027175
0.429890 0.107060 0.027497
0.459052 0.107383 0.027820
0.488214 0.107705 0.028143
0.517376 0.108028 0.028466
0.546538 0.108351 0.028788
0.575700 0.108673 0.029111
0.604862 0.108996 0.029434
0.634024 0.109319 0.029756
0.663186 0.109642 0.030079
0.692348 0.109964 0.030402
0.721510 0.110287 0.030724
0.750672 0.110610 0.031047
0.779834 0.110932 0.031370
0.808996 0.111255 0.031693
0.838158 0.111578 0.032015
0.867320 0.111900 0.032338
0.896482 0.112223 0.032661
0.925644 0.112546 0.032983
0.954806 0.112869 0.033306
0.014506 0.133256 0.024006
0.044526 0.133588 0.024338
0.074545 0.133920 0.024670
0.104565 0.134253 0.025003
0.134585 0.134585 0.025335
0.164605 0.134917 0.025667
0.194624 0.135249 0.025999
0.224644 0.135581 0.026331
0.254664 0.135914 0.026664
0.284683 0.136246 0.026996
0.314360 0.136574 0.027324
0.343522 0.136897 0.027647
0.372684 0.137220 0.027970
0.401846 0.137542 0.028292
0.431008 0.137865 0.028615
0.460170 0.138188 0.028938
0.489332 0.138510 0.029260
0.518494 0.138833 0.029583
0.547656 0.139156 0.029906
0.576818 0.139478 0.030228
0.605980 0.139801 0.030551
0.635142 0.140124 0.030874
0.664304 0.140447 0.031197
0.693466 0.140769 0.031519
0.722628 0.141092 0.031842
0.751790 0.141415 0.032165
0.780952 0.141737 0.032487
0.810114 0.142060 0.032810
0.839276 0.142383 0.033133
0.868438 0.142705 0.033455
0.897600 0.143028 0.033778
0.926762 0.143351 0.034101
0.955923 0.143674 0.034424
0.015624 0.164061 0.025124
0.045643 0.164393 0.025456
0.075663 0.164725 0.025788
0.105683 0.165058 0.026120
0.135702 0.165390 0.026452
0.165722 0.165722 0.026785
0.195742 0.166054 0.027117
0.225761 0.166386 0.027449
0.255781 0.166719 0.027781
0.285801 0.167051 0.028113
0.315477 0.167379 0.028442
0.344639 0.167702 0.028764
0.373801 0.168025 0.029087
0.402963 0.168347 0.029410
0.432125 0.168670 0.029732
0.461287 0.168993 0.030055
0.490449 0.169315 0.030378
0.519611 0.169638 0.030701
0.548773 0.169961 0.031023
0.577935 0.170283 0.031346
0.607097 0.170606 0.031669
0.636259 0.170929 0.031991
0.665421 0.171252 0.032314
0.694583 0.171574 0.032637
0.723745 0.171897 0.032959
0.752907 0.172220 0.033282
0.782069 0.172542 0.033605
0.811231 0.172865 0.033928
0.840393 0.173188 0.034250
0.869555 0.173510 0.034573
0.898717 0.173833 0.034896
0.927879 0.174156 0.035218
0.957041 0.174479 0.035541
0.016741 0.194866 0.026241
0.046761 0.195198 0.026573
0.076780 0.195530 0.026905
0.106800 0.195863 0.027238
0.136820 0.196195 0.027570
0.166840 0.196527 0.027902
0.196859 0.196859 0.028234
0.226879 0.197191 0.028566
0.256899 0.197524 0.028899
0.286918 0.197856 0.029231
0.316595 0.198184 0.029559
0.345757 0.198507 0.029882
0.374919 0.198830 0.030205
0.404081 0.199152 0.030527
0.433243 0.199475 0.030850
0.462405 0.199798 0.031173
0.491567 0.200120 0.031495
0.520729 0.200443 0.031818
0.549891 0.200766 0.032141
0.579053 0.201088 0.032463
0.608215 0.201411 0.032786
0.637377 0.201734 0.033109
0.666539 0.202057 0.033432
0.695701 0.202379 0.033754
0.724863 0.202702 0.034077
0.754025 0.203025 0.034400
0.783187 0.203347 0.034722
0.812349 0.203670 0.035045
0.841511 0.203993 0.035368
0.870673 0.204315 0.035690
0.899835 0.204638 0.036013
0.928997 0.204961 0.036336
0.958158 0.205284 0.036659
0.017859 0.225671 0.027359
0.047878 0.226003 0.027691
0.077898 0.226335 0.028023
0.107918 0.226668 0.028355
0.137937 0.227000 0.028687
0.167957 0.227332 0.029020
0.197977 0.227664 0.029352
0.227996 0.227996 0.029684
0.258016 0.228329 0.030016
0.288036 0.228661 0.030348
0.317712 0.228989 0.030677
0.346874 0.229312 0.030999
0.376036 0.229635 0.031322
0.405198 0.229957 0.031645
0.434360 0.230280 0.031967
0.463522 0.230603 0.032290
0.492684 0.230925 0.032613
0.521846 0.231248 0.032936
0.551008 0.231571 0.033258
0.580170 0.231893 0.033581
0.609332 0.232216 0.033904
0.638494 0.232539 0.034226
0.667656 0.232862 0.034549
0.696818 0.233184 0.034872
0.725980 0.233507 0.035194
0.755142 0.233830 0.035517
0.784304 0.234152 0.035840
0.813466 0.234475 0.036163
0.842628 0.234798 0.036485
0.871790 0.235120 0.036808
0.900952 0.235443 0.037131
0.930114 0.235766 0.037453
0.959276 0.236089 0.037776
0.018976 0.256476 0.028476
0.048996 0.256808 0.028808
0.079015 0.257140 0.029140
0.109035 0.257473 0.029473
0.139055 0.257805 0.029805
0.169075 0.258137 0.030137
0.199094 0.258469 0.030469
0.229114 0.258801 0.030801
0.259134 0.259134 0.031134
0.289153 0.259466 0.031466
0.318830 0.259794 0.031794
0.347992 0.260117 0.032117
0.377154 0.260440 0.032440
0.406316 0.260762 0.032762
0.435478 0.261085 0.033085
0.464640 0.261408 0.033408
0.493802 0.261730 0.033730
0.522964 0.262053 0.034053
0.552126 0.262376 0.034376
0.581288 0.262698 0.034698
0.610450 0.263021 0.035021
0.639612 0.263344 0.035344
0.668774 0.263667 0.035667
0.697936 0.263989 0.035989
0.727098 0.264312 0.036312
0.756260 0.264635 0.036635
0.785422 0.264957 0.036957
0.814584 0.265280 0.037280
0.843746 0.265603 0.037603
0.872908 0.265925 0.037925
0.902070 0.266248 0.038248
0.931232 0.266571 0.038571
0.960394 0.266894 0.038894
0.020094 0.287281 0.029594
0.050113 0.287613 0.029926
0.080133 0.287945 0.030258
0.110153 0.288278 0.030590
0.140172 0.288610 0.030922
0.170192 0.288942 0.031255
0.200212 0.289274 0.031587
0.230231 0.289606 0.031919
0.260251 0.289939 0.032251
0.290271 0.290271 0.032583
0.319947 0.290599 0.032912
0.349109 0.290922 0.033234
0.378271 0.291245 0.033557
0.407433 0.291567 0.033880
0.436595 0.291890 0.034202
0.465757 0.292213 0.034525
0.494919 0.292535 0.034848
0.524081 0.292858 0.035171
0.553243 0.293181 0.035493
0.582405 0.293503 0.035816
0.611567 0.293826 0.036139
0.640729 0.294149 0.036461
0.669891 0.294472 0.036784
0.699053 0.294794 0.037107
0.728215 0.295117 0.037429
0.757377 0.295440 0.037752
0.786539 0.295762 0.038075
0.815701 0.296085 0.038398
0.844863 0.296408 0.038720
0.874025 0.296730 0.039043
0.903187 0.297053 0.039366
0.932349 0.297376 0.039688
0.961511 0.297699 0.040011
0.021198 0.317734 0.030698
0.051218 0.318066 0.031031
0.081238 0.318398 0.031363
0.111257 0.318731 0.031695
0.141277 0.319063 0.032027
0.171297 0.319395 0.032359
0.201316 0.319727 0.032691
0.231336 0.320059 0.033024
0.261356 0.320392 0.033356
0.291376 0.320724 0.033688
0.321052 0.321052 0.034016
0.350214 0.321375 0.034339
0.379376 0.321698 0.034662
0.408538 0.322020 0.034984
0.437700 0.322343 0.035307
0.466862 0.322666 0.035630
0.496024 0.322988 0.035953
0.525186 0.323311 0.036275
0.554348 0.323634 0.036598
0.583510 0.323956 0.036921
0.612672 0.324279 0.037243
0.641834 0.324602 0.037566
0.670996 0.324924 0.037889
0.700158 0.325247 0.038211
0.729320 0.325570 0.038534
0.758482 0.325893 0.038857
0.787644 0.326215 0.039180
0.816806 0.326538 0.039502
0.845968 0.326861 0.039825
0.875130 0.327183 0.040148
0.904292 0.327506 0.040470
0.933454 0.327829 0.040793
0.962616 0.328151 0.041116
0.022284 0.347659 0.031784
0.052304 0.347991 0.032116
0.082323 0.348323 0.032448
0.112343 0.348655 0.032780
0.142363 0.348988 0.033113
0.172382 0.349320 0.033445
0.202402 0.349652 0.033777
0.232422 0.349984 0.034109
0.262441 0.350316 0.034441
0.292461 0.350649 0.034774
0.322138 0.350977 0.035102
0.351300 0.351300 0.035425
0.380462 0.351622 0.035747
0.409624 0.351945 0.036070
0.438786 0.352268 0.036393
0.467948 0.352590 0.036715
0.497110 0.352913 0.037038
0.526272 0.353236 0.037361
0.555434 0.353559 0.037684
0.584596 0.353881 0.038006
0.613758 0.354204 0.038329
0.642919 0.354527 0.038652
0.672081 0.354849 0.038974
0.701243 0.355172 0.039297
0.730405 0.355495 0.039620
0.759567 0.355817 0.039942
0.788729 0.356140 0.040265
0.817891 0.356463 0.040588
0.847053 0.356786 0.040911
0.876215 0.357108 0.041233
0.905377 0.357431 0.041556
0.934539 0.357754 0.041879
0.963701 0.358076 0.042201
0.023369 0.377584 0.032869
0.053389 0.377916 0.033202
0.083409 0.378248 0.033534
0.113429 0.378580 0.033866
0.143448 0.378913 0.034198
0.173468 0.379245 0.034530
0.203488 0.379577 0.034863
0.233507 0.379909 0.035195
0.263527 0.380241 0.035527
0.293547 0.380573 0.035859
0.323223 0.380902 0.036188
0.352385 0.381225 0.036510
0.381547 0.381547 0.036833
0.410709 0.381870 0.037156
0.439871 0.382193 0.037478
0.469033 0.382515 0.037801
0.498195 0.382838 0.038124
0.527357 0.383161 0.038446
0.556519 0.383483 0.038769
0.585681 0.383806 0.039092
0.614843 0.384129 0.039415
0.644005 0.384451 0.039737
0.673167 0.384774 0.040060
0.702329 0.385097 0.040383
0.731491 0.385420 0.040705
0.760653 0.385742 0.041028
0.789815 0.386065 0.041351
0.818977 0.386388 0.041673
0.848139 0.386710 0.041996
0.877301 0.387033 0.042319
0.906463 0.387356 0.042641
0.935625 0.387678 0.042964
0.964787 0.388001 0.043287
0.024455 0.407509 0.033955
0.054475 0.407841 0.034287
0.084494 0.408173 0.034619
0.114514 0.408505 0.034952
0.144534 0.408837 0.035284
0.174553 0.409170 0.035616
0.204573 0.409502 0.035948
0.234593 0.409834 0.036280
0.264613 0.410166 0.036613
0.294632 0.410498 0.036945
0.324309 0.410827 0.037273
0.353471 0.411149 0.037596
0.382633 0.411472 0.037919
0.411795 0.411795 0.038241
0.440957 0.412117 0.038564
0.470119 0.412440 0.038887
0.499281 0.412763 0.039209
0.528443 0.413086 0.039532
0.557605 0.413408 0.039855
0.586767 0.413731 0.040177
0.615929 0.414054 0.040500
0.645091 0.414376 0.040823
0.674253 0.414699 0.041145
0.703415 0.415022 0.041468
0.732577 0.415344 0.041791
0.761739 0.415667 0.042114
0.790901 0.415990 0.042436
0.820063 0.416313 0.042759
0.849225 0.416635 0.043082
0.878386 0.416958 0.043404
0.907548 0.417281 0.043727
0.936711 0.417623 0.044088
0.965879 0.418074 0.044662
0.025541 0.437433 0.035041
0.055560 0.437766 0.035373
0.085580 0.438098 0.035705
0.115600 0.438430 0.036037
0.145619 0.438762 0.036369
0.175639 0.439094 0.036702
0.205659 0.439427 0.037034
0.235678 0.439759 0.037366
0.265698 0.440091 0.037698
0.295718 0.440423 0.038030
0.325394 0.440752 0.038359
0.354556 0.441074 0.038681
0.383718 0.441397 0.039004
0.412880 0.441720 0.039327
0.442042 0.442042 0.039649
0.471204 0.442365 0.039972
0.500366 0.442688 0.040295
0.529528 0.443010 0.040618
0.558690 0.443333 0.040940
0.587852 0.443656 0.041263
0.617014 0.443979 0.041586
0.646176 0.444301 0.041908
0.675338 0.444624 0.042231
0.704500 0.444947 0.042554
0.733662 0.445269 0.042876
0.762824 0.445592 0.043199
0.791986 0.445915 0.043522
0.821148 0.446237 0.043845
0.850313 0.446627 0.044297
0.879480 0.447077 0.044871
0.908648 0.447528 0.045444
0.937816 0.447979 0.046018
0.966983 0.448430 0.046591
0.026626 0.467358 0.036126
0.056646 0.467691 0.036458
0.086666 0.468023 0.036791
0.116685 0.468355 0.037123
0.146705 0.468687 0.037455
0.176725 0.469019 0.037787
0.206744 0.469351 0.038119
0.236764 0.469684 0.038451
0.266784 0.470016 0.038784
0.296803 0.470348 0.039116
0.326480 0.470676 0.039444
0.355642 0.470999 0.039767
0.384804 0.471322 0.040090
0.413966 0.471644 0.040412
0.443128 0.471967 0.040735
0.472290 0.472290 0.041058
0.501452 0.472613 0.041380
0.530614 0.472935 0.041703
0.559776 0.473258 0.042026
0.588938 0.473581 0.042349
0.618100 0.473903 0.042671
0.647262 0.474226 0.042994
0.676424 0.474549 0.043317
0.705586 0.474871 0.043639
0.734748 0.475194 0.043962
0.763915 0.475630 0.044506
0.793082 0.476081 0.045079
0.822250 0.476532 0.045653
0.851417 0.476983 0.046226
0.880585 0.477433 0.046800
0.909752 0.477884 0.047373
0.938920 0.478335 0.047947
0.968087 0.478786 0.048520
0.027712 0.497283 0.037212
0.057731 0.497615 0.037544
0.087751 0.497948 0.037876
0.117771 0.498280 0.038208
0.147791 0.498612 0.038541
0.177810 0.498944 0.038873
0.207830 0.499276 0.039205
0.237850 0.499608 0.039537
0.267869 0.499941 0.039869
0.297889 0.500273 0.040201
0.327566 0.500601 0.040530
0.356728 0.500924 0.040853
0.385890 0.501247 0.041175
0.415051 0.501569 0.041498
0.444213 0.501892 0.041821
0.473375 0.502215 0.042143
0.502537 0.502537 0.042466
0.531699 0.502860 0.042789
0.560861 0.503183 0.043111
0.590023 0.503506 0.043434
0.619185 0.503828 0.043757
0.648349 0.504183 0.044141
0.677516 0.504633 0.044715
0.706684 0.505084 0.045288
0.735851 0.505535 0.045862
0.765019 0.505986 0.046435
0.794186 0.506437 0.047009
0.823354 0.506888 0.047582
0.852521 0.507339 0.048156
0.881689 0.507789 0.048729
0.910856 0.508240 0.049303
0.940024 0.508691 0.049876
0.969192 0.509142 0.050450
0.028797 0.527208 0.038297
0.058817 0.527540 0.038630
0.088837 0.527872 0.038962
0.118856 0.528205 0.039294
0.148876 0.528537 0.039626
0.178896 0.528869 0.039958
0.208915 0.529201 0.040290
0.238935 0.529533 0.040623
0.268955 0.529866 0.040955
0.298975 0.530198 0.041287
0.328651 0.530526 0.041615
0.357813 0.530849 0.041938
0.386975 0.531172 0.042261
0.416137 0.531494 0.042583
0.445299 0.531817 0.042906
0.474461 0.532140 0.043229
0.503623 0.532462 0.043552
0.532785 0.532785 0.043874
0.561950 0.533186 0.044350
0.591118 0.533637 0.044924
0.620285 0.534088 0.045497
0.649453 0.534539 0.046071
0.678620 0.534989 0.046644
0.707788 0.535440 0.047218
0.736956 0.535891 0.047791
0.766123 0.536342 0.048365
0.795291 0.536793 0.048938
0.824458 0.537244 0.049512
0.853626 0.537695 0.050085
0.882793 0.538145 0.050658
0.911961 0.538596 0.051232
0.941128 0.539047 0.051805
0.970296 0.539498 0.052379
0.029883 0.557133 0.039383
0.059903 0.557465 0.039715
0.089922 0.557797 0.040047
0.119942 0.558129 0.040379
0.149962 0.558462 0.040712
0.179981 0.558794 0.041044
0.210001 0.559126 0.041376
0.240021 0.559458 0.041708
0.270040 0.559790 0.042040
0.300060 0.560123 0.042373
0.329737 0.560451 0.042701
0.358899 0.560774 0.043024
0.388061 0.561096 0.043346
0.417223 0.561419 0.043669
0.446385 0.561742 0.043992
0.475552 0.562189 0.044559
0.504720 0.562640 0.045132
0.533887 0.563091 0.045706
0.563055 0.563542 0.046279
0.592222 0.563993 0.046853
0.621390 0.564444 0.047426
0.650557 0.564895 0.048000
0.679725 0.565345 0.048573
0.708892 0.565796 0.049147
0.738060 0.566247 0.049720
0.767227 0.566698 0.050294
0.796395 0.567149 0.050867
0.825562 0.567600 0.051441
0.854730 0.568051 0.052014
0.883897 0.568502 0.052588
0.913065 0.568952 0.053161
0.942232 0.569403 0.053735
0.971400 0.569854 0.054308
0.030968 0.587058 0.040468
0.060988 0.587390 0.040801
0.091008 0.587722 0.041133
0.121028 0.588054 0.041465
0.151047 0.588387 0.041797
0.181067 0.588719 0.042129
0.211087 0.589051 0.042462
0.241106 0.589383 0.042794
0.271126 0.589715 0.043126
0.301146 0.590047 0.043458
0.330822 0.590376 0.043787
0.359986 0.590742 0.044194
0.389154 0.591193 0.044768
0.418321 0.591644 0.045341
0.447489 0.592095 0.045915
0.476656 0.592545 0.046488
0.505824 0.592996 0.047062
0.534991 0.593447 0.047635
0.564159 0.593898 0.048209
0.593326 0.594349 0.048782
0.622494 0.594800 0.049356
0.651661 0.595251 0.049929
0.680829 0.595701 0.050503
0.709996 0.596152 0.051076
0.739164 0.596603 0.051650
0.768332 0.597054 0.052223
0.797499 0.597505 0.052797
0.826667 0.597956 0.053370
0.855834 0.598407 0.053944
0.885002 0.598858 0.054517
0.914169 0.599308 0.055091
0.943337 0.599759 0.055664
0.972504 0.600210 0.056238
0.032054 0.616983 0.041554
0.062074 0.617315 0.041886
0.092093 0.617647 0.042218
0.122113 0.617979 0.042551
0.152133 0.618311 0.042883
0.182152 0.618644 0.043215
0.212172 0.618976 0.043547
0.242192 0.619308 0.043879
0.272215 0.619724 0.044376
0.302241 0.620188 0.044966
0.331923 0.620647 0.045550
0.361090 0.621098 0.046123
0.390258 0.621549 0.046697
0.419425 0.622000 0.047270
0.448593 0.622451 0.047844
0.477760 0.622901 0.048417
0.506928 0.623352 0.048991
0.536096 0.623803 0.049564
0.565263 0.624254 0.050138
0.594431 0.624705 0.050711
0.623598 0.625156 0.051285
0.652766 0.625607 0.051858
0.681933 0.626058 0.052432
0.711101 0.626508 0.053005
0.740268 0.626959 0.053579
0.769436 0.627410 0.054152
0.798603 0.627861 0.054726
0.827771 0.628312 0.055299
0.856938 0.628763 0.055873
0.886106 0.629214 0.056446
0.915273 0.629664 0.057020
0.944441 0.630115 0.057593
0.973608 0.630566 0.058167
0.033140 0.646907 0.042640
0.063159 0.647240 0.042972
0.093179 0.647572 0.043304
0.123199 0.647904 0.043636
0.153218 0.648236 0.043968
0.183243 0.648688 0.044534
0.213269 0.649152 0.045124
0.243294 0.649616 0.045715
0.273319 0.650080 0.046305
0.303345 0.650544 0.046896
0.333027 0.651003 0.047479
0.362195 0.651454 0.048053
0.391362 0.651905 0.048626
0.420530 0.652356 0.049200
0.449697 0.652807 0.049773
0.478865 0.653257 0.050347
0.508032 0.653708 0.050920
0.537200 0.654159 0.051494
0.566367 0.654610 0.052067
0.595535 0.655061 0.052641
0.624702 0.655512 0.053214
0.653870 0.655963 0.053788
0.683037 0.656414 0.054361
0.712205 0.656864 0.054935
0.741372 0.657315 0.055508
0.770540 0.657766 0.056082
0.799708 0.658217 0.056655
0.828875 0.658668 0.057229
0.858043 0.659119 0.057802
0.887210 0.659570 0.058376
0.916378 0.660021 0.058949
0.945545 0.660471 0.059523
0.974713 0.660922 0.060096
0.034225 0.676832 0.043725
0.064246 0.677187 0.044102
0.094271 0.677651 0.044692
0.124297 0.678116 0.045283
0.154322 0.678580 0.045873
0.184347 0.679044 0.046463
0.214373 0.679508 0.047054
0.244398 0.679972 0.047644
0.274424 0.680436 0.048234
0.304449 0.680900 0.048825
0.334131 0.681359 0.049408
0.363299 0.681810 0.049982
0.392466 0.682261 0.050555
0.421634 0.682712 0.051129
0.450801 0.683163 0.051702
0.479969 0.683614 0.052276
0.509136 0.684064 0.052849
0.538304 0.684515 0.053423
0.567472 0.684966 0.053996
0.596639 0.685417 0.054570
0.625807 0.685868 0.055143
0.654974 0.686319 0.055717
0.684142 0.686770 0.056290
0.713309 0.687220 0.056864
0.742477 0.687671 0.057437
0.771644 0.688122 0.058011
0.800812 0.688573 0.058584
0.829979 0.689024 0.059158
0.859147 0.689475 0.059731
0.888314 0.689926 0.060305
0.917482 0.690377 0.060878
0.946649 0.690827 0.061452
0.975817 0.691278 0.062025
0.035325 0.707079 0.045441
0.065350 0.707543 0.046031
0.095375 0.708007 0.046622
0.125401 0.708472 0.047212
0.155426 0.708936 0.047802
0.185452 0.709400 0.048393
0.215477 0.709864 0.048983
0.245502 0.710328 0.049573
0.275528 0.710792 0.050164
0.305553 0.711256 0.050754
0.335236 0.711715 0.051338
0.364403 0.712166 0.051911
0.393571 0.712617 0.052485
0.422738 0.713068 0.053058
0.451906 0.713519 0.053632
0.481073 0.713970 0.054205
0.510241 0.714420 0.054779
0.539408 0.714871 0.055352
0.568576 0.715322 0.055926
0.597743 0.715773 0.056499
0.626911 0.716224 0.057073
0.656078 0.716675 0.057646
0.685246 0.717126 0.058220
0.714413 0.717577 0.058793
0.743581 0.718027 0.059367
0.772748 0.718478 0.059940
0.801916 0.718929 0.060514
0.831084 0.719380 0.061087
0.860251 0.719831 0.061661
0.889419 0.720282 0.062234
0.918586 0.720733 0.062808
0.947754 0.721183 0.063381
0.976921 0.721634 0.063955
0.036429 0.737435 0.047370
0.066454 0.737899 0.047961
0.096480 0.738364 0.048551
0.126505 0.738828 0.049141
0.156531 0.739292 0.049732
0.186556 0.739756 0.050322
0.216581 0.740220 0.050912
0.246607 0.740684 0.051503
0.276632 0.741148 0.052093
0.306658 0.741612 0.052683
0.336340 0.742071 0.053267
0.365507 0.742522 0.053840
0.394675 0.742973 0.054414
0.423842 0.743424 0.054987
0.453010 0.743875 0.055561
0.482177 0.744326 0.056134
0.511345 0.744776 0.056708
0.540512 0.745227 0.057281
0.569680 0.745678 0.057855
0.598848 0.746129 0.058428
0.628015 0.746580 0.059002
0.657183 0.747031 0.059575
0.686350 0.747482 0.060149
0.715518 0.747933 0.060722
0.744685 0.748383 0.061296
0.773853 0.748834 0.061869
0.803020 0.749285 0.062443
0.832188 0.749736 0.063016
0.861355 0.750187 0.063590
0.890523 0.750638 0.064163
0.919690 0.751089 0.064737
0.948858 0.751539 0.065310
0.978025 0.751990 0.065884
0.037533 0.767791 0.049299
0.067559 0.768255 0.049890
0.097584 0.768720 0.050480
0.127609 0.769184 0.051070
0.157635 0.769648 0.051661
0.187660 0.770112 0.052251
0.217686 0.770576 0.052842
0.247711 0.771040 0.053432
0.277736 0.771504 0.054022
0.307762 0.771968 0.054613
0.337444 0.772427 0.055196
0.366612 0.772878 0.055770
0.395779 0.773329 0.056343
0.424947 0.773780 0.056917
0.454114 0.774231 0.057490
0.483282 0.774682 0.058064
0.512449 0.775132 0.058637
0.541617 0.775583 0.059211
0.570784 0.776034 0.059784
0.599952 0.776485 0.060358
0.629119 0.776936 0.060931
0.658287 0.777387 0.061505
0.687454 0.777838 0.062078
0.716622 0.778289 0.062652
0.745789 0.778739 0.063225
0.774957 0.779190 0.063799
0.804124 0.779641 0.064372
0.833292 0.780092 0.064946
0.862460 0.780543 0.065519
0.891627 0.780994 0.066093
0.920795 0.781445 0.066666
0.949962 0.781896 0.067240
0.979130 0.782346 0.067813
0.038637 0.798147 0.051229
0.068663 0.798611 0.051819
0.098688 0.799076 0.052409
0.128714 0.799540 0.053000
0.158739 0.800004 0.053590
0.188764 0.800468 0.054180
0.218790 0.800932 0.054771
0.248815 0.801396 0.055361
0.278841 0.801860 0.055952
0.308866 0.802324 0.056542
0.338548 0.802783 0.057126
0.367716 0.803234 0.057699
0.396883 0.803685 0.058273
0.426051 0.804136 0.058846
0.455218 0.804587 0.059420
0.484386 0.805038 0.059993
0.513553 0.805489 0.060567
0.542721 0.805939 0.061140
0.571888 0.806390 0.061713
0.601056 0.806841 0.062287
0.630224 0.807292 0.062860
0.659391 0.807743 0.063434
0.688559 0.808194 0.064007
0.717726 0.808645 0.064581
0.746894 0.809095 0.065154
0.776061 0.809546 0.065728
0.805229 0.809997 0.066301
0.834396 0.810448 0.066875
0.863564 0.810899 0.067448
