luts/medium_format.cube
TITLE "Camera Hasselblad"
LUT_3D_SIZE 9
0.010036 0.010036 0.019536
0.130115 0.011365 0.020865
0.250194 0.012694 0.022194
0.368214 0.014000 0.023500
0.484862 0.015290 0.024790
0.601510 0.016581 0.026081
0.718158 0.017872 0.027372
0.834806 0.019163 0.028663
0.951453 0.020454 0.029953
0.014506 0.133256 0.024006
0.134585 0.134585 0.025335
0.254664 0.135914 0.026664
0.372684 0.137220 0.027970
0.489332 0.138510 0.029260
0.605980 0.139801 0.030551
0.722628 0.141092 0.031842
0.839276 0.142383 0.033133
0.955923 0.143674 0.034424
0.018976 0.256476 0.028476
0.139055 0.257805 0.029805
0.259134 0.259134 0.031134
0.377154 0.260440 0.032440
0.493802 0.261730 0.033730
0.610450 0.263021 0.035021
0.727098 0.264312 0.036312
0.843746 0.265603 0.037603
0.960394 0.266894 0.038894
0.023369 0.377584 0.032869
0.143448 0.378913 0.034198
0.263527 0.380241 0.035527
0.381547 0.381547 0.036833
0.498195 0.382838 0.038124
0.614843 0.384129 0.039415
0.731491 0.385420 0.040705
0.848139 0.386710 0.041996
0.964787 0.388001 0.043287
0.027712 0.497283 0.037212
0.147791 0.498612 0.038541
0.267869 0.499941 0.039869
0.385890 0.501247 0.041175
0.502537 0.502537 0.042466
0.619185 0.503828 0.043757
0.735851 0.505535 0.045862
0.852521 0.507339 0.048156
0.969192 0.509142 0.050450
0.032054 0.616983 0.041554
0.152133 0.618311 0.042883
0.272215 0.619724 0.044376
0.390258 0.621549 0.046697
0.506928 0.623352 0.048991
0.623598 0.625156 0.051285
0.740268 0.626959 0.053579
0.856938 0.628763 0.055873
0.973608 0.630566 0.058167
0.036429 0.737435 0.047370
0.156531 0.739292 0.049732
0.276632 0.741148 0.052093
0.394675 0.742973 0.054414
0.511345 0.744776 0.056708
0.628015 0.746580 0.059002
0.744685 0.748383 0.061296
0.861355 0.750187 0.063590
0.978025 0.751990 0.065884
0.040846 0.858859 0.055087
0.160947 0.860716 0.057449
0.281049 0.862572 0.059810
0.399092 0.864397 0.062131
0.515762 0.866201 0.064425
0.632432 0.868004 0.066719
0.749102 0.869808 0.069013
0.865772 0.871611 0.071307
0.982442 0.873415 0.073601
0.045263 0.980284 0.062804
0.165364 0.982140 0.065166
0.285466 0.983997 0.067527
0.403509 0.985821 0.069848
0.520179 0.987625 0.072142
0.636849 0.989428 0.074436
0.753519 0.991232 0.076730
0.870189 0.993035 0.079024
0.986859 0.994839 0.081318
0.010487 0.010487 0.138737
0.130566 0.011816 0.140066
0.250645 0.013145 0.141395
0.368665 0.014451 0.142701
0.485313 0.015742 0.143992
0.601961 0.017032 0.145282
0.718609 0.018323 0.146573
0.835257 0.019614 0.147864
0.951905 0.020905 0.149155
0.014957 0.133707 0.143207
0.135036 0.135036 0.144536
0.255115 0.136365 0.145865
0.373135 0.137671 0.147171
0.489783 0.138962 0.148462
0.606431 0.140252 0.149752
0.723079 0.141543 0.151043
0.839727 0.142834 0.152334
0.956375 0.144125 0.153625
0.019427 0.256927 0.147677
0.139506 0.258256 0.149006
0.259585 0.259585 0.150335
0.377605 0.260891 0.151641
0.494253 0.262182 0.152932
0.610901 0.263472 0.154222
0.727549 0.264763 0.155513
0.844197 0.266054 0.156804
0.960845 0.267345 0.158095
0.023821 0.378035 0.152071
0.143899 0.379364 0.153399
0.263978 0.380693 0.154728
0.381998 0.381998 0.156034
0.498646 0.383289 0.157325
0.615294 0.384580 0.158616
0.731942 0.385871 0.159907
0.848590 0.387162 0.161197
0.965238 0.388452 0.162488
0.028163 0.497734 0.156413
0.148242 0.499063 0.157742
0.268321 0.500392 0.159071
0.386341 0.501698 0.160376
0.502989 0.502989 0.161667
0.619640 0.504362 0.163120
0.736310 0.506166 0.165414
0.852980 0.507969 0.167708
0.969651 0.509773 0.170002
0.032505 0.617434 0.160755
0.152584 0.618763 0.162084
0.272674 0.620355 0.163928
0.390717 0.622179 0.166249
0.507387 0.623983 0.168543
0.624057 0.625786 0.170837
0.740727 0.627590 0.173131
0.857397 0.629393 0.175425
0.974067 0.631197 0.177719
0.036888 0.738066 0.166922
0.156990 0.739922 0.169284
0.277091 0.741779 0.171645
0.395134 0.743603 0.173966
0.511804 0.745407 0.176260
0.628474 0.747210 0.178554
0.745144 0.749014 0.180848
0.861814 0.750817 0.183142
0.978484 0.752621 0.185436
0.041305 0.859490 0.174639
0.161406 0.861346 0.177001
0.281508 0.863203 0.179362
0.399551 0.865028 0.181683
0.516221 0.866831 0.183977
0.632891 0.868635 0.186271
0.749561 0.870438 0.188565
0.866231 0.872242 0.190859
0.982901 0.874045 0.193153
0.045722 0.980914 0.182356
0.165823 0.982771 0.184718
0.285925 0.984627 0.187079
0.403968 0.986452 0.189400
0.520638 0.988255 0.191694
0.637308 0.990059 0.193988
0.753978 0.991862 0.196282
0.870648 0.993666 0.198576
0.987318 0.995469 0.200870
0.010939 0.010939 0.257939
0.131017 0.012267 0.259267
0.251096 0.013596 0.260596
0.369116 0.014902 0.261902
0.485764 0.016193 0.263193
0.602412 0.017484 0.264484
0.719060 0.018774 0.265774
0.835708 0.020065 0.267065
0.952356 0.021356 0.268356
0.015409 0.134159 0.262409
0.135487 0.135487 0.263737
0.255566 0.136816 0.265066
0.373586 0.138122 0.266372
0.490234 0.139413 0.267663
0.606882 0.140704 0.268954
0.723530 0.141994 0.270244
0.840178 0.143285 0.271535
0.956826 0.144576 0.272826
0.019879 0.257379 0.266879
0.139957 0.258707 0.268207
0.260036 0.260036 0.269536
0.378056 0.261342 0.270842
0.494704 0.262633 0.272133
0.611352 0.263924 0.273424
0.728000 0.265214 0.274714
0.844648 0.266505 0.276005
0.961296 0.267796 0.277296
0.024272 0.378486 0.271272
0.144351 0.379815 0.272601
0.264429 0.381144 0.273929
0.382450 0.382450 0.275235
0.499098 0.383741 0.276526
0.615746 0.385031 0.277817
0.732394 0.386322 0.279108
0.849041 0.387613 0.280399
0.965693 0.388979 0.281837
0.028614 0.498186 0.275614
0.148693 0.499514 0.276943
0.268772 0.500843 0.278272
0.386792 0.502149 0.279578
0.503440 0.503440 0.280869
0.620099 0.504993 0.282672
0.736769 0.506796 0.284966
0.853439 0.508600 0.287260
0.970110 0.510403 0.289554
0.032957 0.617885 0.279957
0.153035 0.619214 0.281285
0.273133 0.620985 0.283480
0.391176 0.622810 0.285801
0.507846 0.624613 0.288095
0.624516 0.626417 0.290389
0.741186 0.628220 0.292683
0.857856 0.630024 0.294977
0.974527 0.631827 0.297271
0.037347 0.738696 0.286474
0.157449 0.740553 0.288835
0.277550 0.742409 0.291197
0.395593 0.744234 0.293518
0.512263 0.746037 0.295812
0.628933 0.747841 0.298106
0.745603 0.749644 0.300400
0.862273 0.751448 0.302694
0.978943 0.753251 0.304988
0.041764 0.860120 0.294191
0.161865 0.861977 0.296553
0.281967 0.863833 0.298914
0.400010 0.865658 0.301235
0.516680 0.867462 0.303529
0.633350 0.869265 0.305823
0.750020 0.871069 0.308117
0.866690 0.872872 0.310411
0.983360 0.874675 0.312705
0.046181 0.981545 0.301908
0.166282 0.983401 0.304270
0.286384 0.985258 0.306631
0.404427 0.987082 0.308952
0.521097 0.988886 0.311246
0.637767 0.990689 0.313540
0.754437 0.992493 0.315834
0.871107 0.994296 0.318128
0.987777 0.996100 0.320422
0.011382 0.011382 0.375096
0.131461 0.012711 0.376425
0.251540 0.014040 0.377754
0.369560 0.015346 0.379060
0.486208 0.016636 0.380351
0.602856 0.017927 0.381641
0.719504 0.019218 0.382932
0.836152 0.020509 0.384223
0.952800 0.021800 0.385514
0.015852 0.134602 0.379566
0.135931 0.135931 0.380895
0.256010 0.137260 0.382224
0.374030 0.138566 0.383530
0.490678 0.139856 0.384821
0.607326 0.141147 0.386111
0.723974 0.142438 0.387402
0.840622 0.143729 0.388693
0.957270 0.145020 0.389984
0.020322 0.257822 0.384036
0.140401 0.259151 0.385365
0.260480 0.260480 0.386694
0.378500 0.261786 0.388000
0.495148 0.263076 0.389291
0.611796 0.264367 0.390581
0.728444 0.265658 0.391872
0.845092 0.266949 0.393163
0.961740 0.268240 0.394454
0.024715 0.378930 0.388430
0.144794 0.380259 0.389759
0.264873 0.381587 0.391087
0.382893 0.382893 0.392393
0.499541 0.384184 0.393684
0.616189 0.385475 0.394975
0.732837 0.386766 0.396266
0.849485 0.388056 0.397556
0.966144 0.389599 0.399339
0.029058 0.498629 0.392772
0.149137 0.499958 0.394101
0.269215 0.501287 0.395430
0.387236 0.502593 0.396736
0.503883 0.503883 0.398026
0.620550 0.505612 0.400174
0.737220 0.507416 0.402468
0.853891 0.509219 0.404762
0.970561 0.511023 0.407056
0.033400 0.618329 0.397114
0.153483 0.619748 0.398621
0.273584 0.621605 0.400982
0.391627 0.623429 0.403303
0.508297 0.625233 0.405597
0.624967 0.627036 0.407891
0.741637 0.628840 0.410185
0.858308 0.630643 0.412479
0.974978 0.632447 0.414773
0.037798 0.739316 0.403977
0.157900 0.741172 0.406338
0.278001 0.743029 0.408699
0.396044 0.744854 0.411020
0.512714 0.746657 0.413314
0.629384 0.748461 0.415608
0.746054 0.750264 0.417902
0.862724 0.752068 0.420196
0.979395 0.753871 0.422490
0.042215 0.860740 0.411694
0.162317 0.862597 0.414055
0.282418 0.864453 0.416417
0.400461 0.866278 0.418737
0.517131 0.868081 0.421031
0.633801 0.869885 0.423325
0.750471 0.871688 0.425619
0.867141 0.873492 0.427913
0.983812 0.875295 0.430207
0.046632 0.982164 0.419411
0.166734 0.984021 0.421772
0.286835 0.985877 0.424134
0.404878 0.987702 0.426455
0.521548 0.989505 0.428749
0.638218 0.991309 0.431043
0.754888 0.993112 0.433336
0.871558 0.994916 0.435630
0.988228 0.996719 0.437924
0.011820 0.011820 0.490892
0.131899 0.013149 0.492221
0.251978 0.014478 0.493549
0.369998 0.015784 0.494855
0.486646 0.017075 0.496146
0.603294 0.018366 0.497437
0.719942 0.019656 0.498728
0.836590 0.020947 0.500019
0.953238 0.022238 0.501309
0.016290 0.135040 0.495362
0.136369 0.136369 0.496691
0.256448 0.137698 0.498019
0.374468 0.139004 0.499325
0.491116 0.140295 0.500616
0.607764 0.141586 0.501907
0.724412 0.142876 0.503198
0.841060 0.144167 0.504489
0.957708 0.145458 0.505779
0.020760 0.258260 0.499832
0.140839 0.259589 0.501161
0.260918 0.260918 0.502489
0.378938 0.262224 0.503795
0.495586 0.263515 0.505086
0.612234 0.264806 0.506377
0.728882 0.266096 0.507668
0.845530 0.267387 0.508959
0.962178 0.268678 0.510249
0.025154 0.379368 0.504225
0.145233 0.380697 0.505554
0.265311 0.382026 0.506883
0.383332 0.383332 0.508189
0.499980 0.384622 0.509480
0.616627 0.385913 0.510770
0.733275 0.387204 0.512061
0.849923 0.388495 0.513352
0.966590 0.390211 0.515475
0.029496 0.499068 0.508568
0.149575 0.500396 0.509896
0.269654 0.501725 0.511225
0.387674 0.503031 0.512531
0.504326 0.504421 0.514016
0.620996 0.506225 0.516310
0.737666 0.508028 0.518604
0.854336 0.509832 0.520898
0.971007 0.511635 0.523192
0.033838 0.618767 0.512910
0.153929 0.620361 0.514757
0.274030 0.622217 0.517119
0.392073 0.624042 0.519440
0.508743 0.625845 0.521733
0.625413 0.627649 0.524027
0.742083 0.629452 0.526321
0.858753 0.631256 0.528615
0.975424 0.633059 0.530909
0.038244 0.739928 0.520113
0.158346 0.741785 0.522474
0.278447 0.743641 0.524836
0.396490 0.745466 0.527157
0.513160 0.747270 0.529451
0.629830 0.749073 0.531745
0.746500 0.750877 0.534039
0.863170 0.752680 0.536332
0.979840 0.754483 0.538626
0.042661 0.861353 0.527830
0.162763 0.863209 0.530191
0.282864 0.865066 0.532553
0.400907 0.866890 0.534874
0.517577 0.868694 0.537168
0.634247 0.870497 0.539462
0.750917 0.872301 0.541756
0.867587 0.874104 0.544050
0.984257 0.875908 0.546344
0.047078 0.982777 0.535547
0.167179 0.984633 0.537908
0.287281 0.986490 0.540270
0.405324 0.988314 0.542591
0.521994 0.990118 0.544885
0.638664 0.991921 0.547179
0.755334 0.993725 0.549473
0.872004 0.995528 0.551767
0.988674 0.997332 0.554061
0.012259 0.012259 0.606687
0.132338 0.013588 0.608016
0.252416 0.014916 0.609345
0.370437 0.016222 0.610651
0.487085 0.017513 0.611942
0.603732 0.018804 0.613232
0.720380 0.020095 0.614523
0.837028 0.021385 0.615814
0.953676 0.022676 0.617105
0.016729 0.135479 0.611157
0.136808 0.136808 0.612486
0.256886 0.138136 0.613815
0.374907 0.139442 0.615121
0.491555 0.140733 0.616412
0.608202 0.142024 0.617702
0.724850 0.143315 0.618993
0.841498 0.144605 0.620284
0.958146 0.145896 0.621575
0.021199 0.258699 0.615627
0.141278 0.260028 0.616956
0.261356 0.261356 0.618285
0.379377 0.262662 0.619591
0.496025 0.263953 0.620882
0.612672 0.265244 0.622172
0.729320 0.266535 0.623463
0.845968 0.267825 0.624754
0.962616 0.269116 0.626045
0.025592 0.379806 0.620021
0.145671 0.381135 0.621350
0.265750 0.382464 0.622678
0.383770 0.383770 0.623984
0.500418 0.385061 0.625275
0.617066 0.386352 0.626566
0.733714 0.387642 0.627857
0.850365 0.389020 0.629317
0.967036 0.390823 0.631611
0.029934 0.499506 0.624363
0.150013 0.500835 0.625692
0.270092 0.502163 0.627021
0.388112 0.503469 0.628327
0.504772 0.505034 0.630153
0.621442 0.506837 0.632447
0.738112 0.508641 0.634741
0.854782 0.510444 0.637035
0.971452 0.512248 0.639328
0.034277 0.619205 0.628705
0.154375 0.620973 0.630893
0.274476 0.622830 0.633255
0.392519 0.624654 0.635576
0.509189 0.626458 0.637870
0.625859 0.628261 0.640164
0.742529 0.630065 0.642458
0.859199 0.631868 0.644752
0.975869 0.633672 0.647046
0.038690 0.740541 0.636249
0.158791 0.742397 0.638610
0.278893 0.744254 0.640972
0.396936 0.746079 0.643293
0.513606 0.747882 0.645587
0.630276 0.749686 0.647881
0.746946 0.751489 0.650175
0.863616 0.753292 0.652469
0.980286 0.755096 0.654763
0.043107 0.861965 0.643966
0.163208 0.863821 0.646327
0.283310 0.865678 0.648689
0.401353 0.867503 0.651010
0.518023 0.869306 0.653304
0.634693 0.871110 0.655598
0.751363 0.872913 0.657892
0.868033 0.874717 0.660186
0.984703 0.876520 0.662480
0.047524 0.983389 0.651683
0.167625 0.985246 0.654045
0.287727 0.987102 0.656406
0.405770 0.988927 0.658727
0.522440 0.990730 0.661021
0.639110 0.992534 0.663315
0.755780 0.994337 0.665609
0.872450 0.996141 0.667903
0.989120 0.997944 0.670197
0.012697 0.012697 0.722483
0.132776 0.014026 0.723812
0.252855 0.015355 0.725140
0.370875 0.016661 0.726446
0.487523 0.017951 0.727737
0.604171 0.019242 0.729028
0.720819 0.020533 0.730319
0.837467 0.021824 0.731610
0.954115 0.023115 0.732900
0.017167 0.135917 0.726953
0.137246 0.137246 0.728282
0.257325 0.138575 0.729610
0.375345 0.139881 0.730916
0.491993 0.141171 0.732207
0.608641 0.142462 0.733498
0.725289 0.143753 0.734789
0.841937 0.145044 0.736080
0.958585 0.146335 0.737370
0.021637 0.259137 0.731423
0.141716 0.260466 0.732752
0.261795 0.261795 0.734080
0.379815 0.263101 0.735386
0.496463 0.264391 0.736677
0.613111 0.265682 0.737968
0.729759 0.266973 0.739259
0.846407 0.268264 0.740550
0.963055 0.269555 0.741840
0.026031 0.380245 0.735816
0.146109 0.381574 0.737145
0.266188 0.382902 0.738474
0.384208 0.384208 0.739780
0.500856 0.385499 0.741071
0.617504 0.386790 0.742361
0.734152 0.388081 0.743652
0.850811 0.389632 0.745454
0.967481 0.391436 0.747748
0.030373 0.499944 0.740159
0.150452 0.501273 0.741487
0.270530 0.502602 0.742816
0.388551 0.503908 0.744122
0.505218 0.505646 0.746289
0.621888 0.507450 0.748583
0.738558 0.509253 0.750877
0.855228 0.511057 0.753171
0.971898 0.512860 0.755465
0.034719 0.619729 0.744668
0.154820 0.621586 0.747029
0.274922 0.623442 0.749391
0.392965 0.625267 0.751712
0.509635 0.627070 0.754006
0.626305 0.628874 0.756300
0.742975 0.630677 0.758594
0.859645 0.632481 0.760888
0.976315 0.634284 0.763182
0.039136 0.741153 0.752385
0.159237 0.743010 0.754747
0.279339 0.744866 0.757108
0.397382 0.746691 0.759429
0.514052 0.748495 0.761723
0.630722 0.750298 0.764017
0.747392 0.752101 0.766311
0.864062 0.753905 0.768605
0.980732 0.755708 0.770899
0.043553 0.862577 0.760102
0.163654 0.864434 0.762464
0.283756 0.866290 0.764825
0.401799 0.868115 0.767146
0.518469 0.869919 0.769440
0.635139 0.871722 0.771734
0.751809 0.873526 0.774028
0.868479 0.875329 0.776322
0.985149 0.877133 0.778616
0.047970 0.984002 0.767819
0.168071 0.985858 0.770181
0.288173 0.987715 0.772542
0.406216 0.989539 0.774863
0.522886 0.991343 0.777157
0.639556 0.993146 0.779451
0.756226 0.994950 0.781745
0.872896 0.996753 0.784039
0.989566 0.998557 0.786333
0.013136 0.013136 0.838278
0.133214 0.014464 0.839607
0.253293 0.015793 0.840936
0.371313 0.017099 0.842242
0.487961 0.018390 0.843533
0.604609 0.019681 0.844823
0.721257 0.020971 0.846114
0.837905 0.022262 0.847405
0.954553 0.023553 0.848696
0.017606 0.136356 0.842748
0.137684 0.137684 0.844077
0.257763 0.139013 0.845406
0.375783 0.140319 0.846712
0.492431 0.141610 0.848003
0.609079 0.142901 0.849293
0.725727 0.144191 0.850584
0.842375 0.145482 0.851875
0.959023 0.146773 0.853166
0.022076 0.259576 0.847218
0.142154 0.260904 0.848547
0.262233 0.262233 0.849876
0.380253 0.263539 0.851182
0.496901 0.264830 0.852473
0.613549 0.266121 0.853763
0.730197 0.267411 0.855054
0.846845 0.268702 0.856345
0.963493 0.269993 0.857636
0.026469 0.380683 0.851612
0.146548 0.382012 0.852941
0.266626 0.383341 0.854269
0.384647 0.384647 0.855575
0.501295 0.385937 0.856866
0.617943 0.387228 0.858157
0.734590 0.388519 0.859448
0.851257 0.390245 0.861590
0.967927 0.392048 0.863884
0.030811 0.500383 0.855954
0.150890 0.501711 0.857283
0.270969 0.503040 0.858612
0.388994 0.504455 0.860131
0.505664 0.506259 0.862425
0.622334 0.508062 0.864719
0.739004 0.509866 0.867013
0.855674 0.511669 0.869307
0.972344 0.513473 0.871601
0.035165 0.620342 0.860804
0.155266 0.622198 0.863166
0.275368 0.624055 0.865527
0.393411 0.625879 0.867848
0.510081 0.627683 0.870142
0.626751 0.629486 0.872436
0.743421 0.631290 0.874730
0.860091 0.633093 0.877024
0.976761 0.634897 0.879318
0.039582 0.741766 0.868521
0.159683 0.743622 0.870883
0.279785 0.745479 0.873244
0.397828 0.747303 0.875565
0.514498 0.749107 0.877859
0.631168 0.750910 0.880153
0.747838 0.752714 0.882447
0.864508 0.754517 0.884741
0.981178 0.756321 0.887035
0.043999 0.863190 0.876238
0.164100 0.865046 0.878600
0.284202 0.866903 0.880961
0.402244 0.868728 0.883282
0.518915 0.870531 0.885576
0.635585 0.872335 0.887870
0.752255 0.874138 0.890164
0.868925 0.875942 0.892458
0.985595 0.877745 0.894752
0.048416 0.984614 0.883955
0.168517 0.986471 0.886317
0.288619 0.988327 0.888678
0.406661 0.990152 0.890999
0.523332 0.991955 0.893293
0.640002 0.993759 0.895587
0.756672 0.995562 0.897881
0.873342 0.997366 0.900175
0.990012 0.999169 0.902469
0.013574 0.013574 0.954074
0.133653 0.014903 0.955403
0.253731 0.016231 0.956731
0.371752 0.017537 0.958037
0.488400 0.018828 0.959328
0.605048 0.020119 0.960619
0.721695 0.021410 0.961910
0.838343 0.022701 0.963201
0.954991 0.023991 0.964491
0.018044 0.136794 0.958544
0.138123 0.138123 0.959873
0.258201 0.139451 0.961201
0.376222 0.140757 0.962507
0.492870 0.142048 0.963798
0.609518 0.143339 0.965089
0.726165 0.144630 0.966380
0.842813 0.145921 0.967671
0.959461 0.147211 0.968961
0.022514 0.260014 0.963014
0.142593 0.261343 0.964343
0.262671 0.262671 0.965671
0.380692 0.263977 0.966977
0.497340 0.265268 0.968268
0.613988 0.266559 0.969559
0.730635 0.267850 0.970850
0.847283 0.269141 0.972141
0.963931 0.270431 0.973431
0.026907 0.381122 0.967407
0.146986 0.382450 0.968736
0.267065 0.383779 0.970065
0.385085 0.385085 0.971371
0.501733 0.386376 0.972662
0.618381 0.387667 0.973952
0.735032 0.389053 0.975247
0.851699 0.390853 0.976556
0.968365 0.392653 0.977865
0.031250 0.500821 0.971750
0.151328 0.502150 0.973078
0.271407 0.503478 0.974407
0.389438 0.505066 0.975723
0.506104 0.506865 0.977032
0.622770 0.508665 0.978342
0.739437 0.510465 0.979651
0.856103 0.512265 0.980960
0.972769 0.514064 0.982269
0.035607 0.620951 0.976107
0.155705 0.622804 0.977455
0.275803 0.624656 0.978803
0.393842 0.626477 0.980128
0.510508 0.628277 0.981437
0.627175 0.630077 0.982746
0.743841 0.631876 0.984055
0.860507 0.633676 0.985365
0.977174 0.635476 0.986674
0.040012 0.742363 0.980512
0.160110 0.744215 0.981860
0.280207 0.746068 0.983207
0.398246 0.747889 0.984532
0.514913 0.749689 0.985841
0.631579 0.751488 0.987151
0.748245 0.753288 0.988460
0.864912 0.755088 0.989769
0.981578 0.756888 0.991078
0.044416 0.863774 0.984916
0.164514 0.865627 0.986264
0.284612 0.867480 0.987612
0.402651 0.869300 0.988936
0.519317 0.871100 0.990246
0.635983 0.872900 0.991555
0.752650 0.874700 0.992864
0.869316 0.876499 0.994173
0.985983 0.878299 0.995483
0.048821 0.985186 0.989321
0.168918 0.987038 0.990668
0.289016 0.988891 0.992016
0.407055 0.990712 0.993341
0.523721 0.992512 0.994650
0.640388 0.994312 0.995959
0.757054 0.996111 0.997269
0.873721 0.997911 0.998578
0.990387 0.999711 0.999887
