luts/mono_gritty_400.cube
TITLE "Bw Tri X 400"
LUT_3D_SIZE 5
0.000000 0.000000 0.000000
0.000000 0.000000 0.000000
0.022891 0.022891 0.022891
0.079336 0.079336 0.079336
0.138259 0.138259 0.138259
0.099886 0.099886 0.099886
0.162614 0.162614 0.162614
0.229513 0.229513 0.229513
0.296411 0.296411 0.296411
0.363309 0.363309 0.363309
0.320766 0.320766 0.320766
0.387664 0.387664 0.387664
0.454562 0.454562 0.454562
0.521460 0.521460 0.521460
0.588358 0.588358 0.588358
0.545815 0.545815 0.545815
0.612714 0.612714 0.612714
0.679612 0.679612 0.679612
0.746510 0.746510 0.746510
0.813408 0.813408 0.813408
0.770865 0.770865 0.770865
0.837763 0.837763 0.837763
0.900433 0.900433 0.900433
0.956878 0.956878 0.956878
1.000000 1.000000 1.000000
0.000000 0.000000 0.000000
0.000000 0.000000 0.000000
0.042060 0.042060 0.042060
0.098505 0.098505 0.098505
0.160978 0.160978 0.160978
0.119055 0.119055 0.119055
0.185333 0.185333 0.185333
0.252231 0.252231 0.252231
0.319130 0.319130 0.319130
0.386028 0.386028 0.386028
0.343485 0.343485 0.343485
0.410383 0.410383 0.410383
0.477281 0.477281 0.477281
0.544179 0.544179 0.544179
0.611077 0.611077 0.611077
0.568534 0.568534 0.568534
0.635433 0.635433 0.635433
0.702331 0.702331 0.702331
0.769229 0.769229 0.769229
0.836127 0.836127 0.836127
0.793584 0.793584 0.793584
0.860482 0.860482 0.860482
0.919602 0.919602 0.919602
0.976047 0.976047 0.976047
1.000000 1.000000 1.000000
0.000000 0.000000 0.000000
0.004783 0.004783 0.004783
0.061229 0.061229 0.061229
0.117674 0.117674 0.117674
0.183697 0.183697 0.183697
0.141154 0.141154 0.141154
0.208052 0.208052 0.208052
0.274950 0.274950 0.274950
0.341849 0.341849 0.341849
0.408747 0.408747 0.408747
0.366204 0.366204 0.366204
0.433102 0.433102 0.433102
0.500000 0.500000 0.500000
0.566898 0.566898 0.566898
0.633796 0.633796 0.633796
0.591253 0.591253 0.591253
0.658152 0.658152 0.658152
0.725050 0.725050 0.725050
0.791948 0.791948 0.791948
0.858846 0.858846 0.858846
0.816303 0.816303 0.816303
0.882326 0.882326 0.882326
0.938771 0.938771 0.938771
0.995217 0.995217 0.995217
1.000000 1.000000 1.000000
0.000000 0.000000 0.000000
0.023953 0.023953 0.023953
0.080398 0.080398 0.080398
0.139518 0.139518 0.139518
0.206416 0.206416 0.206416
0.163873 0.163873 0.163873
0.230771 0.230771 0.230771
0.297669 0.297669 0.297669
0.364567 0.364567 0.364567
0.431466 0.431466 0.431466
0.388923 0.388923 0.388923
0.455821 0.455821 0.455821
0.522719 0.522719 0.522719
0.589617 0.589617 0.589617
0.656515 0.656515 0.656515
0.613972 0.613972 0.613972
0.680870 0.680870 0.680870
0.747769 0.747769 0.747769
0.814667 0.814667 0.814667
0.880945 0.880945 0.880945
0.839022 0.839022 0.839022
0.901495 0.901495 0.901495
0.957940 0.957940 0.957940
1.000000 1.000000 1.000000
1.000000 1.000000 1.000000
0.000000 0.000000 0.000000
0.043122 0.043122 0.043122
0.099567 0.099567 0.099567
0.162237 0.162237 0.162237
0.229135 0.229135 0.229135
0.186592 0.186592 0.186592
0.253490 0.253490 0.253490
0.320388 0.320388 0.320388
0.387286 0.387286 0.387286
0.454185 0.454185 0.454185
0.411642 0.411642 0.411642
0.478540 0.478540 0.478540
0.545438 0.545438 0.545438
0.612336 0.612336 0.612336
0.679234 0.679234 0.679234
0.636691 0.636691 0.636691
0.703589 0.703589 0.703589
0.770487 0.770487 0.770487
0.837386 0.837386 0.837386
0.900114 0.900114 0.900114
0.861741 0.861741 0.861741
0.920664 0.920664 0.920664
0.977109 0.977109 0.977109
1.000000 1.000000 1.000000
1.000000 1.000000 1.000000
