luts/mono_classic.cube
TITLE "Bw Ilford Hp5"
LUT_3D_SIZE 9
0.000000 0.000000 0.000000
0.000000 0.000000 0.000000
0.006759 0.006759 0.006759
0.034539 0.034539 0.034539
0.062319 0.062319 0.062319
0.090099 0.090099 0.090099
0.117878 0.117878 0.117878
0.145658 0.145658 0.145658
0.173438 0.173438 0.173438
0.044653 0.044653 0.044653
0.072433 0.072433 0.072433
0.100212 0.100212 0.100212
0.127992 0.127992 0.127992
0.155772 0.155772 0.155772
0.183551 0.183551 0.183551
0.211331 0.211331 0.211331
0.239111 0.239111 0.239111
0.267264 0.267264 0.267264
0.138106 0.138106 0.138106
0.165885 0.165885 0.165885
0.193665 0.193665 0.193665
0.221445 0.221445 0.221445
0.249225 0.249225 0.249225
0.279184 0.279184 0.279184
0.311924 0.311924 0.311924
0.344664 0.344664 0.344664
0.377405 0.377405 0.377405
0.231558 0.231558 0.231558
0.259338 0.259338 0.259338
0.291103 0.291103 0.291103
0.323844 0.323844 0.323844
0.356584 0.356584 0.356584
0.389324 0.389324 0.389324
0.422065 0.422065 0.422065
0.454805 0.454805 0.454805
0.487546 0.487546 0.487546
0.335763 0.335763 0.335763
0.368504 0.368504 0.368504
0.401244 0.401244 0.401244
0.433984 0.433984 0.433984
0.466725 0.466725 0.466725
0.499465 0.499465 0.499465
0.532206 0.532206 0.532206
0.564946 0.564946 0.564946
0.597686 0.597686 0.597686
0.445904 0.445904 0.445904
0.478644 0.478644 0.478644
0.511385 0.511385 0.511385
0.544125 0.544125 0.544125
0.576866 0.576866 0.576866
0.609606 0.609606 0.609606
0.642346 0.642346 0.642346
0.675087 0.675087 0.675087
0.707827 0.707827 0.707827
0.556045 0.556045 0.556045
0.588785 0.588785 0.588785
0.621526 0.621526 0.621526
0.654266 0.654266 0.654266
0.687006 0.687006 0.687006
0.719747 0.719747 0.719747
0.752487 0.752487 0.752487
0.779367 0.779367 0.779367
0.805163 0.805163 0.805163
0.666186 0.666186 0.666186
0.698926 0.698926 0.698926
0.731666 0.731666 0.731666
0.762963 0.762963 0.762963
0.788758 0.788758 0.788758
0.814554 0.814554 0.814554
0.840349 0.840349 0.840349
0.866145 0.866145 0.866145
0.891940 0.891940 0.891940
0.772354 0.772354 0.772354
0.798150 0.798150 0.798150
0.823945 0.823945 0.823945
0.849741 0.849741 0.849741
0.875536 0.875536 0.875536
0.901331 0.901331 0.901331
0.927127 0.927127 0.927127
0.952922 0.952922 0.952922
0.978718 0.978718 0.978718
0.000000 0.000000 0.000000
0.000000 0.000000 0.000000
0.016194 0.016194 0.016194
0.043973 0.043973 0.043973
0.071753 0.071753 0.071753
0.099533 0.099533 0.099533
0.127313 0.127313 0.127313
0.155092 0.155092 0.155092
0.182872 0.182872 0.182872
0.054087 0.054087 0.054087
0.081867 0.081867 0.081867
0.109646 0.109646 0.109646
0.137426 0.137426 0.137426
0.165206 0.165206 0.165206
0.192986 0.192986 0.192986
0.220765 0.220765 0.220765
0.248545 0.248545 0.248545
0.278383 0.278383 0.278383
0.147540 0.147540 0.147540
0.175319 0.175319 0.175319
0.203099 0.203099 0.203099
0.230879 0.230879 0.230879
0.258659 0.258659 0.258659
0.290302 0.290302 0.290302
0.323043 0.323043 0.323043
0.355783 0.355783 0.355783
0.388524 0.388524 0.388524
0.240993 0.240993 0.240993
0.269482 0.269482 0.269482
0.302222 0.302222 0.302222
0.334962 0.334962 0.334962
0.367703 0.367703 0.367703
0.400443 0.400443 0.400443
0.433184 0.433184 0.433184
0.465924 0.465924 0.465924
0.498664 0.498664 0.498664
0.346882 0.346882 0.346882
0.379622 0.379622 0.379622
0.412363 0.412363 0.412363
0.445103 0.445103 0.445103
0.477844 0.477844 0.477844
0.510584 0.510584 0.510584
0.543324 0.543324 0.543324
0.576065 0.576065 0.576065
0.608805 0.608805 0.608805
0.457023 0.457023 0.457023
0.489763 0.489763 0.489763
0.522504 0.522504 0.522504
0.555244 0.555244 0.555244
0.587984 0.587984 0.587984
0.620725 0.620725 0.620725
0.653465 0.653465 0.653465
0.686206 0.686206 0.686206
0.718946 0.718946 0.718946
0.567164 0.567164 0.567164
0.599904 0.599904 0.599904
0.632644 0.632644 0.632644
0.665385 0.665385 0.665385
0.698125 0.698125 0.698125
0.730866 0.730866 0.730866
0.762332 0.762332 0.762332
0.788127 0.788127 0.788127
0.813923 0.813923 0.813923
0.677304 0.677304 0.677304
0.710045 0.710045 0.710045
0.742785 0.742785 0.742785
0.771723 0.771723 0.771723
0.797519 0.797519 0.797519
0.823314 0.823314 0.823314
0.849110 0.849110 0.849110
0.874905 0.874905 0.874905
0.900701 0.900701 0.900701
0.781114 0.781114 0.781114
0.806910 0.806910 0.806910
0.832705 0.832705 0.832705
0.858501 0.858501 0.858501
0.884296 0.884296 0.884296
0.910092 0.910092 0.910092
0.935887 0.935887 0.935887
0.961683 0.961683 0.961683
0.987478 0.987478 0.987478
0.000000 0.000000 0.000000
0.000000 0.000000 0.000000
0.025628 0.025628 0.025628
0.053407 0.053407 0.053407
0.081187 0.081187 0.081187
0.108967 0.108967 0.108967
0.136747 0.136747 0.136747
0.164526 0.164526 0.164526
0.192306 0.192306 0.192306
0.063521 0.063521 0.063521
0.091301 0.091301 0.091301
0.119081 0.119081 0.119081
0.146860 0.146860 0.146860
0.174640 0.174640 0.174640
0.202420 0.202420 0.202420
0.230199 0.230199 0.230199
0.257979 0.257979 0.257979
0.289502 0.289502 0.289502
0.156974 0.156974 0.156974
0.184754 0.184754 0.184754
0.212533 0.212533 0.212533
0.240313 0.240313 0.240313
0.268681 0.268681 0.268681
0.301421 0.301421 0.301421
0.334162 0.334162 0.334162
0.366902 0.366902 0.366902
0.399642 0.399642 0.399642
0.250427 0.250427 0.250427
0.280600 0.280600 0.280600
0.313341 0.313341 0.313341
0.346081 0.346081 0.346081
0.378822 0.378822 0.378822
0.411562 0.411562 0.411562
0.444302 0.444302 0.444302
0.477043 0.477043 0.477043
0.509783 0.509783 0.509783
0.358001 0.358001 0.358001
0.390741 0.390741 0.390741
0.423482 0.423482 0.423482
0.456222 0.456222 0.456222
0.488962 0.488962 0.488962
0.521703 0.521703 0.521703
0.554443 0.554443 0.554443
0.587184 0.587184 0.587184
0.619924 0.619924 0.619924
0.468142 0.468142 0.468142
0.500882 0.500882 0.500882
0.533622 0.533622 0.533622
0.566363 0.566363 0.566363
0.599103 0.599103 0.599103
0.631844 0.631844 0.631844
0.664584 0.664584 0.664584
0.697324 0.697324 0.697324
0.730065 0.730065 0.730065
0.578282 0.578282 0.578282
0.611023 0.611023 0.611023
0.643763 0.643763 0.643763
0.676504 0.676504 0.676504
0.709244 0.709244 0.709244
0.741984 0.741984 0.741984
0.771092 0.771092 0.771092
0.796888 0.796888 0.796888
0.822683 0.822683 0.822683
0.688423 0.688423 0.688423
0.721164 0.721164 0.721164
0.753904 0.753904 0.753904
0.780484 0.780484 0.780484
0.806279 0.806279 0.806279
0.832074 0.832074 0.832074
0.857870 0.857870 0.857870
0.883665 0.883665 0.883665
0.909461 0.909461 0.909461
0.789875 0.789875 0.789875
0.815670 0.815670 0.815670
0.841466 0.841466 0.841466
0.867261 0.867261 0.867261
0.893057 0.893057 0.893057
0.918852 0.918852 0.918852
0.944647 0.944647 0.944647
0.970443 0.970443 0.970443
0.996238 0.996238 0.996238
0.000000 0.000000 0.000000
0.007282 0.007282 0.007282
0.035062 0.035062 0.035062
0.062842 0.062842 0.062842
0.090621 0.090621 0.090621
0.118401 0.118401 0.118401
0.146181 0.146181 0.146181
0.173961 0.173961 0.173961
0.201740 0.201740 0.201740
0.072955 0.072955 0.072955
0.100735 0.100735 0.100735
0.128515 0.128515 0.128515
0.156294 0.156294 0.156294
0.184074 0.184074 0.184074
0.211854 0.211854 0.211854
0.239634 0.239634 0.239634
0.267880 0.267880 0.267880
0.300620 0.300620 0.300620
0.166408 0.166408 0.166408
0.194188 0.194188 0.194188
0.221967 0.221967 0.221967
0.249747 0.249747 0.249747
0.279800 0.279800 0.279800
0.312540 0.312540 0.312540
0.345280 0.345280 0.345280
0.378021 0.378021 0.378021
0.410761 0.410761 0.410761
0.259861 0.259861 0.259861
0.291719 0.291719 0.291719
0.324460 0.324460 0.324460
0.357200 0.357200 0.357200
0.389940 0.389940 0.389940
0.422681 0.422681 0.422681
0.455421 0.455421 0.455421
0.488162 0.488162 0.488162
0.520902 0.520902 0.520902
0.369120 0.369120 0.369120
0.401860 0.401860 0.401860
0.434600 0.434600 0.434600
0.467341 0.467341 0.467341
0.500081 0.500081 0.500081
0.532822 0.532822 0.532822
0.565562 0.565562 0.565562
0.598302 0.598302 0.598302
0.631043 0.631043 0.631043
0.479260 0.479260 0.479260
0.512001 0.512001 0.512001
0.544741 0.544741 0.544741
0.577482 0.577482 0.577482
0.610222 0.610222 0.610222
0.642962 0.642962 0.642962
0.675703 0.675703 0.675703
0.708443 0.708443 0.708443
0.741184 0.741184 0.741184
0.589401 0.589401 0.589401
0.622142 0.622142 0.622142
0.654882 0.654882 0.654882
0.687622 0.687622 0.687622
0.720363 0.720363 0.720363
0.753103 0.753103 0.753103
0.779853 0.779853 0.779853
0.805648 0.805648 0.805648
0.831443 0.831443 0.831443
0.699542 0.699542 0.699542
0.732282 0.732282 0.732282
0.763448 0.763448 0.763448
0.789244 0.789244 0.789244
0.815039 0.815039 0.815039
0.840835 0.840835 0.840835
0.866630 0.866630 0.866630
0.892426 0.892426 0.892426
0.918221 0.918221 0.918221
0.798635 0.798635 0.798635
0.824430 0.824430 0.824430
0.850226 0.850226 0.850226
0.876021 0.876021 0.876021
0.901817 0.901817 0.901817
0.927612 0.927612 0.927612
0.953408 0.953408 0.953408
0.979203 0.979203 0.979203
1.000000 1.000000 1.000000
0.000000 0.000000 0.000000
0.016716 0.016716 0.016716
0.044496 0.044496 0.044496
0.072276 0.072276 0.072276
0.100055 0.100055 0.100055
0.127835 0.127835 0.127835
0.155615 0.155615 0.155615
0.183395 0.183395 0.183395
0.211174 0.211174 0.211174
0.082389 0.082389 0.082389
0.110169 0.110169 0.110169
0.137949 0.137949 0.137949
0.165729 0.165729 0.165729
0.193508 0.193508 0.193508
0.221288 0.221288 0.221288
0.249068 0.249068 0.249068
0.278999 0.278999 0.278999
0.311739 0.311739 0.311739
0.175842 0.175842 0.175842
0.203622 0.203622 0.203622
0.231402 0.231402 0.231402
0.259181 0.259181 0.259181
0.290918 0.290918 0.290918
0.323659 0.323659 0.323659
0.356399 0.356399 0.356399
0.389140 0.389140 0.389140
0.421880 0.421880 0.421880
0.270098 0.270098 0.270098
0.302838 0.302838 0.302838
0.335578 0.335578 0.335578
0.368319 0.368319 0.368319
0.401059 0.401059 0.401059
0.433800 0.433800 0.433800
0.466540 0.466540 0.466540
0.499280 0.499280 0.499280
0.532021 0.532021 0.532021
0.380238 0.380238 0.380238
0.412979 0.412979 0.412979
0.445719 0.445719 0.445719
0.478460 0.478460 0.478460
0.511200 0.511200 0.511200
0.543940 0.543940 0.543940
0.576681 0.576681 0.576681
0.609421 0.609421 0.609421
0.642162 0.642162 0.642162
0.490379 0.490379 0.490379
0.523120 0.523120 0.523120
0.555860 0.555860 0.555860
0.588600 0.588600 0.588600
0.621341 0.621341 0.621341
0.654081 0.654081 0.654081
0.686822 0.686822 0.686822
0.719562 0.719562 0.719562
0.752302 0.752302 0.752302
0.600520 0.600520 0.600520
0.633260 0.633260 0.633260
0.666001 0.666001 0.666001
0.698741 0.698741 0.698741
0.731482 0.731482 0.731482
0.762817 0.762817 0.762817
0.788613 0.788613 0.788613
0.814408 0.814408 0.814408
0.840204 0.840204 0.840204
0.710661 0.710661 0.710661
0.743401 0.743401 0.743401
0.772209 0.772209 0.772209
0.798004 0.798004 0.798004
0.823800 0.823800 0.823800
0.849595 0.849595 0.849595
0.875390 0.875390 0.875390
0.901186 0.901186 0.901186
0.926981 0.926981 0.926981
0.807395 0.807395 0.807395
0.833191 0.833191 0.833191
0.858986 0.858986 0.858986
0.884782 0.884782 0.884782
0.910577 0.910577 0.910577
0.936373 0.936373 0.936373
0.962168 0.962168 0.962168
0.987963 0.987963 0.987963
1.000000 1.000000 1.000000
0.000000 0.000000 0.000000
0.026150 0.026150 0.026150
0.053930 0.053930 0.053930
0.081710 0.081710 0.081710
0.109490 0.109490 0.109490
0.137269 0.137269 0.137269
0.165049 0.165049 0.165049
0.192829 0.192829 0.192829
0.220609 0.220609 0.220609
0.091823 0.091823 0.091823
0.119603 0.119603 0.119603
0.147383 0.147383 0.147383
0.175163 0.175163 0.175163
0.202942 0.202942 0.202942
0.230722 0.230722 0.230722
0.258502 0.258502 0.258502
0.290118 0.290118 0.290118
0.322858 0.322858 0.322858
0.185276 0.185276 0.185276
0.213056 0.213056 0.213056
0.240836 0.240836 0.240836
0.269297 0.269297 0.269297
0.302037 0.302037 0.302037
0.334778 0.334778 0.334778
0.367518 0.367518 0.367518
0.400258 0.400258 0.400258
0.432999 0.432999 0.432999
0.281216 0.281216 0.281216
0.313957 0.313957 0.313957
0.346697 0.346697 0.346697
0.379438 0.379438 0.379438
0.412178 0.412178 0.412178
0.444918 0.444918 0.444918
0.477659 0.477659 0.477659
0.510399 0.510399 0.510399
0.543140 0.543140 0.543140
0.391357 0.391357 0.391357
0.424098 0.424098 0.424098
0.456838 0.456838 0.456838
0.489578 0.489578 0.489578
0.522319 0.522319 0.522319
0.555059 0.555059 0.555059
0.587800 0.587800 0.587800
0.620540 0.620540 0.620540
0.653280 0.653280 0.653280
0.501498 0.501498 0.501498
0.534238 0.534238 0.534238
0.566979 0.566979 0.566979
0.599719 0.599719 0.599719
0.632460 0.632460 0.632460
0.665200 0.665200 0.665200
0.697940 0.697940 0.697940
0.730681 0.730681 0.730681
0.762186 0.762186 0.762186
0.611639 0.611639 0.611639
0.644379 0.644379 0.644379
0.677120 0.677120 0.677120
0.709860 0.709860 0.709860
0.742600 0.742600 0.742600
0.771578 0.771578 0.771578
0.797373 0.797373 0.797373
0.823169 0.823169 0.823169
0.848964 0.848964 0.848964
0.721780 0.721780 0.721780
0.754520 0.754520 0.754520
0.780969 0.780969 0.780969
0.806764 0.806764 0.806764
0.832560 0.832560 0.832560
0.858355 0.858355 0.858355
0.884151 0.884151 0.884151
0.909946 0.909946 0.909946
0.935742 0.935742 0.935742
0.816155 0.816155 0.816155
0.841951 0.841951 0.841951
0.867746 0.867746 0.867746
0.893542 0.893542 0.893542
0.919337 0.919337 0.919337
0.945133 0.945133 0.945133
0.970928 0.970928 0.970928
0.996724 0.996724 0.996724
1.000000 1.000000 1.000000
0.007805 0.007805 0.007805
0.035585 0.035585 0.035585
0.063364 0.063364 0.063364
0.091144 0.091144 0.091144
0.118924 0.118924 0.118924
0.146703 0.146703 0.146703
0.174483 0.174483 0.174483
0.202263 0.202263 0.202263
0.230043 0.230043 0.230043
0.101258 0.101258 0.101258
0.129037 0.129037 0.129037
0.156817 0.156817 0.156817
0.184597 0.184597 0.184597
0.212377 0.212377 0.212377
0.240156 0.240156 0.240156
0.268496 0.268496 0.268496
0.301236 0.301236 0.301236
0.333977 0.333977 0.333977
0.194710 0.194710 0.194710
0.222490 0.222490 0.222490
0.250270 0.250270 0.250270
0.280416 0.280416 0.280416
0.313156 0.313156 0.313156
0.345896 0.345896 0.345896
0.378637 0.378637 0.378637
0.411377 0.411377 0.411377
0.444118 0.444118 0.444118
0.292335 0.292335 0.292335
0.325076 0.325076 0.325076
0.357816 0.357816 0.357816
0.390556 0.390556 0.390556
0.423297 0.423297 0.423297
0.456037 0.456037 0.456037
0.488778 0.488778 0.488778
0.521518 0.521518 0.521518
0.554258 0.554258 0.554258
0.402476 0.402476 0.402476
0.435216 0.435216 0.435216
0.467957 0.467957 0.467957
0.500697 0.500697 0.500697
0.533438 0.533438 0.533438
0.566178 0.566178 0.566178
0.598918 0.598918 0.598918
0.631659 0.631659 0.631659
0.664399 0.664399 0.664399
0.512617 0.512617 0.512617
0.545357 0.545357 0.545357
0.578098 0.578098 0.578098
0.610838 0.610838 0.610838
0.643578 0.643578 0.643578
0.676319 0.676319 0.676319
0.709059 0.709059 0.709059
0.741800 0.741800 0.741800
0.770947 0.770947 0.770947
0.622758 0.622758 0.622758
0.655498 0.655498 0.655498
0.688238 0.688238 0.688238
0.720979 0.720979 0.720979
0.753719 0.753719 0.753719
0.780338 0.780338 0.780338
0.806133 0.806133 0.806133
0.831929 0.831929 0.831929
0.857724 0.857724 0.857724
0.732898 0.732898 0.732898
0.763934 0.763934 0.763934
0.789729 0.789729 0.789729
0.815525 0.815525 0.815525
0.841320 0.841320 0.841320
0.867115 0.867115 0.867115
0.892911 0.892911 0.892911
0.918706 0.918706 0.918706
0.944502 0.944502 0.944502
0.824916 0.824916 0.824916
0.850711 0.850711 0.850711
0.876507 0.876507 0.876507
0.902302 0.902302 0.902302
0.928098 0.928098 0.928098
0.953893 0.953893 0.953893
0.979689 0.979689 0.979689
1.000000 1.000000 1.000000
1.000000 1.000000 1.000000
0.017239 0.017239 0.017239
0.045019 0.045019 0.045019
0.072798 0.072798 0.072798
0.100578 0.100578 0.100578
0.128358 0.128358 0.128358
0.156138 0.156138 0.156138
0.183917 0.183917 0.183917
0.211697 0.211697 0.211697
0.239477 0.239477 0.239477
0.110692 0.110692 0.110692
0.138471 0.138471 0.138471
0.166251 0.166251 0.166251
0.194031 0.194031 0.194031
0.221811 0.221811 0.221811
0.249590 0.249590 0.249590
0.279615 0.279615 0.279615
0.312355 0.312355 0.312355
0.345096 0.345096 0.345096
0.204145 0.204145 0.204145
0.231924 0.231924 0.231924
0.259704 0.259704 0.259704
0.291534 0.291534 0.291534
0.324275 0.324275 0.324275
0.357015 0.357015 0.357015
0.389756 0.389756 0.389756
0.422496 0.422496 0.422496
0.455236 0.455236 0.455236
0.303454 0.303454 0.303454
0.336194 0.336194 0.336194
0.368935 0.368935 0.368935
0.401675 0.401675 0.401675
0.434416 0.434416 0.434416
0.467156 0.467156 0.467156
0.499896 0.499896 0.499896
0.532637 0.532637 0.532637
0.565377 0.565377 0.565377
0.413595 0.413595 0.413595
0.446335 0.446335 0.446335
0.479076 0.479076 0.479076
0.511816 0.511816 0.511816
0.544556 0.544556 0.544556
0.577297 0.577297 0.577297
0.610037 0.610037 0.610037
0.642778 0.642778 0.642778
0.675518 0.675518 0.675518
0.523736 0.523736 0.523736
0.556476 0.556476 0.556476
0.589216 0.589216 0.589216
0.621957 0.621957 0.621957
0.654697 0.654697 0.654697
0.687438 0.687438 0.687438
0.720178 0.720178 0.720178
0.752918 0.752918 0.752918
0.779707 0.779707 0.779707
0.633876 0.633876 0.633876
0.666617 0.666617 0.666617
0.699357 0.699357 0.699357
0.732098 0.732098 0.732098
0.763303 0.763303 0.763303
0.789098 0.789098 0.789098
0.814894 0.814894 0.814894
0.840689 0.840689 0.840689
0.866485 0.866485 0.866485
0.744017 0.744017 0.744017
0.772694 0.772694 0.772694
0.798489 0.798489 0.798489
0.824285 0.824285 0.824285
0.850080 0.850080 0.850080
0.875876 0.875876 0.875876
0.901671 0.901671 0.901671
0.927467 0.927467 0.927467
0.953262 0.953262 0.953262
0.833676 0.833676 0.833676
0.859472 0.859472 0.859472
0.885267 0.885267 0.885267
0.911062 0.911062 0.911062
0.936858 0.936858 0.936858
0.962653 0.962653 0.962653
0.988449 0.988449 0.988449
1.000000 1.000000 1.000000
1.000000 1.000000 1.000000
0.026673 0.026673 0.026673
0.054453 0.054453 0.054453
0.082233 0.082233 0.082233
0.110012 0.110012 0.110012
0.137792 0.137792 0.137792
0.165572 0.165572 0.165572
0.193351 0.193351 0.193351
0.221131 0.221131 0.221131
0.248911 0.248911 0.248911
0.120126 0.120126 0.120126
0.147906 0.147906 0.147906
0.175685 0.175685 0.175685
0.203465 0.203465 0.203465
0.231245 0.231245 0.231245
0.259025 0.259025 0.259025
0.290734 0.290734 0.290734
0.323474 0.323474 0.323474
0.356214 0.356214 0.356214
0.213579 0.213579 0.213579
0.241358 0.241358 0.241358
0.269913 0.269913 0.269913
0.302653 0.302653 0.302653
0.335394 0.335394 0.335394
0.368134 0.368134 0.368134
0.400874 0.400874 0.400874
0.433615 0.433615 0.433615
0.466355 0.466355 0.466355
0.314573 0.314573 0.314573
0.347313 0.347313 0.347313
0.380054 0.380054 0.380054
0.412794 0.412794 0.412794
0.445534 0.445534 0.445534
0.478275 0.478275 0.478275
0.511015 0.511015 0.511015
0.543756 0.543756 0.543756
0.576496 0.576496 0.576496
0.424714 0.424714 0.424714
0.457454 0.457454 0.457454
0.490194 0.490194 0.490194
0.522935 0.522935 0.522935
0.555675 0.555675 0.555675
0.588416 0.588416 0.588416
0.621156 0.621156 0.621156
0.653896 0.653896 0.653896
0.686637 0.686637 0.686637
0.534854 0.534854 0.534854
0.567595 0.567595 0.567595
0.600335 0.600335 0.600335
0.633076 0.633076 0.633076
0.665816 0.665816 0.665816
0.698556 0.698556 0.698556
0.731297 0.731297 0.731297
0.762672 0.762672 0.762672
0.788467 0.788467 0.788467
0.644995 0.644995 0.644995
0.677736 0.677736 0.677736
0.710476 0.710476 0.710476
0.743216 0.743216 0.743216
0.772063 0.772063 0.772063
0.797858 0.797858 0.797858
0.823654 0.823654 0.823654
0.849449 0.849449 0.849449
0.875245 0.875245 0.875245
0.755136 0.755136 0.755136
0.781454 0.781454 0.781454
0.807250 0.807250 0.807250
0.833045 0.833045 0.833045
0.858841 0.858841 0.858841
0.884636 0.884636 0.884636
0.910431 0.910431 0.910431
0.936227 0.936227 0.936227
0.962022 0.962022 0.962022
0.842436 0.842436 0.842436
0.868232 0.868232 0.868232
0.894027 0.894027 0.894027
0.919823 0.919823 0.919823
0.945618 0.945618 0.945618
0.971414 0.971414 0.971414
0.997209 0.997209 0.997209
1.000000 1.000000 1.000000
1.000000 1.000000 1.000000
