luts/mono_gritty_400.cube
TITLE "Bw Tri X 400"
LUT_3D_SIZE 9
0.000000 0.000000 0.000000
0.000000 0.000000 0.000000
0.000000 0.000000 0.000000
0.000000 0.000000 0.000000
0.022891 0.022891 0.022891
0.051113 0.051113 0.051113
0.079336 0.079336 0.079336
0.107559 0.107559 0.107559
0.138259 0.138259 0.138259
0.004943 0.004943 0.004943
0.033165 0.033165 0.033165
0.061388 0.061388 0.061388
0.089611 0.089611 0.089611
0.117833 0.117833 0.117833
0.150437 0.150437 0.150437
0.183886 0.183886 0.183886
0.217335 0.217335 0.217335
0.250784 0.250784 0.250784
0.099886 0.099886 0.099886
0.129165 0.129165 0.129165
0.162614 0.162614 0.162614
0.196063 0.196063 0.196063
0.229513 0.229513 0.229513
0.262962 0.262962 0.262962
0.296411 0.296411 0.296411
0.329860 0.329860 0.329860
0.363309 0.363309 0.363309
0.208241 0.208241 0.208241
0.241690 0.241690 0.241690
0.275139 0.275139 0.275139
0.308588 0.308588 0.308588
0.342037 0.342037 0.342037
0.375486 0.375486 0.375486
0.408935 0.408935 0.408935
0.442385 0.442385 0.442385
0.475834 0.475834 0.475834
0.320766 0.320766 0.320766
0.354215 0.354215 0.354215
0.387664 0.387664 0.387664
0.421113 0.421113 0.421113
0.454562 0.454562 0.454562
0.488011 0.488011 0.488011
0.521460 0.521460 0.521460
0.554909 0.554909 0.554909
0.588358 0.588358 0.588358
0.433291 0.433291 0.433291
0.466740 0.466740 0.466740
0.500189 0.500189 0.500189
0.533638 0.533638 0.533638
0.567087 0.567087 0.567087
0.600536 0.600536 0.600536
0.633985 0.633985 0.633985
0.667434 0.667434 0.667434
0.700883 0.700883 0.700883
0.545815 0.545815 0.545815
0.579265 0.579265 0.579265
0.612714 0.612714 0.612714
0.646163 0.646163 0.646163
0.679612 0.679612 0.679612
0.713061 0.713061 0.713061
0.746510 0.746510 0.746510
0.779959 0.779959 0.779959
0.813408 0.813408 0.813408
0.658340 0.658340 0.658340
0.691789 0.691789 0.691789
0.725238 0.725238 0.725238
0.758688 0.758688 0.758688
0.792137 0.792137 0.792137
0.825586 0.825586 0.825586
0.859035 0.859035 0.859035
0.890158 0.890158 0.890158
0.918381 0.918381 0.918381
0.770865 0.770865 0.770865
0.804314 0.804314 0.804314
0.837763 0.837763 0.837763
0.871212 0.871212 0.871212
0.900433 0.900433 0.900433
0.928656 0.928656 0.928656
0.956878 0.956878 0.956878
0.985101 0.985101 0.985101
1.000000 1.000000 1.000000
0.000000 0.000000 0.000000
0.000000 0.000000 0.000000
0.000000 0.000000 0.000000
0.004252 0.004252 0.004252
0.032475 0.032475 0.032475
0.060698 0.060698 0.060698
0.088920 0.088920 0.088920
0.117143 0.117143 0.117143
0.149619 0.149619 0.149619
0.014527 0.014527 0.014527
0.042750 0.042750 0.042750
0.070973 0.070973 0.070973
0.099195 0.099195 0.099195
0.128347 0.128347 0.128347
0.161796 0.161796 0.161796
0.195245 0.195245 0.195245
0.228694 0.228694 0.228694
0.262143 0.262143 0.262143
0.109470 0.109470 0.109470
0.140525 0.140525 0.140525
0.173974 0.173974 0.173974
0.207423 0.207423 0.207423
0.240872 0.240872 0.240872
0.274321 0.274321 0.274321
0.307770 0.307770 0.307770
0.341219 0.341219 0.341219
0.374668 0.374668 0.374668
0.219601 0.219601 0.219601
0.253050 0.253050 0.253050
0.286499 0.286499 0.286499
0.319948 0.319948 0.319948
0.353397 0.353397 0.353397
0.386846 0.386846 0.386846
0.420295 0.420295 0.420295
0.453744 0.453744 0.453744
0.487193 0.487193 0.487193
0.332125 0.332125 0.332125
0.365574 0.365574 0.365574
0.399023 0.399023 0.399023
0.432473 0.432473 0.432473
0.465922 0.465922 0.465922
0.499371 0.499371 0.499371
0.532820 0.532820 0.532820
0.566269 0.566269 0.566269
0.599718 0.599718 0.599718
0.444650 0.444650 0.444650
0.478099 0.478099 0.478099
0.511548 0.511548 0.511548
0.544997 0.544997 0.544997
0.578446 0.578446 0.578446
0.611895 0.611895 0.611895
0.645344 0.645344 0.645344
0.678794 0.678794 0.678794
0.712243 0.712243 0.712243
0.557175 0.557175 0.557175
0.590624 0.590624 0.590624
0.624073 0.624073 0.624073
0.657522 0.657522 0.657522
0.690971 0.690971 0.690971
0.724420 0.724420 0.724420
0.757869 0.757869 0.757869
0.791318 0.791318 0.791318
0.824767 0.824767 0.824767
0.669700 0.669700 0.669700
0.703149 0.703149 0.703149
0.736598 0.736598 0.736598
0.770047 0.770047 0.770047
0.803496 0.803496 0.803496
0.836945 0.836945 0.836945
0.870394 0.870394 0.870394
0.899743 0.899743 0.899743
0.927965 0.927965 0.927965
0.782225 0.782225 0.782225
0.815674 0.815674 0.815674
0.849123 0.849123 0.849123
0.881795 0.881795 0.881795
0.910018 0.910018 0.910018
0.938240 0.938240 0.938240
0.966463 0.966463 0.966463
0.994685 0.994685 0.994685
1.000000 1.000000 1.000000
0.000000 0.000000 0.000000
0.000000 0.000000 0.000000
0.000000 0.000000 0.000000
0.013837 0.013837 0.013837
0.042060 0.042060 0.042060
0.070282 0.070282 0.070282
0.098505 0.098505 0.098505
0.127529 0.127529 0.127529
0.160978 0.160978 0.160978
0.024112 0.024112 0.024112
0.052335 0.052335 0.052335
0.080557 0.080557 0.080557
0.108780 0.108780 0.108780
0.139707 0.139707 0.139707
0.173156 0.173156 0.173156
0.206605 0.206605 0.206605
0.240054 0.240054 0.240054
0.273503 0.273503 0.273503
0.119055 0.119055 0.119055
0.151884 0.151884 0.151884
0.185333 0.185333 0.185333
0.218782 0.218782 0.218782
0.252231 0.252231 0.252231
0.285681 0.285681 0.285681
0.319130 0.319130 0.319130
0.352579 0.352579 0.352579
0.386028 0.386028 0.386028
0.230960 0.230960 0.230960
0.264409 0.264409 0.264409
0.297858 0.297858 0.297858
0.331307 0.331307 0.331307
0.364756 0.364756 0.364756
0.398205 0.398205 0.398205
0.431654 0.431654 0.431654
0.465103 0.465103 0.465103
0.498553 0.498553 0.498553
0.343485 0.343485 0.343485
0.376934 0.376934 0.376934
0.410383 0.410383 0.410383
0.443832 0.443832 0.443832
0.477281 0.477281 0.477281
0.510730 0.510730 0.510730
0.544179 0.544179 0.544179
0.577628 0.577628 0.577628
0.611077 0.611077 0.611077
0.456010 0.456010 0.456010
0.489459 0.489459 0.489459
0.522908 0.522908 0.522908
0.556357 0.556357 0.556357
0.589806 0.589806 0.589806
0.623255 0.623255 0.623255
0.656704 0.656704 0.656704
0.690153 0.690153 0.690153
0.723602 0.723602 0.723602
0.568534 0.568534 0.568534
0.601984 0.601984 0.601984
0.635433 0.635433 0.635433
0.668882 0.668882 0.668882
0.702331 0.702331 0.702331
0.735780 0.735780 0.735780
0.769229 0.769229 0.769229
0.802678 0.802678 0.802678
0.836127 0.836127 0.836127
0.681059 0.681059 0.681059
0.714508 0.714508 0.714508
0.747957 0.747957 0.747957
0.781406 0.781406 0.781406
0.814855 0.814855 0.814855
0.848305 0.848305 0.848305
0.881105 0.881105 0.881105
0.909327 0.909327 0.909327
0.937550 0.937550 0.937550
0.793584 0.793584 0.793584
0.827033 0.827033 0.827033
0.860482 0.860482 0.860482
0.891379 0.891379 0.891379
0.919602 0.919602 0.919602
0.947825 0.947825 0.947825
0.976047 0.976047 0.976047
1.000000 1.000000 1.000000
1.000000 1.000000 1.000000
0.000000 0.000000 0.000000
0.000000 0.000000 0.000000
0.000000 0.000000 0.000000
0.023422 0.023422 0.023422
0.051644 0.051644 0.051644
0.079867 0.079867 0.079867
0.108090 0.108090 0.108090
0.138889 0.138889 0.138889
0.172338 0.172338 0.172338
0.033696 0.033696 0.033696
0.061919 0.061919 0.061919
0.090142 0.090142 0.090142
0.118364 0.118364 0.118364
0.151066 0.151066 0.151066
0.184515 0.184515 0.184515
0.217964 0.217964 0.217964
0.251413 0.251413 0.251413
0.284862 0.284862 0.284862
0.129795 0.129795 0.129795
0.163244 0.163244 0.163244
0.196693 0.196693 0.196693
0.230142 0.230142 0.230142
0.263591 0.263591 0.263591
0.297040 0.297040 0.297040
0.330489 0.330489 0.330489
0.363938 0.363938 0.363938
0.397387 0.397387 0.397387
0.242319 0.242319 0.242319
0.275769 0.275769 0.275769
0.309218 0.309218 0.309218
0.342667 0.342667 0.342667
0.376116 0.376116 0.376116
0.409565 0.409565 0.409565
0.443014 0.443014 0.443014
0.476463 0.476463 0.476463
0.509912 0.509912 0.509912
0.354844 0.354844 0.354844
0.388293 0.388293 0.388293
0.421742 0.421742 0.421742
0.455191 0.455191 0.455191
0.488641 0.488641 0.488641
0.522090 0.522090 0.522090
0.555539 0.555539 0.555539
0.588988 0.588988 0.588988
0.622437 0.622437 0.622437
0.467369 0.467369 0.467369
0.500818 0.500818 0.500818
0.534267 0.534267 0.534267
0.567716 0.567716 0.567716
0.601165 0.601165 0.601165
0.634614 0.634614 0.634614
0.668063 0.668063 0.668063
0.701513 0.701513 0.701513
0.734962 0.734962 0.734962
0.579894 0.579894 0.579894
0.613343 0.613343 0.613343
0.646792 0.646792 0.646792
0.680241 0.680241 0.680241
0.713690 0.713690 0.713690
0.747139 0.747139 0.747139
0.780588 0.780588 0.780588
0.814037 0.814037 0.814037
0.847486 0.847486 0.847486
0.692419 0.692419 0.692419
0.725868 0.725868 0.725868
0.759317 0.759317 0.759317
0.792766 0.792766 0.792766
0.826215 0.826215 0.826215
0.859664 0.859664 0.859664
0.890689 0.890689 0.890689
0.918912 0.918912 0.918912
0.947134 0.947134 0.947134
0.804943 0.804943 0.804943
0.838393 0.838393 0.838393
0.871842 0.871842 0.871842
0.900964 0.900964 0.900964
0.929187 0.929187 0.929187
0.957409 0.957409 0.957409
0.985632 0.985632 0.985632
1.000000 1.000000 1.000000
1.000000 1.000000 1.000000
0.000000 0.000000 0.000000
0.000000 0.000000 0.000000
0.004783 0.004783 0.004783
0.033006 0.033006 0.033006
0.061229 0.061229 0.061229
0.089451 0.089451 0.089451
0.117674 0.117674 0.117674
0.150248 0.150248 0.150248
0.183697 0.183697 0.183697
0.043281 0.043281 0.043281
0.071504 0.071504 0.071504
0.099726 0.099726 0.099726
0.128977 0.128977 0.128977
0.162426 0.162426 0.162426
0.195875 0.195875 0.195875
0.229324 0.229324 0.229324
0.262773 0.262773 0.262773
0.296222 0.296222 0.296222
0.141154 0.141154 0.141154
0.174603 0.174603 0.174603
0.208052 0.208052 0.208052
0.241501 0.241501 0.241501
0.274950 0.274950 0.274950
0.308399 0.308399 0.308399
0.341849 0.341849 0.341849
0.375298 0.375298 0.375298
0.408747 0.408747 0.408747
0.253679 0.253679 0.253679
0.287128 0.287128 0.287128
0.320577 0.320577 0.320577
0.354026 0.354026 0.354026
0.387475 0.387475 0.387475
0.420924 0.420924 0.420924
0.454373 0.454373 0.454373
0.487822 0.487822 0.487822
0.521271 0.521271 0.521271
0.366204 0.366204 0.366204
0.399653 0.399653 0.399653
0.433102 0.433102 0.433102
0.466551 0.466551 0.466551
0.500000 0.500000 0.500000
0.533449 0.533449 0.533449
0.566898 0.566898 0.566898
0.600347 0.600347 0.600347
0.633796 0.633796 0.633796
0.478729 0.478729 0.478729
0.512178 0.512178 0.512178
0.545627 0.545627 0.545627
0.579076 0.579076 0.579076
0.612525 0.612525 0.612525
0.645974 0.645974 0.645974
0.679423 0.679423 0.679423
0.712872 0.712872 0.712872
0.746321 0.746321 0.746321
0.591253 0.591253 0.591253
0.624702 0.624702 0.624702
0.658152 0.658152 0.658152
0.691601 0.691601 0.691601
0.725050 0.725050 0.725050
0.758499 0.758499 0.758499
0.791948 0.791948 0.791948
0.825397 0.825397 0.825397
0.858846 0.858846 0.858846
0.703778 0.703778 0.703778
0.737227 0.737227 0.737227
0.770676 0.770676 0.770676
0.804125 0.804125 0.804125
0.837574 0.837574 0.837574
0.871023 0.871023 0.871023
0.900274 0.900274 0.900274
0.928496 0.928496 0.928496
0.956719 0.956719 0.956719
0.816303 0.816303 0.816303
0.849752 0.849752 0.849752
0.882326 0.882326 0.882326
0.910549 0.910549 0.910549
0.938771 0.938771 0.938771
0.966994 0.966994 0.966994
0.995217 0.995217 0.995217
1.000000 1.000000 1.000000
1.000000 1.000000 1.000000
0.000000 0.000000 0.000000
0.000000 0.000000 0.000000
0.014368 0.014368 0.014368
0.042591 0.042591 0.042591
0.070813 0.070813 0.070813
0.099036 0.099036 0.099036
0.128158 0.128158 0.128158
0.161607 0.161607 0.161607
0.195057 0.195057 0.195057
0.052866 0.052866 0.052866
0.081088 0.081088 0.081088
0.109311 0.109311 0.109311
0.140336 0.140336 0.140336
0.173785 0.173785 0.173785
0.207234 0.207234 0.207234
0.240683 0.240683 0.240683
0.274132 0.274132 0.274132
0.307581 0.307581 0.307581
0.152514 0.152514 0.152514
0.185963 0.185963 0.185963
0.219412 0.219412 0.219412
0.252861 0.252861 0.252861
0.286310 0.286310 0.286310
0.319759 0.319759 0.319759
0.353208 0.353208 0.353208
0.386657 0.386657 0.386657
0.420106 0.420106 0.420106
0.265038 0.265038 0.265038
0.298487 0.298487 0.298487
0.331937 0.331937 0.331937
0.365386 0.365386 0.365386
0.398835 0.398835 0.398835
0.432284 0.432284 0.432284
0.465733 0.465733 0.465733
0.499182 0.499182 0.499182
0.532631 0.532631 0.532631
0.377563 0.377563 0.377563
0.411012 0.411012 0.411012
0.444461 0.444461 0.444461
0.477910 0.477910 0.477910
0.511359 0.511359 0.511359
0.544809 0.544809 0.544809
0.578258 0.578258 0.578258
0.611707 0.611707 0.611707
0.645156 0.645156 0.645156
0.490088 0.490088 0.490088
0.523537 0.523537 0.523537
0.556986 0.556986 0.556986
0.590435 0.590435 0.590435
0.623884 0.623884 0.623884
0.657333 0.657333 0.657333
0.690782 0.690782 0.690782
0.724231 0.724231 0.724231
0.757681 0.757681 0.757681
0.602613 0.602613 0.602613
0.636062 0.636062 0.636062
0.669511 0.669511 0.669511
0.702960 0.702960 0.702960
0.736409 0.736409 0.736409
0.769858 0.769858 0.769858
0.803307 0.803307 0.803307
0.836756 0.836756 0.836756
0.870205 0.870205 0.870205
0.715138 0.715138 0.715138
0.748587 0.748587 0.748587
0.782036 0.782036 0.782036
0.815485 0.815485 0.815485
0.848934 0.848934 0.848934
0.881636 0.881636 0.881636
0.909858 0.909858 0.909858
0.938081 0.938081 0.938081
0.966304 0.966304 0.966304
0.827662 0.827662 0.827662
0.861112 0.861112 0.861112
0.891910 0.891910 0.891910
0.920133 0.920133 0.920133
0.948356 0.948356 0.948356
0.976578 0.976578 0.976578
1.000000 1.000000 1.000000
1.000000 1.000000 1.000000
1.000000 1.000000 1.000000
0.000000 0.000000 0.000000
0.000000 0.000000 0.000000
0.023953 0.023953 0.023953
0.052175 0.052175 0.052175
0.080398 0.080398 0.080398
0.108621 0.108621 0.108621
0.139518 0.139518 0.139518
0.172967 0.172967 0.172967
0.206416 0.206416 0.206416
0.062450 0.062450 0.062450
0.090673 0.090673 0.090673
0.118895 0.118895 0.118895
0.151695 0.151695 0.151695
0.185145 0.185145 0.185145
0.218594 0.218594 0.218594
0.252043 0.252043 0.252043
0.285492 0.285492 0.285492
0.318941 0.318941 0.318941
0.163873 0.163873 0.163873
0.197322 0.197322 0.197322
0.230771 0.230771 0.230771
0.264220 0.264220 0.264220
0.297669 0.297669 0.297669
0.331118 0.331118 0.331118
0.364567 0.364567 0.364567
0.398017 0.398017 0.398017
0.431466 0.431466 0.431466
0.276398 0.276398 0.276398
0.309847 0.309847 0.309847
0.343296 0.343296 0.343296
0.376745 0.376745 0.376745
0.410194 0.410194 0.410194
0.443643 0.443643 0.443643
0.477092 0.477092 0.477092
0.510541 0.510541 0.510541
0.543990 0.543990 0.543990
0.388923 0.388923 0.388923
0.422372 0.422372 0.422372
0.455821 0.455821 0.455821
0.489270 0.489270 0.489270
0.522719 0.522719 0.522719
0.556168 0.556168 0.556168
0.589617 0.589617 0.589617
0.623066 0.623066 0.623066
0.656515 0.656515 0.656515
0.501447 0.501447 0.501447
0.534897 0.534897 0.534897
0.568346 0.568346 0.568346
0.601795 0.601795 0.601795
0.635244 0.635244 0.635244
0.668693 0.668693 0.668693
0.702142 0.702142 0.702142
0.735591 0.735591 0.735591
0.769040 0.769040 0.769040
0.613972 0.613972 0.613972
0.647421 0.647421 0.647421
0.680870 0.680870 0.680870
0.714319 0.714319 0.714319
0.747769 0.747769 0.747769
0.781218 0.781218 0.781218
0.814667 0.814667 0.814667
0.848116 0.848116 0.848116
0.880945 0.880945 0.880945
0.726497 0.726497 0.726497
0.759946 0.759946 0.759946
0.793395 0.793395 0.793395
0.826844 0.826844 0.826844
0.860293 0.860293 0.860293
0.891220 0.891220 0.891220
0.919443 0.919443 0.919443
0.947665 0.947665 0.947665
0.975888 0.975888 0.975888
0.839022 0.839022 0.839022
0.872471 0.872471 0.872471
0.901495 0.901495 0.901495
0.929718 0.929718 0.929718
0.957940 0.957940 0.957940
0.986163 0.986163 0.986163
1.000000 1.000000 1.000000
1.000000 1.000000 1.000000
1.000000 1.000000 1.000000
0.000000 0.000000 0.000000
0.005314 0.005314 0.005314
0.033537 0.033537 0.033537
0.061760 0.061760 0.061760
0.089982 0.089982 0.089982
0.118205 0.118205 0.118205
0.150877 0.150877 0.150877
0.184326 0.184326 0.184326
0.217775 0.217775 0.217775
0.072035 0.072035 0.072035
0.100257 0.100257 0.100257
0.129606 0.129606 0.129606
0.163055 0.163055 0.163055
0.196504 0.196504 0.196504
0.229953 0.229953 0.229953
0.263402 0.263402 0.263402
0.296851 0.296851 0.296851
0.330300 0.330300 0.330300
0.175233 0.175233 0.175233
0.208682 0.208682 0.208682
0.242131 0.242131 0.242131
0.275580 0.275580 0.275580
0.309029 0.309029 0.309029
0.342478 0.342478 0.342478
0.375927 0.375927 0.375927
0.409376 0.409376 0.409376
0.442825 0.442825 0.442825
0.287757 0.287757 0.287757
0.321206 0.321206 0.321206
0.354655 0.354655 0.354655
0.388105 0.388105 0.388105
0.421554 0.421554 0.421554
0.455003 0.455003 0.455003
0.488452 0.488452 0.488452
0.521901 0.521901 0.521901
0.555350 0.555350 0.555350
0.400282 0.400282 0.400282
0.433731 0.433731 0.433731
0.467180 0.467180 0.467180
0.500629 0.500629 0.500629
0.534078 0.534078 0.534078
0.567527 0.567527 0.567527
0.600977 0.600977 0.600977
0.634426 0.634426 0.634426
0.667875 0.667875 0.667875
0.512807 0.512807 0.512807
0.546256 0.546256 0.546256
0.579705 0.579705 0.579705
0.613154 0.613154 0.613154
0.646603 0.646603 0.646603
0.680052 0.680052 0.680052
0.713501 0.713501 0.713501
0.746950 0.746950 0.746950
0.780400 0.780400 0.780400
0.625332 0.625332 0.625332
0.658781 0.658781 0.658781
0.692230 0.692230 0.692230
0.725679 0.725679 0.725679
0.759128 0.759128 0.759128
0.792577 0.792577 0.792577
0.826026 0.826026 0.826026
0.859475 0.859475 0.859475
0.890530 0.890530 0.890530
0.737857 0.737857 0.737857
0.771306 0.771306 0.771306
0.804755 0.804755 0.804755
0.838204 0.838204 0.838204
0.871653 0.871653 0.871653
0.900805 0.900805 0.900805
0.929027 0.929027 0.929027
0.957250 0.957250 0.957250
0.985473 0.985473 0.985473
0.850381 0.850381 0.850381
0.882857 0.882857 0.882857
0.911080 0.911080 0.911080
0.939302 0.939302 0.939302
0.967525 0.967525 0.967525
0.995748 0.995748 0.995748
1.000000 1.000000 1.000000
1.000000 1.000000 1.000000
1.000000 1.000000 1.000000
0.000000 0.000000 0.000000
0.014899 0.014899 0.014899
0.043122 0.043122 0.043122
0.071344 0.071344 0.071344
0.099567 0.099567 0.099567
0.128788 0.128788 0.128788
0.162237 0.162237 0.162237
0.195686 0.195686 0.195686
0.229135 0.229135 0.229135
0.081619 0.081619 0.081619
0.109842 0.109842 0.109842
0.140965 0.140965 0.140965
0.174414 0.174414 0.174414
0.207863 0.207863 0.207863
0.241313 0.241313 0.241313
0.274762 0.274762 0.274762
0.308211 0.308211 0.308211
0.341660 0.341660 0.341660
0.186592 0.186592 0.186592
0.220041 0.220041 0.220041
0.253490 0.253490 0.253490
0.286939 0.286939 0.286939
0.320388 0.320388 0.320388
0.353837 0.353837 0.353837
0.387286 0.387286 0.387286
0.420735 0.420735 0.420735
0.454185 0.454185 0.454185
0.299117 0.299117 0.299117
0.332566 0.332566 0.332566
0.366015 0.366015 0.366015
0.399464 0.399464 0.399464
0.432913 0.432913 0.432913
0.466362 0.466362 0.466362
0.499811 0.499811 0.499811
0.533260 0.533260 0.533260
0.566709 0.566709 0.566709
0.411642 0.411642 0.411642
0.445091 0.445091 0.445091
0.478540 0.478540 0.478540
0.511989 0.511989 0.511989
0.545438 0.545438 0.545438
0.578887 0.578887 0.578887
0.612336 0.612336 0.612336
0.645785 0.645785 0.645785
0.679234 0.679234 0.679234
0.524166 0.524166 0.524166
0.557615 0.557615 0.557615
0.591064 0.591064 0.591064
0.624514 0.624514 0.624514
0.657963 0.657963 0.657963
0.691412 0.691412 0.691412
0.724861 0.724861 0.724861
0.758310 0.758310 0.758310
0.791759 0.791759 0.791759
0.636691 0.636691 0.636691
0.670140 0.670140 0.670140
0.703589 0.703589 0.703589
0.737038 0.737038 0.737038
0.770487 0.770487 0.770487
0.803937 0.803937 0.803937
0.837386 0.837386 0.837386
0.870835 0.870835 0.870835
0.900114 0.900114 0.900114
0.749216 0.749216 0.749216
0.782665 0.782665 0.782665
0.816114 0.816114 0.816114
0.849563 0.849563 0.849563
0.882167 0.882167 0.882167
0.910389 0.910389 0.910389
0.938612 0.938612 0.938612
0.966835 0.966835 0.966835
0.995057 0.995057 0.995057
0.861741 0.861741 0.861741
0.892441 0.892441 0.892441
0.920664 0.920664 0.920664
0.948887 0.948887 0.948887
0.977109 0.977109 0.977109
1.000000 1.000000 1.000000
1.000000 1.000000 1.000000
1.000000 1.000000 1.000000
1.000000 1.000000 1.000000
