luts/mono_fine_400.cube
TITLE "Bw Kodak Tmax 400"
LUT_3D_SIZE 5
0.000000 0.000000 0.000000
0.039447 0.039447 0.039447
0.093394 0.093394 0.093394
0.147342 0.147342 0.147342
0.201289 0.201289 0.201289
0.166982 0.166982 0.166982
0.220929 0.220929 0.220929
0.274876 0.274876 0.274876
0.332171 0.332171 0.332171
0.390768 0.390768 0.390768
0.353504 0.353504 0.353504
0.412102 0.412102 0.412102
0.470700 0.470700 0.470700
0.529298 0.529298 0.529298
0.587895 0.587895 0.587895
0.550631 0.550631 0.550631
0.609229 0.609229 0.609229
0.667827 0.667827 0.667827
0.726425 0.726425 0.726425
0.777305 0.777305 0.777305
0.745364 0.745364 0.745364
0.795591 0.795591 0.795591
0.845818 0.845818 0.845818
0.896044 0.896044 0.896044
0.946271 0.946271 0.946271
0.003821 0.003821 0.003821
0.057768 0.057768 0.057768
0.111715 0.111715 0.111715
0.165662 0.165662 0.165662
0.219610 0.219610 0.219610
0.185303 0.185303 0.185303
0.239250 0.239250 0.239250
0.293473 0.293473 0.293473
0.352071 0.352071 0.352071
0.410669 0.410669 0.410669
0.373404 0.373404 0.373404
0.432002 0.432002 0.432002
0.490600 0.490600 0.490600
0.549198 0.549198 0.549198
0.607796 0.607796 0.607796
0.570531 0.570531 0.570531
0.629129 0.629129 0.629129
0.687727 0.687727 0.687727
0.744136 0.744136 0.744136
0.794362 0.794362 0.794362
0.762421 0.762421 0.762421
0.812648 0.812648 0.812648
0.862875 0.862875 0.862875
0.913102 0.913102 0.913102
0.963328 0.963328 0.963328
0.022142 0.022142 0.022142
0.076089 0.076089 0.076089
0.130036 0.130036 0.130036
0.183983 0.183983 0.183983
0.237930 0.237930 0.237930
0.203624 0.203624 0.203624
0.257571 0.257571 0.257571
0.313373 0.313373 0.313373
0.371971 0.371971 0.371971
0.430569 0.430569 0.430569
0.393304 0.393304 0.393304
0.451902 0.451902 0.451902
0.510500 0.510500 0.510500
0.569098 0.569098 0.569098
0.627696 0.627696 0.627696
0.590431 0.590431 0.590431
0.649029 0.649029 0.649029
0.707627 0.707627 0.707627
0.761193 0.761193 0.761193
0.811419 0.811419 0.811419
0.779478 0.779478 0.779478
0.829705 0.829705 0.829705
0.879932 0.879932 0.879932
0.930159 0.930159 0.930159
0.980385 0.980385 0.980385
0.040462 0.040462 0.040462
0.094409 0.094409 0.094409
0.148357 0.148357 0.148357
0.202304 0.202304 0.202304
0.256251 0.256251 0.256251
0.221944 0.221944 0.221944
0.275892 0.275892 0.275892
0.333273 0.333273 0.333273
0.391871 0.391871 0.391871
0.450469 0.450469 0.450469
0.413204 0.413204 0.413204
0.471802 0.471802 0.471802
0.530400 0.530400 0.530400
0.588998 0.588998 0.588998
0.647596 0.647596 0.647596
0.610331 0.610331 0.610331
0.668929 0.668929 0.668929
0.727527 0.727527 0.727527
0.778250 0.778250 0.778250
0.828477 0.828477 0.828477
0.796536 0.796536 0.796536
0.846762 0.846762 0.846762
0.896989 0.896989 0.896989
0.947216 0.947216 0.947216
0.997443 0.997443 0.997443
0.058783 0.058783 0.058783
0.112730 0.112730 0.112730
0.166677 0.166677 0.166677
0.220625 0.220625 0.220625
0.274572 0.274572 0.274572
0.240265 0.240265 0.240265
0.294575 0.294575 0.294575
0.353173 0.353173 0.353173
0.411771 0.411771 0.411771
0.470369 0.470369 0.470369
0.433105 0.433105 0.433105
0.491702 0.491702 0.491702
0.550300 0.550300 0.550300
0.608898 0.608898 0.608898
0.667496 0.667496 0.667496
0.630232 0.630232 0.630232
0.688829 0.688829 0.688829
0.745081 0.745081 0.745081
0.795307 0.795307 0.795307
0.845534 0.845534 0.845534
0.813593 0.813593 0.813593
0.863820 0.863820 0.863820
0.914047 0.914047 0.914047
0.964273 0.964273 0.964273
1.000000 1.000000 1.000000
