luts/mono_classic.cube
TITLE "Bw Ilford Hp5"
LUT_3D_SIZE 5
0.000000 0.000000 0.000000
0.006759 0.006759 0.006759
0.062319 0.062319 0.062319
0.117878 0.117878 0.117878
0.173438 0.173438 0.173438
0.138106 0.138106 0.138106
0.193665 0.193665 0.193665
0.249225 0.249225 0.249225
0.311924 0.311924 0.311924
0.377405 0.377405 0.377405
0.335763 0.335763 0.335763
0.401244 0.401244 0.401244
0.466725 0.466725 0.466725
0.532206 0.532206 0.532206
0.597686 0.597686 0.597686
0.556045 0.556045 0.556045
0.621526 0.621526 0.621526
0.687006 0.687006 0.687006
0.752487 0.752487 0.752487
0.805163 0.805163 0.805163
0.772354 0.772354 0.772354
0.823945 0.823945 0.823945
0.875536 0.875536 0.875536
0.927127 0.927127 0.927127
0.978718 0.978718 0.978718
0.000000 0.000000 0.000000
0.025628 0.025628 0.025628
0.081187 0.081187 0.081187
0.136747 0.136747 0.136747
0.192306 0.192306 0.192306
0.156974 0.156974 0.156974
0.212533 0.212533 0.212533
0.268681 0.268681 0.268681
0.334162 0.334162 0.334162
0.399642 0.399642 0.399642
0.358001 0.358001 0.358001
0.423482 0.423482 0.423482
0.488962 0.488962 0.488962
0.554443 0.554443 0.554443
0.619924 0.619924 0.619924
0.578282 0.578282 0.578282
0.643763 0.643763 0.643763
0.709244 0.709244 0.709244
0.771092 0.771092 0.771092
0.822683 0.822683 0.822683
0.789875 0.789875 0.789875
0.841466 0.841466 0.841466
0.893057 0.893057 0.893057
0.944647 0.944647 0.944647
0.996238 0.996238 0.996238
0.000000 0.000000 0.000000
0.044496 0.044496 0.044496
0.100055 0.100055 0.100055
0.155615 0.155615 0.155615
0.211174 0.211174 0.211174
0.175842 0.175842 0.175842
0.231402 0.231402 0.231402
0.290918 0.290918 0.290918
0.356399 0.356399 0.356399
0.421880 0.421880 0.421880
0.380238 0.380238 0.380238
0.445719 0.445719 0.445719
0.511200 0.511200 0.511200
0.576681 0.576681 0.576681
0.642162 0.642162 0.642162
0.600520 0.600520 0.600520
0.666001 0.666001 0.666001
0.731482 0.731482 0.731482
0.788613 0.788613 0.788613
0.840204 0.840204 0.840204
0.807395 0.807395 0.807395
0.858986 0.858986 0.858986
0.910577 0.910577 0.910577
0.962168 0.962168 0.962168
1.000000 1.000000 1.000000
0.007805 0.007805 0.007805
0.063364 0.063364 0.063364
0.118924 0.118924 0.118924
0.174483 0.174483 0.174483
0.230043 0.230043 0.230043
0.194710 0.194710 0.194710
0.250270 0.250270 0.250270
0.313156 0.313156 0.313156
0.378637 0.378637 0.378637
0.444118 0.444118 0.444118
0.402476 0.402476 0.402476
0.467957 0.467957 0.467957
0.533438 0.533438 0.533438
0.598918 0.598918 0.598918
0.664399 0.664399 0.664399
0.622758 0.622758 0.622758
0.688238 0.688238 0.688238
0.753719 0.753719 0.753719
0.806133 0.806133 0.806133
0.857724 0.857724 0.857724
0.824916 0.824916 0.824916
0.876507 0.876507 0.876507
0.928098 0.928098 0.928098
0.979689 0.979689 0.979689
1.000000 1.000000 1.000000
0.026673 0.026673 0.026673
0.082233 0.082233 0.082233
0.137792 0.137792 0.137792
0.193351 0.193351 0.193351
0.248911 0.248911 0.248911
0.213579 0.213579 0.213579
0.269913 0.269913 0.269913
0.335394 0.335394 0.335394
0.400874 0.400874 0.400874
0.466355 0.466355 0.466355
0.424714 0.424714 0.424714
0.490194 0.490194 0.490194
0.555675 0.555675 0.555675
0.621156 0.621156 0.621156
0.686637 0.686637 0.686637
0.644995 0.644995 0.644995
0.710476 0.710476 0.710476
0.772063 0.772063 0.772063
0.823654 0.823654 0.823654
0.875245 0.875245 0.875245
0.842436 0.842436 0.842436
0.894027 0.894027 0.894027
0.945618 0.945618 0.945618
0.997209 0.997209 0.997209
1.000000 1.000000 1.000000
