luts/mono_gritty_400.cube
TITLE "Bw Tri X 400"
LUT_3D_SIZE 33
0.000000 0.000000 0.000000
0.000000 0.000000 0.000000
0.000000 0.000000 0.000000
0.000000 0.000000 0.000000
0.000000 0.000000 0.000000
0.000000 0.000000 0.000000
0.000000 0.000000 0.000000
0.000000 0.000000 0.000000
0.000000 0.000000 0.000000
0.000000 0.000000 0.000000
0.000000 0.000000 0.000000
0.000000 0.000000 0.000000
0.000000 0.000000 0.000000
0.001724 0.001724 0.001724
0.008779 0.008779 0.008779
0.015835 0.015835 0.015835
0.022891 0.022891 0.022891
0.029946 0.029946 0.029946
0.037002 0.037002 0.037002
0.044058 0.044058 0.044058
0.051113 0.051113 0.051113
0.058169 0.058169 0.058169
0.065225 0.065225 0.065225
0.072280 0.072280 0.072280
0.079336 0.079336 0.079336
0.086392 0.086392 0.086392
0.093447 0.093447 0.093447
0.100503 0.100503 0.100503
0.107559 0.107559 0.107559
0.114614 0.114614 0.114614
0.121670 0.121670 0.121670
0.129897 0.129897 0.129897
0.138259 0.138259 0.138259
0.000000 0.000000 0.000000
0.000000 0.000000 0.000000
0.000000 0.000000 0.000000
0.000000 0.000000 0.000000
0.000000 0.000000 0.000000
0.000000 0.000000 0.000000
0.000000 0.000000 0.000000
0.000000 0.000000 0.000000
0.000000 0.000000 0.000000
0.000000 0.000000 0.000000
0.004292 0.004292 0.004292
0.011348 0.011348 0.011348
0.018404 0.018404 0.018404
0.025459 0.025459 0.025459
0.032515 0.032515 0.032515
0.039571 0.039571 0.039571
0.046626 0.046626 0.046626
0.053682 0.053682 0.053682
0.060738 0.060738 0.060738
0.067793 0.067793 0.067793
0.074849 0.074849 0.074849
0.081905 0.081905 0.081905
0.088960 0.088960 0.088960
0.096016 0.096016 0.096016
0.103072 0.103072 0.103072
0.110127 0.110127 0.110127
0.117183 0.117183 0.117183
0.124579 0.124579 0.124579
0.132941 0.132941 0.132941
0.141304 0.141304 0.141304
0.149666 0.149666 0.149666
0.158028 0.158028 0.158028
0.166390 0.166390 0.166390
0.000000 0.000000 0.000000
0.000000 0.000000 0.000000
0.000000 0.000000 0.000000
0.000000 0.000000 0.000000
0.000000 0.000000 0.000000
0.000000 0.000000 0.000000
0.000000 0.000000 0.000000
0.006861 0.006861 0.006861
0.013917 0.013917 0.013917
0.020972 0.020972 0.020972
0.028028 0.028028 0.028028
0.035084 0.035084 0.035084
0.042139 0.042139 0.042139
0.049195 0.049195 0.049195
0.056251 0.056251 0.056251
0.063306 0.063306 0.063306
0.070362 0.070362 0.070362
0.077418 0.077418 0.077418
0.084473 0.084473 0.084473
0.091529 0.091529 0.091529
0.098585 0.098585 0.098585
0.105640 0.105640 0.105640
0.112696 0.112696 0.112696
0.119752 0.119752 0.119752
0.127623 0.127623 0.127623
0.135986 0.135986 0.135986
0.144348 0.144348 0.144348
0.152710 0.152710 0.152710
0.161073 0.161073 0.161073
0.169435 0.169435 0.169435
0.177797 0.177797 0.177797
0.186159 0.186159 0.186159
0.194522 0.194522 0.194522
0.000000 0.000000 0.000000
0.000000 0.000000 0.000000
0.000000 0.000000 0.000000
0.002374 0.002374 0.002374
0.009430 0.009430 0.009430
0.016485 0.016485 0.016485
0.023541 0.023541 0.023541
0.030597 0.030597 0.030597
0.037652 0.037652 0.037652
0.044708 0.044708 0.044708
0.051764 0.051764 0.051764
0.058819 0.058819 0.058819
0.065875 0.065875 0.065875
0.072931 0.072931 0.072931
0.079986 0.079986 0.079986
0.087042 0.087042 0.087042
0.094098 0.094098 0.094098
0.101153 0.101153 0.101153
0.108209 0.108209 0.108209
0.115265 0.115265 0.115265
0.122320 0.122320 0.122320
0.130668 0.130668 0.130668
0.139030 0.139030 0.139030
0.147392 0.147392 0.147392
0.155755 0.155755 0.155755
0.164117 0.164117 0.164117
0.172479 0.172479 0.172479
0.180841 0.180841 0.180841
0.189204 0.189204 0.189204
0.197566 0.197566 0.197566
0.205928 0.205928 0.205928
0.214291 0.214291 0.214291
0.222653 0.222653 0.222653
0.004943 0.004943 0.004943
0.011998 0.011998 0.011998
0.019054 0.019054 0.019054
0.026110 0.026110 0.026110
0.033165 0.033165 0.033165
0.040221 0.040221 0.040221
0.047277 0.047277 0.047277
0.054332 0.054332 0.054332
0.061388 0.061388 0.061388
0.068444 0.068444 0.068444
0.075499 0.075499 0.075499
0.082555 0.082555 0.082555
0.089611 0.089611 0.089611
0.096666 0.096666 0.096666
0.103722 0.103722 0.103722
0.110778 0.110778 0.110778
0.117833 0.117833 0.117833
0.125350 0.125350 0.125350
0.133712 0.133712 0.133712
0.142075 0.142075 0.142075
0.150437 0.150437 0.150437
0.158799 0.158799 0.158799
0.167161 0.167161 0.167161
0.175524 0.175524 0.175524
0.183886 0.183886 0.183886
0.192248 0.192248 0.192248
0.200610 0.200610 0.200610
0.208973 0.208973 0.208973
0.217335 0.217335 0.217335
0.225697 0.225697 0.225697
0.234059 0.234059 0.234059
0.242422 0.242422 0.242422
0.250784 0.250784 0.250784
0.028678 0.028678 0.028678
0.035734 0.035734 0.035734
0.042790 0.042790 0.042790
0.049845 0.049845 0.049845
0.056901 0.056901 0.056901
0.063957 0.063957 0.063957
0.071012 0.071012 0.071012
0.078068 0.078068 0.078068
0.085124 0.085124 0.085124
0.092179 0.092179 0.092179
0.099235 0.099235 0.099235
0.106291 0.106291 0.106291
0.113346 0.113346 0.113346
0.120402 0.120402 0.120402
0.128394 0.128394 0.128394
0.136757 0.136757 0.136757
0.145119 0.145119 0.145119
0.153481 0.153481 0.153481
0.161843 0.161843 0.161843
0.170206 0.170206 0.170206
0.178568 0.178568 0.178568
0.186930 0.186930 0.186930
0.195293 0.195293 0.195293
0.203655 0.203655 0.203655
0.212017 0.212017 0.212017
0.220379 0.220379 0.220379
0.228742 0.228742 0.228742
0.237104 0.237104 0.237104
0.245466 0.245466 0.245466
0.253828 0.253828 0.253828
0.262191 0.262191 0.262191
0.270553 0.270553 0.270553
0.278915 0.278915 0.278915
0.052414 0.052414 0.052414
0.059470 0.059470 0.059470
0.066526 0.066526 0.066526
0.073581 0.073581 0.073581
0.080637 0.080637 0.080637
0.087693 0.087693 0.087693
0.094748 0.094748 0.094748
0.101804 0.101804 0.101804
0.108860 0.108860 0.108860
0.115915 0.115915 0.115915
0.123077 0.123077 0.123077
0.131439 0.131439 0.131439
0.139801 0.139801 0.139801
0.148163 0.148163 0.148163
0.156526 0.156526 0.156526
0.164888 0.164888 0.164888
0.173250 0.173250 0.173250
0.181612 0.181612 0.181612
0.189975 0.189975 0.189975
0.198337 0.198337 0.198337
0.206699 0.206699 0.206699
0.215061 0.215061 0.215061
0.223424 0.223424 0.223424
0.231786 0.231786 0.231786
0.240148 0.240148 0.240148
0.248511 0.248511 0.248511
0.256873 0.256873 0.256873
0.265235 0.265235 0.265235
0.273597 0.273597 0.273597
0.281960 0.281960 0.281960
0.290322 0.290322 0.290322
0.298684 0.298684 0.298684
0.307046 0.307046 0.307046
0.076150 0.076150 0.076150
0.083206 0.083206 0.083206
0.090261 0.090261 0.090261
0.097317 0.097317 0.097317
0.104373 0.104373 0.104373
0.111428 0.111428 0.111428
0.118484 0.118484 0.118484
0.126121 0.126121 0.126121
0.134483 0.134483 0.134483
0.142845 0.142845 0.142845
0.151208 0.151208 0.151208
0.159570 0.159570 0.159570
0.167932 0.167932 0.167932
0.176295 0.176295 0.176295
0.184657 0.184657 0.184657
0.193019 0.193019 0.193019
0.201381 0.201381 0.201381
0.209744 0.209744 0.209744
0.218106 0.218106 0.218106
0.226468 0.226468 0.226468
0.234830 0.234830 0.234830
0.243193 0.243193 0.243193
0.251555 0.251555 0.251555
0.259917 0.259917 0.259917
0.268279 0.268279 0.268279
0.276642 0.276642 0.276642
0.285004 0.285004 0.285004
0.293366 0.293366 0.293366
0.301729 0.301729 0.301729
0.310091 0.310091 0.310091
0.318453 0.318453 0.318453
0.326815 0.326815 0.326815
0.335178 0.335178 0.335178
0.099886 0.099886 0.099886
0.106941 0.106941 0.106941
0.113997 0.113997 0.113997
0.121053 0.121053 0.121053
0.129165 0.129165 0.129165
0.137528 0.137528 0.137528
0.145890 0.145890 0.145890
0.154252 0.154252 0.154252
0.162614 0.162614 0.162614
0.170977 0.170977 0.170977
0.179339 0.179339 0.179339
0.187701 0.187701 0.187701
0.196063 0.196063 0.196063
0.204426 0.204426 0.204426
0.212788 0.212788 0.212788
0.221150 0.221150 0.221150
0.229513 0.229513 0.229513
0.237875 0.237875 0.237875
0.246237 0.246237 0.246237
0.254599 0.254599 0.254599
0.262962 0.262962 0.262962
0.271324 0.271324 0.271324
0.279686 0.279686 0.279686
0.288048 0.288048 0.288048
0.296411 0.296411 0.296411
0.304773 0.304773 0.304773
0.313135 0.313135 0.313135
0.321497 0.321497 0.321497
0.329860 0.329860 0.329860
0.338222 0.338222 0.338222
0.346584 0.346584 0.346584
0.354947 0.354947 0.354947
0.363309 0.363309 0.363309
0.123847 0.123847 0.123847
0.132210 0.132210 0.132210
0.140572 0.140572 0.140572
0.148934 0.148934 0.148934
0.157297 0.157297 0.157297
0.165659 0.165659 0.165659
0.174021 0.174021 0.174021
0.182383 0.182383 0.182383
0.190746 0.190746 0.190746
0.199108 0.199108 0.199108
0.207470 0.207470 0.207470
0.215832 0.215832 0.215832
0.224195 0.224195 0.224195
0.232557 0.232557 0.232557
0.240919 0.240919 0.240919
0.249281 0.249281 0.249281
0.257644 0.257644 0.257644
0.266006 0.266006 0.266006
0.274368 0.274368 0.274368
0.282731 0.282731 0.282731
0.291093 0.291093 0.291093
0.299455 0.299455 0.299455
0.307817 0.307817 0.307817
0.316180 0.316180 0.316180
0.324542 0.324542 0.324542
0.332904 0.332904 0.332904
0.341266 0.341266 0.341266
0.349629 0.349629 0.349629
0.357991 0.357991 0.357991
0.366353 0.366353 0.366353
0.374715 0.374715 0.374715
0.383078 0.383078 0.383078
0.391440 0.391440 0.391440
0.151979 0.151979 0.151979
0.160341 0.160341 0.160341
0.168703 0.168703 0.168703
0.177065 0.177065 0.177065
0.185428 0.185428 0.185428
0.193790 0.193790 0.193790
0.202152 0.202152 0.202152
0.210515 0.210515 0.210515
0.218877 0.218877 0.218877
0.227239 0.227239 0.227239
0.235601 0.235601 0.235601
0.243964 0.243964 0.243964
0.252326 0.252326 0.252326
0.260688 0.260688 0.260688
0.269050 0.269050 0.269050
0.277413 0.277413 0.277413
0.285775 0.285775 0.285775
0.294137 0.294137 0.294137
0.302499 0.302499 0.302499
0.310862 0.310862 0.310862
0.319224 0.319224 0.319224
0.327586 0.327586 0.327586
0.335949 0.335949 0.335949
0.344311 0.344311 0.344311
0.352673 0.352673 0.352673
0.361035 0.361035 0.361035
0.369398 0.369398 0.369398
0.377760 0.377760 0.377760
0.386122 0.386122 0.386122
0.394484 0.394484 0.394484
0.402847 0.402847 0.402847
0.411209 0.411209 0.411209
0.419571 0.419571 0.419571
0.180110 0.180110 0.180110
0.188472 0.188472 0.188472
0.196834 0.196834 0.196834
0.205197 0.205197 0.205197
0.213559 0.213559 0.213559
0.221921 0.221921 0.221921
0.230283 0.230283 0.230283
0.238646 0.238646 0.238646
0.247008 0.247008 0.247008
0.255370 0.255370 0.255370
0.263733 0.263733 0.263733
0.272095 0.272095 0.272095
0.280457 0.280457 0.280457
0.288819 0.288819 0.288819
0.297182 0.297182 0.297182
0.305544 0.305544 0.305544
0.313906 0.313906 0.313906
0.322268 0.322268 0.322268
0.330631 0.330631 0.330631
0.338993 0.338993 0.338993
0.347355 0.347355 0.347355
0.355717 0.355717 0.355717
0.364080 0.364080 0.364080
0.372442 0.372442 0.372442
0.380804 0.380804 0.380804
0.389167 0.389167 0.389167
0.397529 0.397529 0.397529
0.405891 0.405891 0.405891
0.414253 0.414253 0.414253
0.422616 0.422616 0.422616
0.430978 0.430978 0.430978
0.439340 0.439340 0.439340
0.447702 0.447702 0.447702
0.208241 0.208241 0.208241
0.216603 0.216603 0.216603
0.224966 0.224966 0.224966
0.233328 0.233328 0.233328
0.241690 0.241690 0.241690
0.250052 0.250052 0.250052
0.258415 0.258415 0.258415
0.266777 0.266777 0.266777
0.275139 0.275139 0.275139
0.283501 0.283501 0.283501
0.291864 0.291864 0.291864
0.300226 0.300226 0.300226
0.308588 0.308588 0.308588
0.316951 0.316951 0.316951
0.325313 0.325313 0.325313
0.333675 0.333675 0.333675
0.342037 0.342037 0.342037
0.350400 0.350400 0.350400
0.358762 0.358762 0.358762
0.367124 0.367124 0.367124
0.375486 0.375486 0.375486
0.383849 0.383849 0.383849
0.392211 0.392211 0.392211
0.400573 0.400573 0.400573
0.408935 0.408935 0.408935
0.417298 0.417298 0.417298
0.425660 0.425660 0.425660
0.434022 0.434022 0.434022
0.442385 0.442385 0.442385
0.450747 0.450747 0.450747
0.459109 0.459109 0.459109
0.467471 0.467471 0.467471
0.475834 0.475834 0.475834
0.236372 0.236372 0.236372
0.244735 0.244735 0.244735
0.253097 0.253097 0.253097
0.261459 0.261459 0.261459
0.269821 0.269821 0.269821
0.278184 0.278184 0.278184
0.286546 0.286546 0.286546
0.294908 0.294908 0.294908
0.303270 0.303270 0.303270
0.311633 0.311633 0.311633
0.319995 0.319995 0.319995
0.328357 0.328357 0.328357
0.336719 0.336719 0.336719
0.345082 0.345082 0.345082
0.353444 0.353444 0.353444
0.361806 0.361806 0.361806
0.370169 0.370169 0.370169
0.378531 0.378531 0.378531
0.386893 0.386893 0.386893
0.395255 0.395255 0.395255
0.403618 0.403618 0.403618
0.411980 0.411980 0.411980
0.420342 0.420342 0.420342
0.428704 0.428704 0.428704
0.437067 0.437067 0.437067
0.445429 0.445429 0.445429
0.453791 0.453791 0.453791
0.462153 0.462153 0.462153
0.470516 0.470516 0.470516
0.478878 0.478878 0.478878
0.487240 0.487240 0.487240
0.495603 0.495603 0.495603
0.503965 0.503965 0.503965
0.264503 0.264503 0.264503
0.272866 0.272866 0.272866
0.281228 0.281228 0.281228
0.289590 0.289590 0.289590
0.297953 0.297953 0.297953
0.306315 0.306315 0.306315
0.314677 0.314677 0.314677
0.323039 0.323039 0.323039
0.331402 0.331402 0.331402
0.339764 0.339764 0.339764
0.348126 0.348126 0.348126
0.356488 0.356488 0.356488
0.364851 0.364851 0.364851
0.373213 0.373213 0.373213
0.381575 0.381575 0.381575
0.389937 0.389937 0.389937
0.398300 0.398300 0.398300
0.406662 0.406662 0.406662
0.415024 0.415024 0.415024
0.423387 0.423387 0.423387
0.431749 0.431749 0.431749
0.440111 0.440111 0.440111
0.448473 0.448473 0.448473
0.456836 0.456836 0.456836
0.465198 0.465198 0.465198
0.473560 0.473560 0.473560
0.481922 0.481922 0.481922
0.490285 0.490285 0.490285
0.498647 0.498647 0.498647
0.507009 0.507009 0.507009
0.515371 0.515371 0.515371
0.523734 0.523734 0.523734
0.532096 0.532096 0.532096
0.292635 0.292635 0.292635
0.300997 0.300997 0.300997
0.309359 0.309359 0.309359
0.317721 0.317721 0.317721
0.326084 0.326084 0.326084
0.334446 0.334446 0.334446
0.342808 0.342808 0.342808
0.351171 0.351171 0.351171
0.359533 0.359533 0.359533
0.367895 0.367895 0.367895
0.376257 0.376257 0.376257
0.384620 0.384620 0.384620
0.392982 0.392982 0.392982
0.401344 0.401344 0.401344
0.409706 0.409706 0.409706
0.418069 0.418069 0.418069
0.426431 0.426431 0.426431
0.434793 0.434793 0.434793
0.443155 0.443155 0.443155
0.451518 0.451518 0.451518
0.459880 0.459880 0.459880
0.468242 0.468242 0.468242
0.476604 0.476604 0.476604
0.484967 0.484967 0.484967
0.493329 0.493329 0.493329
0.501691 0.501691 0.501691
0.510054 0.510054 0.510054
0.518416 0.518416 0.518416
0.526778 0.526778 0.526778
0.535140 0.535140 0.535140
0.543503 0.543503 0.543503
0.551865 0.551865 0.551865
0.560227 0.560227 0.560227
0.320766 0.320766 0.320766
0.329128 0.329128 0.329128
0.337490 0.337490 0.337490
0.345853 0.345853 0.345853
0.354215 0.354215 0.354215
0.362577 0.362577 0.362577
0.370939 0.370939 0.370939
0.379302 0.379302 0.379302
0.387664 0.387664 0.387664
0.396026 0.396026 0.396026
0.404389 0.404389 0.404389
0.412751 0.412751 0.412751
0.421113 0.421113 0.421113
0.429475 0.429475 0.429475
0.437838 0.437838 0.437838
0.446200 0.446200 0.446200
0.454562 0.454562 0.454562
0.462924 0.462924 0.462924
0.471287 0.471287 0.471287
0.479649 0.479649 0.479649
0.488011 0.488011 0.488011
0.496373 0.496373 0.496373
0.504736 0.504736 0.504736
0.513098 0.513098 0.513098
0.521460 0.521460 0.521460
0.529823 0.529823 0.529823
0.538185 0.538185 0.538185
0.546547 0.546547 0.546547
0.554909 0.554909 0.554909
0.563272 0.563272 0.563272
0.571634 0.571634 0.571634
0.579996 0.579996 0.579996
0.588358 0.588358 0.588358
0.348897 0.348897 0.348897
0.357259 0.357259 0.357259
0.365622 0.365622 0.365622
0.373984 0.373984 0.373984
0.382346 0.382346 0.382346
0.390708 0.390708 0.390708
0.399071 0.399071 0.399071
0.407433 0.407433 0.407433
0.415795 0.415795 0.415795
0.424157 0.424157 0.424157
0.432520 0.432520 0.432520
0.440882 0.440882 0.440882
0.449244 0.449244 0.449244
0.457607 0.457607 0.457607
0.465969 0.465969 0.465969
0.474331 0.474331 0.474331
0.482693 0.482693 0.482693
0.491056 0.491056 0.491056
0.499418 0.499418 0.499418
0.507780 0.507780 0.507780
0.516142 0.516142 0.516142
0.524505 0.524505 0.524505
0.532867 0.532867 0.532867
0.541229 0.541229 0.541229
0.549591 0.549591 0.549591
0.557954 0.557954 0.557954
0.566316 0.566316 0.566316
0.574678 0.574678 0.574678
0.583041 0.583041 0.583041
0.591403 0.591403 0.591403
0.599765 0.599765 0.599765
0.608127 0.608127 0.608127
0.616490 0.616490 0.616490
0.377028 0.377028 0.377028
0.385391 0.385391 0.385391
0.393753 0.393753 0.393753
0.402115 0.402115 0.402115
0.410477 0.410477 0.410477
0.418840 0.418840 0.418840
0.427202 0.427202 0.427202
0.435564 0.435564 0.435564
0.443926 0.443926 0.443926
0.452289 0.452289 0.452289
0.460651 0.460651 0.460651
0.469013 0.469013 0.469013
0.477375 0.477375 0.477375
0.485738 0.485738 0.485738
0.494100 0.494100 0.494100
0.502462 0.502462 0.502462
0.510825 0.510825 0.510825
0.519187 0.519187 0.519187
0.527549 0.527549 0.527549
0.535911 0.535911 0.535911
0.544274 0.544274 0.544274
0.552636 0.552636 0.552636
0.560998 0.560998 0.560998
0.569360 0.569360 0.569360
0.577723 0.577723 0.577723
0.586085 0.586085 0.586085
0.594447 0.594447 0.594447
0.602809 0.602809 0.602809
0.611172 0.611172 0.611172
0.619534 0.619534 0.619534
0.627896 0.627896 0.627896
0.636258 0.636258 0.636258
0.644621 0.644621 0.644621
0.405159 0.405159 0.405159
0.413522 0.413522 0.413522
0.421884 0.421884 0.421884
0.430246 0.430246 0.430246
0.438609 0.438609 0.438609
0.446971 0.446971 0.446971
0.455333 0.455333 0.455333
0.463695 0.463695 0.463695
0.472058 0.472058 0.472058
0.480420 0.480420 0.480420
0.488782 0.488782 0.488782
0.497144 0.497144 0.497144
0.505507 0.505507 0.505507
0.513869 0.513869 0.513869
0.522231 0.522231 0.522231
0.530593 0.530593 0.530593
0.538956 0.538956 0.538956
0.547318 0.547318 0.547318
0.555680 0.555680 0.555680
0.564043 0.564043 0.564043
0.572405 0.572405 0.572405
0.580767 0.580767 0.580767
0.589129 0.589129 0.589129
0.597492 0.597492 0.597492
0.605854 0.605854 0.605854
0.614216 0.614216 0.614216
0.622578 0.622578 0.622578
0.630941 0.630941 0.630941
0.639303 0.639303 0.639303
0.647665 0.647665 0.647665
0.656027 0.656027 0.656027
0.664390 0.664390 0.664390
0.672752 0.672752 0.672752
0.433291 0.433291 0.433291
0.441653 0.441653 0.441653
0.450015 0.450015 0.450015
0.458377 0.458377 0.458377
0.466740 0.466740 0.466740
0.475102 0.475102 0.475102
0.483464 0.483464 0.483464
0.491827 0.491827 0.491827
0.500189 0.500189 0.500189
0.508551 0.508551 0.508551
0.516913 0.516913 0.516913
0.525276 0.525276 0.525276
0.533638 0.533638 0.533638
0.542000 0.542000 0.542000
0.550362 0.550362 0.550362
0.558725 0.558725 0.558725
0.567087 0.567087 0.567087
0.575449 0.575449 0.575449
0.583811 0.583811 0.583811
0.592174 0.592174 0.592174
0.600536 0.600536 0.600536
0.608898 0.608898 0.608898
0.617261 0.617261 0.617261
0.625623 0.625623 0.625623
0.633985 0.633985 0.633985
0.642347 0.642347 0.642347
0.650710 0.650710 0.650710
0.659072 0.659072 0.659072
0.667434 0.667434 0.667434
0.675796 0.675796 0.675796
0.684159 0.684159 0.684159
0.692521 0.692521 0.692521
0.700883 0.700883 0.700883
0.461422 0.461422 0.461422
0.469784 0.469784 0.469784
0.478146 0.478146 0.478146
0.486509 0.486509 0.486509
0.494871 0.494871 0.494871
0.503233 0.503233 0.503233
0.511595 0.511595 0.511595
0.519958 0.519958 0.519958
0.528320 0.528320 0.528320
0.536682 0.536682 0.536682
0.545045 0.545045 0.545045
0.553407 0.553407 0.553407
0.561769 0.561769 0.561769
0.570131 0.570131 0.570131
0.578494 0.578494 0.578494
0.586856 0.586856 0.586856
0.595218 0.595218 0.595218
0.603580 0.603580 0.603580
0.611943 0.611943 0.611943
0.620305 0.620305 0.620305
0.628667 0.628667 0.628667
0.637029 0.637029 0.637029
0.645392 0.645392 0.645392
0.653754 0.653754 0.653754
0.662116 0.662116 0.662116
0.670479 0.670479 0.670479
0.678841 0.678841 0.678841
0.687203 0.687203 0.687203
0.695565 0.695565 0.695565
0.703928 0.703928 0.703928
0.712290 0.712290 0.712290
0.720652 0.720652 0.720652
0.729014 0.729014 0.729014
0.489553 0.489553 0.489553
0.497915 0.497915 0.497915
0.506278 0.506278 0.506278
0.514640 0.514640 0.514640
0.523002 0.523002 0.523002
0.531364 0.531364 0.531364
0.539727 0.539727 0.539727
0.548089 0.548089 0.548089
0.556451 0.556451 0.556451
0.564813 0.564813 0.564813
0.573176 0.573176 0.573176
0.581538 0.581538 0.581538
0.589900 0.589900 0.589900
0.598263 0.598263 0.598263
0.606625 0.606625 0.606625
0.614987 0.614987 0.614987
0.623349 0.623349 0.623349
0.631712 0.631712 0.631712
0.640074 0.640074 0.640074
0.648436 0.648436 0.648436
0.656798 0.656798 0.656798
0.665161 0.665161 0.665161
0.673523 0.673523 0.673523
0.681885 0.681885 0.681885
0.690247 0.690247 0.690247
0.698610 0.698610 0.698610
0.706972 0.706972 0.706972
0.715334 0.715334 0.715334
0.723696 0.723696 0.723696
0.732059 0.732059 0.732059
0.740421 0.740421 0.740421
0.748783 0.748783 0.748783
0.757146 0.757146 0.757146
0.517684 0.517684 0.517684
0.526047 0.526047 0.526047
0.534409 0.534409 0.534409
0.542771 0.542771 0.542771
0.551133 0.551133 0.551133
0.559496 0.559496 0.559496
0.567858 0.567858 0.567858
0.576220 0.576220 0.576220
0.584582 0.584582 0.584582
0.592945 0.592945 0.592945
0.601307 0.601307 0.601307
0.609669 0.609669 0.609669
0.618032 0.618032 0.618032
0.626394 0.626394 0.626394
0.634756 0.634756 0.634756
0.643118 0.643118 0.643118
0.651481 0.651481 0.651481
0.659843 0.659843 0.659843
0.668205 0.668205 0.668205
0.676567 0.676567 0.676567
0.684930 0.684930 0.684930
0.693292 0.693292 0.693292
0.701654 0.701654 0.701654
0.710016 0.710016 0.710016
0.718379 0.718379 0.718379
0.726741 0.726741 0.726741
0.735103 0.735103 0.735103
0.743465 0.743465 0.743465
0.751828 0.751828 0.751828
0.760190 0.760190 0.760190
0.768552 0.768552 0.768552
0.776915 0.776915 0.776915
0.785277 0.785277 0.785277
0.545815 0.545815 0.545815
0.554178 0.554178 0.554178
0.562540 0.562540 0.562540
0.570902 0.570902 0.570902
0.579265 0.579265 0.579265
0.587627 0.587627 0.587627
0.595989 0.595989 0.595989
0.604351 0.604351 0.604351
0.612714 0.612714 0.612714
0.621076 0.621076 0.621076
0.629438 0.629438 0.629438
0.637800 0.637800 0.637800
0.646163 0.646163 0.646163
0.654525 0.654525 0.654525
0.662887 0.662887 0.662887
0.671249 0.671249 0.671249
0.679612 0.679612 0.679612
0.687974 0.687974 0.687974
0.696336 0.696336 0.696336
0.704699 0.704699 0.704699
0.713061 0.713061 0.713061
0.721423 0.721423 0.721423
0.729785 0.729785 0.729785
0.738148 0.738148 0.738148
0.746510 0.746510 0.746510
0.754872 0.754872 0.754872
0.763234 0.763234 0.763234
0.771597 0.771597 0.771597
0.779959 0.779959 0.779959
0.788321 0.788321 0.788321
0.796684 0.796684 0.796684
0.805046 0.805046 0.805046
0.813408 0.813408 0.813408
0.573947 0.573947 0.573947
0.582309 0.582309 0.582309
0.590671 0.590671 0.590671
0.599034 0.599034 0.599034
0.607396 0.607396 0.607396
0.615758 0.615758 0.615758
0.624120 0.624120 0.624120
0.632483 0.632483 0.632483
0.640845 0.640845 0.640845
0.649207 0.649207 0.649207
0.657569 0.657569 0.657569
0.665932 0.665932 0.665932
0.674294 0.674294 0.674294
0.682656 0.682656 0.682656
0.691018 0.691018 0.691018
0.699381 0.699381 0.699381
0.707743 0.707743 0.707743
0.716105 0.716105 0.716105
0.724467 0.724467 0.724467
0.732830 0.732830 0.732830
0.741192 0.741192 0.741192
0.749554 0.749554 0.749554
0.757917 0.757917 0.757917
0.766279 0.766279 0.766279
0.774641 0.774641 0.774641
0.783003 0.783003 0.783003
0.791366 0.791366 0.791366
0.799728 0.799728 0.799728
0.808090 0.808090 0.808090
0.816452 0.816452 0.816452
0.824815 0.824815 0.824815
0.833177 0.833177 0.833177
0.841539 0.841539 0.841539
0.602078 0.602078 0.602078
0.610440 0.610440 0.610440
0.618802 0.618802 0.618802
0.627165 0.627165 0.627165
0.635527 0.635527 0.635527
0.643889 0.643889 0.643889
0.652251 0.652251 0.652251
0.660614 0.660614 0.660614
0.668976 0.668976 0.668976
0.677338 0.677338 0.677338
0.685700 0.685700 0.685700
0.694063 0.694063 0.694063
0.702425 0.702425 0.702425
0.710787 0.710787 0.710787
0.719150 0.719150 0.719150
0.727512 0.727512 0.727512
0.735874 0.735874 0.735874
0.744236 0.744236 0.744236
0.752599 0.752599 0.752599
0.760961 0.760961 0.760961
0.769323 0.769323 0.769323
0.777685 0.777685 0.777685
0.786048 0.786048 0.786048
0.794410 0.794410 0.794410
0.802772 0.802772 0.802772
0.811134 0.811134 0.811134
0.819497 0.819497 0.819497
0.827859 0.827859 0.827859
0.836221 0.836221 0.836221
