luts/mono_fine_400.cube
TITLE "Bw Kodak Tmax 400"
LUT_3D_SIZE 9
0.000000 0.000000 0.000000
0.012474 0.012474 0.012474
0.039447 0.039447 0.039447
0.066421 0.066421 0.066421
0.093394 0.093394 0.093394
0.120368 0.120368 0.120368
0.147342 0.147342 0.147342
0.174315 0.174315 0.174315
0.201289 0.201289 0.201289
0.076241 0.076241 0.076241
0.103215 0.103215 0.103215
0.130188 0.130188 0.130188
0.157162 0.157162 0.157162
0.184135 0.184135 0.184135
0.211109 0.211109 0.211109
0.238083 0.238083 0.238083
0.265056 0.265056 0.265056
0.292205 0.292205 0.292205
0.166982 0.166982 0.166982
0.193956 0.193956 0.193956
0.220929 0.220929 0.220929
0.247903 0.247903 0.247903
0.274876 0.274876 0.274876
0.302872 0.302872 0.302872
0.332171 0.332171 0.332171
0.361470 0.361470 0.361470
0.390768 0.390768 0.390768
0.257723 0.257723 0.257723
0.284697 0.284697 0.284697
0.313538 0.313538 0.313538
0.342837 0.342837 0.342837
0.372136 0.372136 0.372136
0.401435 0.401435 0.401435
0.430734 0.430734 0.430734
0.460033 0.460033 0.460033
0.489332 0.489332 0.489332
0.353504 0.353504 0.353504
0.382803 0.382803 0.382803
0.412102 0.412102 0.412102
0.441401 0.441401 0.441401
0.470700 0.470700 0.470700
0.499999 0.499999 0.499999
0.529298 0.529298 0.529298
0.558597 0.558597 0.558597
0.587895 0.587895 0.587895
0.452067 0.452067 0.452067
0.481366 0.481366 0.481366
0.510665 0.510665 0.510665
0.539964 0.539964 0.539964
0.569263 0.569263 0.569263
0.598562 0.598562 0.598562
0.627861 0.627861 0.627861
0.657160 0.657160 0.657160
0.686459 0.686459 0.686459
0.550631 0.550631 0.550631
0.579930 0.579930 0.579930
0.609229 0.609229 0.609229
0.638528 0.638528 0.638528
0.667827 0.667827 0.667827
0.697126 0.697126 0.697126
0.726425 0.726425 0.726425
0.752192 0.752192 0.752192
0.777305 0.777305 0.777305
0.649195 0.649195 0.649195
0.678493 0.678493 0.678493
0.707792 0.707792 0.707792
0.736221 0.736221 0.736221
0.761335 0.761335 0.761335
0.786448 0.786448 0.786448
0.811561 0.811561 0.811561
0.836675 0.836675 0.836675
0.861788 0.861788 0.861788
0.745364 0.745364 0.745364
0.770477 0.770477 0.770477
0.795591 0.795591 0.795591
0.820704 0.820704 0.820704
0.845818 0.845818 0.845818
0.870931 0.870931 0.870931
0.896044 0.896044 0.896044
0.921158 0.921158 0.921158
0.946271 0.946271 0.946271
0.000000 0.000000 0.000000
0.021634 0.021634 0.021634
0.048608 0.048608 0.048608
0.075581 0.075581 0.075581
0.102555 0.102555 0.102555
0.129529 0.129529 0.129529
0.156502 0.156502 0.156502
0.183476 0.183476 0.183476
0.210449 0.210449 0.210449
0.085401 0.085401 0.085401
0.112375 0.112375 0.112375
0.139349 0.139349 0.139349
0.166322 0.166322 0.166322
0.193296 0.193296 0.193296
0.220269 0.220269 0.220269
0.247243 0.247243 0.247243
0.274217 0.274217 0.274217
0.302155 0.302155 0.302155
0.176142 0.176142 0.176142
0.203116 0.203116 0.203116
0.230090 0.230090 0.230090
0.257063 0.257063 0.257063
0.284037 0.284037 0.284037
0.312822 0.312822 0.312822
0.342121 0.342121 0.342121
0.371420 0.371420 0.371420
0.400719 0.400719 0.400719
0.266883 0.266883 0.266883
0.294190 0.294190 0.294190
0.323488 0.323488 0.323488
0.352787 0.352787 0.352787
0.382086 0.382086 0.382086
0.411385 0.411385 0.411385
0.440684 0.440684 0.440684
0.469983 0.469983 0.469983
0.499282 0.499282 0.499282
0.363454 0.363454 0.363454
0.392753 0.392753 0.392753
0.422052 0.422052 0.422052
0.451351 0.451351 0.451351
0.480650 0.480650 0.480650
0.509949 0.509949 0.509949
0.539248 0.539248 0.539248
0.568547 0.568547 0.568547
0.597846 0.597846 0.597846
0.462018 0.462018 0.462018
0.491317 0.491317 0.491317
0.520615 0.520615 0.520615
0.549914 0.549914 0.549914
0.579213 0.579213 0.579213
0.608512 0.608512 0.608512
0.637811 0.637811 0.637811
0.667110 0.667110 0.667110
0.696409 0.696409 0.696409
0.560581 0.560581 0.560581
0.589880 0.589880 0.589880
0.619179 0.619179 0.619179
0.648478 0.648478 0.648478
0.677777 0.677777 0.677777
0.707076 0.707076 0.707076
0.735607 0.735607 0.735607
0.760720 0.760720 0.760720
0.785834 0.785834 0.785834
0.659145 0.659145 0.659145
0.688443 0.688443 0.688443
0.717742 0.717742 0.717742
0.744750 0.744750 0.744750
0.769863 0.769863 0.769863
0.794976 0.794976 0.794976
0.820090 0.820090 0.820090
0.845203 0.845203 0.845203
0.870317 0.870317 0.870317
0.753893 0.753893 0.753893
0.779006 0.779006 0.779006
0.804119 0.804119 0.804119
0.829233 0.829233 0.829233
0.854346 0.854346 0.854346
0.879460 0.879460 0.879460
0.904573 0.904573 0.904573
0.929686 0.929686 0.929686
0.954800 0.954800 0.954800
0.003821 0.003821 0.003821
0.030794 0.030794 0.030794
0.057768 0.057768 0.057768
0.084742 0.084742 0.084742
0.111715 0.111715 0.111715
0.138689 0.138689 0.138689
0.165662 0.165662 0.165662
0.192636 0.192636 0.192636
0.219610 0.219610 0.219610
0.094562 0.094562 0.094562
0.121535 0.121535 0.121535
0.148509 0.148509 0.148509
0.175483 0.175483 0.175483
0.202456 0.202456 0.202456
0.229430 0.229430 0.229430
0.256404 0.256404 0.256404
0.283377 0.283377 0.283377
0.312105 0.312105 0.312105
0.185303 0.185303 0.185303
0.212276 0.212276 0.212276
0.239250 0.239250 0.239250
0.266224 0.266224 0.266224
0.293473 0.293473 0.293473
0.322772 0.322772 0.322772
0.352071 0.352071 0.352071
0.381370 0.381370 0.381370
0.410669 0.410669 0.410669
0.276044 0.276044 0.276044
0.304140 0.304140 0.304140
0.333438 0.333438 0.333438
0.362737 0.362737 0.362737
0.392036 0.392036 0.392036
0.421335 0.421335 0.421335
0.450634 0.450634 0.450634
0.479933 0.479933 0.479933
0.509232 0.509232 0.509232
0.373404 0.373404 0.373404
0.402703 0.402703 0.402703
0.432002 0.432002 0.432002
0.461301 0.461301 0.461301
0.490600 0.490600 0.490600
0.519899 0.519899 0.519899
0.549198 0.549198 0.549198
0.578497 0.578497 0.578497
0.607796 0.607796 0.607796
0.471968 0.471968 0.471968
0.501267 0.501267 0.501267
0.530565 0.530565 0.530565
0.559864 0.559864 0.559864
0.589163 0.589163 0.589163
0.618462 0.618462 0.618462
0.647761 0.647761 0.647761
0.677060 0.677060 0.677060
0.706359 0.706359 0.706359
0.570531 0.570531 0.570531
0.599830 0.599830 0.599830
0.629129 0.629129 0.629129
0.658428 0.658428 0.658428
0.687727 0.687727 0.687727
0.717026 0.717026 0.717026
0.744136 0.744136 0.744136
0.769249 0.769249 0.769249
0.794362 0.794362 0.794362
0.669095 0.669095 0.669095
0.698394 0.698394 0.698394
0.727693 0.727693 0.727693
0.753278 0.753278 0.753278
0.778392 0.778392 0.778392
0.803505 0.803505 0.803505
0.828619 0.828619 0.828619
0.853732 0.853732 0.853732
0.878845 0.878845 0.878845
0.762421 0.762421 0.762421
0.787535 0.787535 0.787535
0.812648 0.812648 0.812648
0.837761 0.837761 0.837761
0.862875 0.862875 0.862875
0.887988 0.887988 0.887988
0.913102 0.913102 0.913102
0.938215 0.938215 0.938215
0.963328 0.963328 0.963328
0.012981 0.012981 0.012981
0.039955 0.039955 0.039955
0.066928 0.066928 0.066928
0.093902 0.093902 0.093902
0.120876 0.120876 0.120876
0.147849 0.147849 0.147849
0.174823 0.174823 0.174823
0.201796 0.201796 0.201796
0.228770 0.228770 0.228770
0.103722 0.103722 0.103722
0.130696 0.130696 0.130696
0.157669 0.157669 0.157669
0.184643 0.184643 0.184643
0.211617 0.211617 0.211617
0.238590 0.238590 0.238590
0.265564 0.265564 0.265564
0.292756 0.292756 0.292756
0.322055 0.322055 0.322055
0.194463 0.194463 0.194463
0.221437 0.221437 0.221437
0.248410 0.248410 0.248410
0.275384 0.275384 0.275384
0.303423 0.303423 0.303423
0.332722 0.332722 0.332722
0.362021 0.362021 0.362021
0.391320 0.391320 0.391320
0.420619 0.420619 0.420619
0.285204 0.285204 0.285204
0.314090 0.314090 0.314090
0.343389 0.343389 0.343389
0.372688 0.372688 0.372688
0.401986 0.401986 0.401986
0.431285 0.431285 0.431285
0.460584 0.460584 0.460584
0.489883 0.489883 0.489883
0.519182 0.519182 0.519182
0.383354 0.383354 0.383354
0.412653 0.412653 0.412653
0.441952 0.441952 0.441952
0.471251 0.471251 0.471251
0.500550 0.500550 0.500550
0.529849 0.529849 0.529849
0.559148 0.559148 0.559148
0.588447 0.588447 0.588447
0.617746 0.617746 0.617746
0.481918 0.481918 0.481918
0.511217 0.511217 0.511217
0.540516 0.540516 0.540516
0.569814 0.569814 0.569814
0.599113 0.599113 0.599113
0.628412 0.628412 0.628412
0.657711 0.657711 0.657711
0.687010 0.687010 0.687010
0.716309 0.716309 0.716309
0.580481 0.580481 0.580481
0.609780 0.609780 0.609780
0.639079 0.639079 0.639079
0.668378 0.668378 0.668378
0.697677 0.697677 0.697677
0.726976 0.726976 0.726976
0.752664 0.752664 0.752664
0.777777 0.777777 0.777777
0.802891 0.802891 0.802891
0.679045 0.679045 0.679045
0.708344 0.708344 0.708344
0.736694 0.736694 0.736694
0.761807 0.761807 0.761807
0.786920 0.786920 0.786920
0.812034 0.812034 0.812034
0.837147 0.837147 0.837147
0.862261 0.862261 0.862261
0.887374 0.887374 0.887374
0.770950 0.770950 0.770950
0.796063 0.796063 0.796063
0.821177 0.821177 0.821177
0.846290 0.846290 0.846290
0.871403 0.871403 0.871403
0.896517 0.896517 0.896517
0.921630 0.921630 0.921630
0.946743 0.946743 0.946743
0.971857 0.971857 0.971857
0.022142 0.022142 0.022142
0.049115 0.049115 0.049115
0.076089 0.076089 0.076089
0.103062 0.103062 0.103062
0.130036 0.130036 0.130036
0.157010 0.157010 0.157010
0.183983 0.183983 0.183983
0.210957 0.210957 0.210957
0.237930 0.237930 0.237930
0.112882 0.112882 0.112882
0.139856 0.139856 0.139856
0.166830 0.166830 0.166830
0.193803 0.193803 0.193803
0.220777 0.220777 0.220777
0.247751 0.247751 0.247751
0.274724 0.274724 0.274724
0.302706 0.302706 0.302706
0.332005 0.332005 0.332005
0.203624 0.203624 0.203624
0.230597 0.230597 0.230597
0.257571 0.257571 0.257571
0.284544 0.284544 0.284544
0.313373 0.313373 0.313373
0.342672 0.342672 0.342672
0.371971 0.371971 0.371971
0.401270 0.401270 0.401270
0.430569 0.430569 0.430569
0.294741 0.294741 0.294741
0.324040 0.324040 0.324040
0.353339 0.353339 0.353339
0.382638 0.382638 0.382638
0.411937 0.411937 0.411937
0.441235 0.441235 0.441235
0.470534 0.470534 0.470534
0.499833 0.499833 0.499833
0.529132 0.529132 0.529132
0.393304 0.393304 0.393304
0.422603 0.422603 0.422603
0.451902 0.451902 0.451902
0.481201 0.481201 0.481201
0.510500 0.510500 0.510500
0.539799 0.539799 0.539799
0.569098 0.569098 0.569098
0.598397 0.598397 0.598397
0.627696 0.627696 0.627696
0.491868 0.491868 0.491868
0.521167 0.521167 0.521167
0.550466 0.550466 0.550466
0.579765 0.579765 0.579765
0.609064 0.609064 0.609064
0.638362 0.638362 0.638362
0.667661 0.667661 0.667661
0.696960 0.696960 0.696960
0.726259 0.726259 0.726259
0.590431 0.590431 0.590431
0.619730 0.619730 0.619730
0.649029 0.649029 0.649029
0.678328 0.678328 0.678328
0.707627 0.707627 0.707627
0.736079 0.736079 0.736079
0.761193 0.761193 0.761193
0.786306 0.786306 0.786306
0.811419 0.811419 0.811419
0.688995 0.688995 0.688995
0.718294 0.718294 0.718294
0.745222 0.745222 0.745222
0.770336 0.770336 0.770336
0.795449 0.795449 0.795449
0.820562 0.820562 0.820562
0.845676 0.845676 0.845676
0.870789 0.870789 0.870789
0.895903 0.895903 0.895903
0.779478 0.779478 0.779478
0.804592 0.804592 0.804592
0.829705 0.829705 0.829705
0.854819 0.854819 0.854819
0.879932 0.879932 0.879932
0.905045 0.905045 0.905045
0.930159 0.930159 0.930159
0.955272 0.955272 0.955272
0.980385 0.980385 0.980385
0.031302 0.031302 0.031302
0.058275 0.058275 0.058275
0.085249 0.085249 0.085249
0.112223 0.112223 0.112223
0.139196 0.139196 0.139196
0.166170 0.166170 0.166170
0.193144 0.193144 0.193144
0.220117 0.220117 0.220117
0.247091 0.247091 0.247091
0.122043 0.122043 0.122043
0.149017 0.149017 0.149017
0.175990 0.175990 0.175990
0.202964 0.202964 0.202964
0.229937 0.229937 0.229937
0.256911 0.256911 0.256911
0.283885 0.283885 0.283885
0.312656 0.312656 0.312656
0.341955 0.341955 0.341955
0.212784 0.212784 0.212784
0.239757 0.239757 0.239757
0.266731 0.266731 0.266731
0.294024 0.294024 0.294024
0.323323 0.323323 0.323323
0.352622 0.352622 0.352622
0.381921 0.381921 0.381921
0.411220 0.411220 0.411220
0.440519 0.440519 0.440519
0.304691 0.304691 0.304691
0.333990 0.333990 0.333990
0.363289 0.363289 0.363289
0.392588 0.392588 0.392588
0.421887 0.421887 0.421887
0.451186 0.451186 0.451186
0.480484 0.480484 0.480484
0.509783 0.509783 0.509783
0.539082 0.539082 0.539082
0.403254 0.403254 0.403254
0.432553 0.432553 0.432553
0.461852 0.461852 0.461852
0.491151 0.491151 0.491151
0.520450 0.520450 0.520450
0.549749 0.549749 0.549749
0.579048 0.579048 0.579048
0.608347 0.608347 0.608347
0.637646 0.637646 0.637646
0.501818 0.501818 0.501818
0.531117 0.531117 0.531117
0.560416 0.560416 0.560416
0.589715 0.589715 0.589715
0.619014 0.619014 0.619014
0.648313 0.648313 0.648313
0.677611 0.677611 0.677611
0.706910 0.706910 0.706910
0.735465 0.735465 0.735465
0.600381 0.600381 0.600381
0.629680 0.629680 0.629680
0.658979 0.658979 0.658979
0.688278 0.688278 0.688278
0.717577 0.717577 0.717577
0.744608 0.744608 0.744608
0.769721 0.769721 0.769721
0.794835 0.794835 0.794835
0.819948 0.819948 0.819948
0.698945 0.698945 0.698945
0.728244 0.728244 0.728244
0.753751 0.753751 0.753751
0.778864 0.778864 0.778864
0.803978 0.803978 0.803978
0.829091 0.829091 0.829091
0.854204 0.854204 0.854204
0.879318 0.879318 0.879318
0.904431 0.904431 0.904431
0.788007 0.788007 0.788007
0.813121 0.813121 0.813121
0.838234 0.838234 0.838234
0.863347 0.863347 0.863347
0.888461 0.888461 0.888461
0.913574 0.913574 0.913574
0.938687 0.938687 0.938687
0.963801 0.963801 0.963801
0.988914 0.988914 0.988914
0.040462 0.040462 0.040462
0.067436 0.067436 0.067436
0.094409 0.094409 0.094409
0.121383 0.121383 0.121383
0.148357 0.148357 0.148357
0.175330 0.175330 0.175330
0.202304 0.202304 0.202304
0.229278 0.229278 0.229278
0.256251 0.256251 0.256251
0.131203 0.131203 0.131203
0.158177 0.158177 0.158177
0.185150 0.185150 0.185150
0.212124 0.212124 0.212124
0.239098 0.239098 0.239098
0.266071 0.266071 0.266071
0.293307 0.293307 0.293307
0.322606 0.322606 0.322606
0.351905 0.351905 0.351905
0.221944 0.221944 0.221944
0.248918 0.248918 0.248918
0.275892 0.275892 0.275892
0.303974 0.303974 0.303974
0.333273 0.333273 0.333273
0.362572 0.362572 0.362572
0.391871 0.391871 0.391871
0.421170 0.421170 0.421170
0.450469 0.450469 0.450469
0.314641 0.314641 0.314641
0.343940 0.343940 0.343940
0.373239 0.373239 0.373239
0.402538 0.402538 0.402538
0.431837 0.431837 0.431837
0.461136 0.461136 0.461136
0.490435 0.490435 0.490435
0.519733 0.519733 0.519733
0.549032 0.549032 0.549032
0.413204 0.413204 0.413204
0.442503 0.442503 0.442503
0.471802 0.471802 0.471802
0.501101 0.501101 0.501101
0.530400 0.530400 0.530400
0.559699 0.559699 0.559699
0.588998 0.588998 0.588998
0.618297 0.618297 0.618297
0.647596 0.647596 0.647596
0.511768 0.511768 0.511768
0.541067 0.541067 0.541067
0.570366 0.570366 0.570366
0.599665 0.599665 0.599665
0.628964 0.628964 0.628964
0.658263 0.658263 0.658263
0.687561 0.687561 0.687561
0.716860 0.716860 0.716860
0.743994 0.743994 0.743994
0.610331 0.610331 0.610331
0.639630 0.639630 0.639630
0.668929 0.668929 0.668929
0.698228 0.698228 0.698228
0.727527 0.727527 0.727527
0.753137 0.753137 0.753137
0.778250 0.778250 0.778250
0.803363 0.803363 0.803363
0.828477 0.828477 0.828477
0.708895 0.708895 0.708895
0.737166 0.737166 0.737166
0.762279 0.762279 0.762279
0.787393 0.787393 0.787393
0.812506 0.812506 0.812506
0.837620 0.837620 0.837620
0.862733 0.862733 0.862733
0.887846 0.887846 0.887846
0.912960 0.912960 0.912960
0.796536 0.796536 0.796536
0.821649 0.821649 0.821649
0.846762 0.846762 0.846762
0.871876 0.871876 0.871876
0.896989 0.896989 0.896989
0.922103 0.922103 0.922103
0.947216 0.947216 0.947216
0.972329 0.972329 0.972329
0.997443 0.997443 0.997443
0.049623 0.049623 0.049623
0.076596 0.076596 0.076596
0.103570 0.103570 0.103570
0.130543 0.130543 0.130543
0.157517 0.157517 0.157517
0.184491 0.184491 0.184491
0.211464 0.211464 0.211464
0.238438 0.238438 0.238438
0.265412 0.265412 0.265412
0.140364 0.140364 0.140364
0.167337 0.167337 0.167337
0.194311 0.194311 0.194311
0.221284 0.221284 0.221284
0.248258 0.248258 0.248258
0.275232 0.275232 0.275232
0.303258 0.303258 0.303258
0.332556 0.332556 0.332556
0.361855 0.361855 0.361855
0.231105 0.231105 0.231105
0.258078 0.258078 0.258078
0.285052 0.285052 0.285052
0.313924 0.313924 0.313924
0.343223 0.343223 0.343223
0.372522 0.372522 0.372522
0.401821 0.401821 0.401821
0.431120 0.431120 0.431120
0.460419 0.460419 0.460419
0.324591 0.324591 0.324591
0.353890 0.353890 0.353890
0.383189 0.383189 0.383189
0.412488 0.412488 0.412488
0.441787 0.441787 0.441787
0.471086 0.471086 0.471086
0.500385 0.500385 0.500385
0.529684 0.529684 0.529684
0.558982 0.558982 0.558982
0.423154 0.423154 0.423154
0.452453 0.452453 0.452453
0.481752 0.481752 0.481752
0.511051 0.511051 0.511051
0.540350 0.540350 0.540350
0.569649 0.569649 0.569649
0.598948 0.598948 0.598948
0.628247 0.628247 0.628247
0.657546 0.657546 0.657546
0.521718 0.521718 0.521718
0.551017 0.551017 0.551017
0.580316 0.580316 0.580316
0.609615 0.609615 0.609615
0.638914 0.638914 0.638914
0.668213 0.668213 0.668213
0.697512 0.697512 0.697512
0.726811 0.726811 0.726811
0.752522 0.752522 0.752522
0.620281 0.620281 0.620281
0.649580 0.649580 0.649580
0.678879 0.678879 0.678879
0.708178 0.708178 0.708178
0.736552 0.736552 0.736552
0.761665 0.761665 0.761665
0.786779 0.786779 0.786779
0.811892 0.811892 0.811892
0.837005 0.837005 0.837005
0.718845 0.718845 0.718845
0.745695 0.745695 0.745695
0.770808 0.770808 0.770808
0.795922 0.795922 0.795922
0.821035 0.821035 0.821035
0.846148 0.846148 0.846148
0.871262 0.871262 0.871262
0.896375 0.896375 0.896375
0.921488 0.921488 0.921488
0.805064 0.805064 0.805064
0.830178 0.830178 0.830178
0.855291 0.855291 0.855291
0.880404 0.880404 0.880404
0.905518 0.905518 0.905518
0.930631 0.930631 0.930631
0.955745 0.955745 0.955745
0.980858 0.980858 0.980858
1.000000 1.000000 1.000000
0.058783 0.058783 0.058783
0.085757 0.085757 0.085757
0.112730 0.112730 0.112730
0.139704 0.139704 0.139704
0.166677 0.166677 0.166677
0.193651 0.193651 0.193651
0.220625 0.220625 0.220625
0.247598 0.247598 0.247598
0.274572 0.274572 0.274572
0.149524 0.149524 0.149524
0.176498 0.176498 0.176498
0.203471 0.203471 0.203471
0.230445 0.230445 0.230445
0.257418 0.257418 0.257418
0.284392 0.284392 0.284392
0.313208 0.313208 0.313208
0.342507 0.342507 0.342507
0.371805 0.371805 0.371805
0.240265 0.240265 0.240265
0.267239 0.267239 0.267239
0.294575 0.294575 0.294575
0.323874 0.323874 0.323874
0.353173 0.353173 0.353173
0.382472 0.382472 0.382472
0.411771 0.411771 0.411771
0.441070 0.441070 0.441070
0.470369 0.470369 0.470369
0.334541 0.334541 0.334541
0.363840 0.363840 0.363840
0.393139 0.393139 0.393139
0.422438 0.422438 0.422438
0.451737 0.451737 0.451737
0.481036 0.481036 0.481036
0.510335 0.510335 0.510335
0.539634 0.539634 0.539634
0.568932 0.568932 0.568932
0.433105 0.433105 0.433105
0.462403 0.462403 0.462403
0.491702 0.491702 0.491702
0.521001 0.521001 0.521001
0.550300 0.550300 0.550300
0.579599 0.579599 0.579599
0.608898 0.608898 0.608898
0.638197 0.638197 0.638197
0.667496 0.667496 0.667496
0.531668 0.531668 0.531668
0.560967 0.560967 0.560967
0.590266 0.590266 0.590266
0.619565 0.619565 0.619565
0.648864 0.648864 0.648864
0.678163 0.678163 0.678163
0.707462 0.707462 0.707462
0.735938 0.735938 0.735938
0.761051 0.761051 0.761051
0.630232 0.630232 0.630232
0.659530 0.659530 0.659530
0.688829 0.688829 0.688829
0.718128 0.718128 0.718128
0.745081 0.745081 0.745081
0.770194 0.770194 0.770194
0.795307 0.795307 0.795307
0.820421 0.820421 0.820421
0.845534 0.845534 0.845534
0.728795 0.728795 0.728795
0.754223 0.754223 0.754223
0.779337 0.779337 0.779337
0.804450 0.804450 0.804450
0.829564 0.829564 0.829564
0.854677 0.854677 0.854677
0.879790 0.879790 0.879790
0.904904 0.904904 0.904904
0.930017 0.930017 0.930017
0.813593 0.813593 0.813593
0.838706 0.838706 0.838706
0.863820 0.863820 0.863820
0.888933 0.888933 0.888933
0.914047 0.914047 0.914047
0.939160 0.939160 0.939160
0.964273 0.964273 0.964273
0.989387 0.989387 0.989387
1.000000 1.000000 1.000000
