luts/mono_classic.cube
TITLE "Bw Ilford Hp5"
LUT_3D_SIZE 33
0.000000 0.000000 0.000000
0.000000 0.000000 0.000000
0.000000 0.000000 0.000000
0.000000 0.000000 0.000000
0.000000 0.000000 0.000000
0.000000 0.000000 0.000000
0.000000 0.000000 0.000000
0.000000 0.000000 0.000000
0.006759 0.006759 0.006759
0.013704 0.013704 0.013704
0.020649 0.020649 0.020649
0.027594 0.027594 0.027594
0.034539 0.034539 0.034539
0.041484 0.041484 0.041484
0.048429 0.048429 0.048429
0.055374 0.055374 0.055374
0.062319 0.062319 0.062319
0.069264 0.069264 0.069264
0.076209 0.076209 0.076209
0.083154 0.083154 0.083154
0.090099 0.090099 0.090099
0.097044 0.097044 0.097044
0.103989 0.103989 0.103989
0.110933 0.110933 0.110933
0.117878 0.117878 0.117878
0.124823 0.124823 0.124823
0.131768 0.131768 0.131768
0.138713 0.138713 0.138713
0.145658 0.145658 0.145658
0.152603 0.152603 0.152603
0.159548 0.159548 0.159548
0.166493 0.166493 0.166493
0.173438 0.173438 0.173438
0.000000 0.000000 0.000000
0.000000 0.000000 0.000000
0.000000 0.000000 0.000000
0.000000 0.000000 0.000000
0.002343 0.002343 0.002343
0.009288 0.009288 0.009288
0.016233 0.016233 0.016233
0.023178 0.023178 0.023178
0.030123 0.030123 0.030123
0.037068 0.037068 0.037068
0.044013 0.044013 0.044013
0.050957 0.050957 0.050957
0.057902 0.057902 0.057902
0.064847 0.064847 0.064847
0.071792 0.071792 0.071792
0.078737 0.078737 0.078737
0.085682 0.085682 0.085682
0.092627 0.092627 0.092627
0.099572 0.099572 0.099572
0.106517 0.106517 0.106517
0.113462 0.113462 0.113462
0.120407 0.120407 0.120407
0.127352 0.127352 0.127352
0.134297 0.134297 0.134297
0.141242 0.141242 0.141242
0.148187 0.148187 0.148187
0.155131 0.155131 0.155131
0.162076 0.162076 0.162076
0.169021 0.169021 0.169021
0.175966 0.175966 0.175966
0.182911 0.182911 0.182911
0.189856 0.189856 0.189856
0.196801 0.196801 0.196801
0.000000 0.000000 0.000000
0.004871 0.004871 0.004871
0.011816 0.011816 0.011816
0.018761 0.018761 0.018761
0.025706 0.025706 0.025706
0.032651 0.032651 0.032651
0.039596 0.039596 0.039596
0.046541 0.046541 0.046541
0.053486 0.053486 0.053486
0.060431 0.060431 0.060431
0.067376 0.067376 0.067376
0.074321 0.074321 0.074321
0.081266 0.081266 0.081266
0.088211 0.088211 0.088211
0.095155 0.095155 0.095155
0.102100 0.102100 0.102100
0.109045 0.109045 0.109045
0.115990 0.115990 0.115990
0.122935 0.122935 0.122935
0.129880 0.129880 0.129880
0.136825 0.136825 0.136825
0.143770 0.143770 0.143770
0.150715 0.150715 0.150715
0.157660 0.157660 0.157660
0.164605 0.164605 0.164605
0.171550 0.171550 0.171550
0.178495 0.178495 0.178495
0.185440 0.185440 0.185440
0.192385 0.192385 0.192385
0.199329 0.199329 0.199329
0.206274 0.206274 0.206274
0.213219 0.213219 0.213219
0.220164 0.220164 0.220164
0.021290 0.021290 0.021290
0.028235 0.028235 0.028235
0.035179 0.035179 0.035179
0.042124 0.042124 0.042124
0.049069 0.049069 0.049069
0.056014 0.056014 0.056014
0.062959 0.062959 0.062959
0.069904 0.069904 0.069904
0.076849 0.076849 0.076849
0.083794 0.083794 0.083794
0.090739 0.090739 0.090739
0.097684 0.097684 0.097684
0.104629 0.104629 0.104629
0.111574 0.111574 0.111574
0.118519 0.118519 0.118519
0.125464 0.125464 0.125464
0.132409 0.132409 0.132409
0.139353 0.139353 0.139353
0.146298 0.146298 0.146298
0.153243 0.153243 0.153243
0.160188 0.160188 0.160188
0.167133 0.167133 0.167133
0.174078 0.174078 0.174078
0.181023 0.181023 0.181023
0.187968 0.187968 0.187968
0.194913 0.194913 0.194913
0.201858 0.201858 0.201858
0.208803 0.208803 0.208803
0.215748 0.215748 0.215748
0.222693 0.222693 0.222693
0.229638 0.229638 0.229638
0.236583 0.236583 0.236583
0.243527 0.243527 0.243527
0.044653 0.044653 0.044653
0.051598 0.051598 0.051598
0.058543 0.058543 0.058543
0.065488 0.065488 0.065488
0.072433 0.072433 0.072433
0.079377 0.079377 0.079377
0.086322 0.086322 0.086322
0.093267 0.093267 0.093267
0.100212 0.100212 0.100212
0.107157 0.107157 0.107157
0.114102 0.114102 0.114102
0.121047 0.121047 0.121047
0.127992 0.127992 0.127992
0.134937 0.134937 0.134937
0.141882 0.141882 0.141882
0.148827 0.148827 0.148827
0.155772 0.155772 0.155772
0.162717 0.162717 0.162717
0.169662 0.169662 0.169662
0.176607 0.176607 0.176607
0.183551 0.183551 0.183551
0.190496 0.190496 0.190496
0.197441 0.197441 0.197441
0.204386 0.204386 0.204386
0.211331 0.211331 0.211331
0.218276 0.218276 0.218276
0.225221 0.225221 0.225221
0.232166 0.232166 0.232166
0.239111 0.239111 0.239111
0.246056 0.246056 0.246056
0.253001 0.253001 0.253001
0.259946 0.259946 0.259946
0.267264 0.267264 0.267264
0.068016 0.068016 0.068016
0.074961 0.074961 0.074961
0.081906 0.081906 0.081906
0.088851 0.088851 0.088851
0.095796 0.095796 0.095796
0.102741 0.102741 0.102741
0.109686 0.109686 0.109686
0.116631 0.116631 0.116631
0.123575 0.123575 0.123575
0.130520 0.130520 0.130520
0.137465 0.137465 0.137465
0.144410 0.144410 0.144410
0.151355 0.151355 0.151355
0.158300 0.158300 0.158300
0.165245 0.165245 0.165245
0.172190 0.172190 0.172190
0.179135 0.179135 0.179135
0.186080 0.186080 0.186080
0.193025 0.193025 0.193025
0.199970 0.199970 0.199970
0.206915 0.206915 0.206915
0.213860 0.213860 0.213860
0.220805 0.220805 0.220805
0.227749 0.227749 0.227749
0.234694 0.234694 0.234694
0.241639 0.241639 0.241639
0.248584 0.248584 0.248584
0.255529 0.255529 0.255529
0.262474 0.262474 0.262474
0.270244 0.270244 0.270244
0.278429 0.278429 0.278429
0.286614 0.286614 0.286614
0.294799 0.294799 0.294799
0.091379 0.091379 0.091379
0.098324 0.098324 0.098324
0.105269 0.105269 0.105269
0.112214 0.112214 0.112214
0.119159 0.119159 0.119159
0.126104 0.126104 0.126104
0.133049 0.133049 0.133049
0.139994 0.139994 0.139994
0.146939 0.146939 0.146939
0.153884 0.153884 0.153884
0.160829 0.160829 0.160829
0.167773 0.167773 0.167773
0.174718 0.174718 0.174718
0.181663 0.181663 0.181663
0.188608 0.188608 0.188608
0.195553 0.195553 0.195553
0.202498 0.202498 0.202498
0.209443 0.209443 0.209443
0.216388 0.216388 0.216388
0.223333 0.223333 0.223333
0.230278 0.230278 0.230278
0.237223 0.237223 0.237223
0.244168 0.244168 0.244168
0.251113 0.251113 0.251113
0.258058 0.258058 0.258058
0.265039 0.265039 0.265039
0.273224 0.273224 0.273224
0.281409 0.281409 0.281409
0.289594 0.289594 0.289594
0.297779 0.297779 0.297779
0.305964 0.305964 0.305964
0.314149 0.314149 0.314149
0.322334 0.322334 0.322334
0.114742 0.114742 0.114742
0.121687 0.121687 0.121687
0.128632 0.128632 0.128632
0.135577 0.135577 0.135577
0.142522 0.142522 0.142522
0.149467 0.149467 0.149467
0.156412 0.156412 0.156412
0.163357 0.163357 0.163357
0.170302 0.170302 0.170302
0.177247 0.177247 0.177247
0.184192 0.184192 0.184192
0.191137 0.191137 0.191137
0.198082 0.198082 0.198082
0.205027 0.205027 0.205027
0.211971 0.211971 0.211971
0.218916 0.218916 0.218916
0.225861 0.225861 0.225861
0.232806 0.232806 0.232806
0.239751 0.239751 0.239751
0.246696 0.246696 0.246696
0.253641 0.253641 0.253641
0.260586 0.260586 0.260586
0.268019 0.268019 0.268019
0.276204 0.276204 0.276204
0.284389 0.284389 0.284389
0.292574 0.292574 0.292574
0.300759 0.300759 0.300759
0.308944 0.308944 0.308944
0.317129 0.317129 0.317129
0.325314 0.325314 0.325314
0.333499 0.333499 0.333499
0.341685 0.341685 0.341685
0.349870 0.349870 0.349870
0.138106 0.138106 0.138106
0.145051 0.145051 0.145051
0.151995 0.151995 0.151995
0.158940 0.158940 0.158940
0.165885 0.165885 0.165885
0.172830 0.172830 0.172830
0.179775 0.179775 0.179775
0.186720 0.186720 0.186720
0.193665 0.193665 0.193665
0.200610 0.200610 0.200610
0.207555 0.207555 0.207555
0.214500 0.214500 0.214500
0.221445 0.221445 0.221445
0.228390 0.228390 0.228390
0.235335 0.235335 0.235335
0.242280 0.242280 0.242280
0.249225 0.249225 0.249225
0.256169 0.256169 0.256169
0.263114 0.263114 0.263114
0.270998 0.270998 0.270998
0.279184 0.279184 0.279184
0.287369 0.287369 0.287369
0.295554 0.295554 0.295554
0.303739 0.303739 0.303739
0.311924 0.311924 0.311924
0.320109 0.320109 0.320109
0.328294 0.328294 0.328294
0.336479 0.336479 0.336479
0.344664 0.344664 0.344664
0.352849 0.352849 0.352849
0.361035 0.361035 0.361035
0.369220 0.369220 0.369220
0.377405 0.377405 0.377405
0.161469 0.161469 0.161469
0.168414 0.168414 0.168414
0.175359 0.175359 0.175359
0.182304 0.182304 0.182304
0.189249 0.189249 0.189249
0.196193 0.196193 0.196193
0.203138 0.203138 0.203138
0.210083 0.210083 0.210083
0.217028 0.217028 0.217028
0.223973 0.223973 0.223973
0.230918 0.230918 0.230918
0.237863 0.237863 0.237863
0.244808 0.244808 0.244808
0.251753 0.251753 0.251753
0.258698 0.258698 0.258698
0.265793 0.265793 0.265793
0.273978 0.273978 0.273978
0.282163 0.282163 0.282163
0.290349 0.290349 0.290349
0.298534 0.298534 0.298534
0.306719 0.306719 0.306719
0.314904 0.314904 0.314904
0.323089 0.323089 0.323089
0.331274 0.331274 0.331274
0.339459 0.339459 0.339459
0.347644 0.347644 0.347644
0.355829 0.355829 0.355829
0.364015 0.364015 0.364015
0.372200 0.372200 0.372200
0.380385 0.380385 0.380385
0.388570 0.388570 0.388570
0.396755 0.396755 0.396755
0.404940 0.404940 0.404940
0.184832 0.184832 0.184832
0.191777 0.191777 0.191777
0.198722 0.198722 0.198722
0.205667 0.205667 0.205667
0.212612 0.212612 0.212612
0.219557 0.219557 0.219557
0.226502 0.226502 0.226502
0.233447 0.233447 0.233447
0.240391 0.240391 0.240391
0.247336 0.247336 0.247336
0.254281 0.254281 0.254281
0.261226 0.261226 0.261226
0.268773 0.268773 0.268773
0.276958 0.276958 0.276958
0.285143 0.285143 0.285143
0.293328 0.293328 0.293328
0.301514 0.301514 0.301514
0.309699 0.309699 0.309699
0.317884 0.317884 0.317884
0.326069 0.326069 0.326069
0.334254 0.334254 0.334254
0.342439 0.342439 0.342439
0.350624 0.350624 0.350624
0.358809 0.358809 0.358809
0.366994 0.366994 0.366994
0.375179 0.375179 0.375179
0.383365 0.383365 0.383365
0.391550 0.391550 0.391550
0.399735 0.399735 0.399735
0.407920 0.407920 0.407920
0.416105 0.416105 0.416105
0.424290 0.424290 0.424290
0.432475 0.432475 0.432475
0.208195 0.208195 0.208195
0.215140 0.215140 0.215140
0.222085 0.222085 0.222085
0.229030 0.229030 0.229030
0.235975 0.235975 0.235975
0.242920 0.242920 0.242920
0.249865 0.249865 0.249865
0.256810 0.256810 0.256810
0.263755 0.263755 0.263755
0.271753 0.271753 0.271753
0.279938 0.279938 0.279938
0.288123 0.288123 0.288123
0.296308 0.296308 0.296308
0.304493 0.304493 0.304493
0.312679 0.312679 0.312679
0.320864 0.320864 0.320864
0.329049 0.329049 0.329049
0.337234 0.337234 0.337234
0.345419 0.345419 0.345419
0.353604 0.353604 0.353604
0.361789 0.361789 0.361789
0.369974 0.369974 0.369974
0.378159 0.378159 0.378159
0.386344 0.386344 0.386344
0.394530 0.394530 0.394530
0.402715 0.402715 0.402715
0.410900 0.410900 0.410900
0.419085 0.419085 0.419085
0.427270 0.427270 0.427270
0.435455 0.435455 0.435455
0.443640 0.443640 0.443640
0.451825 0.451825 0.451825
0.460010 0.460010 0.460010
0.231558 0.231558 0.231558
0.238503 0.238503 0.238503
0.245448 0.245448 0.245448
0.252393 0.252393 0.252393
0.259338 0.259338 0.259338
0.266548 0.266548 0.266548
0.274733 0.274733 0.274733
0.282918 0.282918 0.282918
0.291103 0.291103 0.291103
0.299288 0.299288 0.299288
0.307473 0.307473 0.307473
0.315659 0.315659 0.315659
0.323844 0.323844 0.323844
0.332029 0.332029 0.332029
0.340214 0.340214 0.340214
0.348399 0.348399 0.348399
0.356584 0.356584 0.356584
0.364769 0.364769 0.364769
0.372954 0.372954 0.372954
0.381139 0.381139 0.381139
0.389324 0.389324 0.389324
0.397509 0.397509 0.397509
0.405695 0.405695 0.405695
0.413880 0.413880 0.413880
0.422065 0.422065 0.422065
0.430250 0.430250 0.430250
0.438435 0.438435 0.438435
0.446620 0.446620 0.446620
0.454805 0.454805 0.454805
0.462990 0.462990 0.462990
0.471175 0.471175 0.471175
0.479361 0.479361 0.479361
0.487546 0.487546 0.487546
0.254922 0.254922 0.254922
0.261867 0.261867 0.261867
0.269528 0.269528 0.269528
0.277713 0.277713 0.277713
0.285898 0.285898 0.285898
0.294083 0.294083 0.294083
0.302268 0.302268 0.302268
0.310453 0.310453 0.310453
0.318638 0.318638 0.318638
0.326823 0.326823 0.326823
0.335009 0.335009 0.335009
0.343194 0.343194 0.343194
0.351379 0.351379 0.351379
0.359564 0.359564 0.359564
0.367749 0.367749 0.367749
0.375934 0.375934 0.375934
0.384119 0.384119 0.384119
0.392304 0.392304 0.392304
0.400489 0.400489 0.400489
0.408674 0.408674 0.408674
0.416860 0.416860 0.416860
0.425045 0.425045 0.425045
0.433230 0.433230 0.433230
0.441415 0.441415 0.441415
0.449600 0.449600 0.449600
0.457785 0.457785 0.457785
0.465970 0.465970 0.465970
0.474155 0.474155 0.474155
0.482340 0.482340 0.482340
0.490525 0.490525 0.490525
0.498711 0.498711 0.498711
0.506896 0.506896 0.506896
0.515081 0.515081 0.515081
0.280693 0.280693 0.280693
0.288878 0.288878 0.288878
0.297063 0.297063 0.297063
0.305248 0.305248 0.305248
0.313433 0.313433 0.313433
0.321618 0.321618 0.321618
0.329803 0.329803 0.329803
0.337989 0.337989 0.337989
0.346174 0.346174 0.346174
0.354359 0.354359 0.354359
0.362544 0.362544 0.362544
0.370729 0.370729 0.370729
0.378914 0.378914 0.378914
0.387099 0.387099 0.387099
0.395284 0.395284 0.395284
0.403469 0.403469 0.403469
0.411654 0.411654 0.411654
0.419839 0.419839 0.419839
0.428025 0.428025 0.428025
0.436210 0.436210 0.436210
0.444395 0.444395 0.444395
0.452580 0.452580 0.452580
0.460765 0.460765 0.460765
0.468950 0.468950 0.468950
0.477135 0.477135 0.477135
0.485320 0.485320 0.485320
0.493505 0.493505 0.493505
0.501691 0.501691 0.501691
0.509876 0.509876 0.509876
0.518061 0.518061 0.518061
0.526246 0.526246 0.526246
0.534431 0.534431 0.534431
0.542616 0.542616 0.542616
0.308228 0.308228 0.308228
0.316413 0.316413 0.316413
0.324598 0.324598 0.324598
0.332783 0.332783 0.332783
0.340968 0.340968 0.340968
0.349153 0.349153 0.349153
0.357339 0.357339 0.357339
0.365524 0.365524 0.365524
0.373709 0.373709 0.373709
0.381894 0.381894 0.381894
0.390079 0.390079 0.390079
0.398264 0.398264 0.398264
0.406449 0.406449 0.406449
0.414634 0.414634 0.414634
0.422819 0.422819 0.422819
0.431004 0.431004 0.431004
0.439190 0.439190 0.439190
0.447375 0.447375 0.447375
0.455560 0.455560 0.455560
0.463745 0.463745 0.463745
0.471930 0.471930 0.471930
0.480115 0.480115 0.480115
0.488300 0.488300 0.488300
0.496485 0.496485 0.496485
0.504670 0.504670 0.504670
0.512855 0.512855 0.512855
0.521041 0.521041 0.521041
0.529226 0.529226 0.529226
0.537411 0.537411 0.537411
0.545596 0.545596 0.545596
0.553781 0.553781 0.553781
0.561966 0.561966 0.561966
0.570151 0.570151 0.570151
0.335763 0.335763 0.335763
0.343948 0.343948 0.343948
0.352133 0.352133 0.352133
0.360319 0.360319 0.360319
0.368504 0.368504 0.368504
0.376689 0.376689 0.376689
0.384874 0.384874 0.384874
0.393059 0.393059 0.393059
0.401244 0.401244 0.401244
0.409429 0.409429 0.409429
0.417614 0.417614 0.417614
0.425799 0.425799 0.425799
0.433984 0.433984 0.433984
0.442169 0.442169 0.442169
0.450355 0.450355 0.450355
0.458540 0.458540 0.458540
0.466725 0.466725 0.466725
0.474910 0.474910 0.474910
0.483095 0.483095 0.483095
0.491280 0.491280 0.491280
0.499465 0.499465 0.499465
0.507650 0.507650 0.507650
0.515835 0.515835 0.515835
0.524021 0.524021 0.524021
0.532206 0.532206 0.532206
0.540391 0.540391 0.540391
0.548576 0.548576 0.548576
0.556761 0.556761 0.556761
0.564946 0.564946 0.564946
0.573131 0.573131 0.573131
0.581316 0.581316 0.581316
0.589501 0.589501 0.589501
0.597686 0.597686 0.597686
0.363298 0.363298 0.363298
0.371484 0.371484 0.371484
0.379669 0.379669 0.379669
0.387854 0.387854 0.387854
0.396039 0.396039 0.396039
0.404224 0.404224 0.404224
0.412409 0.412409 0.412409
0.420594 0.420594 0.420594
0.428779 0.428779 0.428779
0.436964 0.436964 0.436964
0.445149 0.445149 0.445149
0.453335 0.453335 0.453335
0.461520 0.461520 0.461520
0.469705 0.469705 0.469705
0.477890 0.477890 0.477890
0.486075 0.486075 0.486075
0.494260 0.494260 0.494260
0.502445 0.502445 0.502445
0.510630 0.510630 0.510630
0.518815 0.518815 0.518815
0.527000 0.527000 0.527000
0.535186 0.535186 0.535186
0.543371 0.543371 0.543371
0.551556 0.551556 0.551556
0.559741 0.559741 0.559741
0.567926 0.567926 0.567926
0.576111 0.576111 0.576111
0.584296 0.584296 0.584296
0.592481 0.592481 0.592481
0.600666 0.600666 0.600666
0.608851 0.608851 0.608851
0.617037 0.617037 0.617037
0.625222 0.625222 0.625222
0.390834 0.390834 0.390834
0.399019 0.399019 0.399019
0.407204 0.407204 0.407204
0.415389 0.415389 0.415389
0.423574 0.423574 0.423574
0.431759 0.431759 0.431759
0.439944 0.439944 0.439944
0.448129 0.448129 0.448129
0.456314 0.456314 0.456314
0.464499 0.464499 0.464499
0.472685 0.472685 0.472685
0.480870 0.480870 0.480870
0.489055 0.489055 0.489055
0.497240 0.497240 0.497240
0.505425 0.505425 0.505425
0.513610 0.513610 0.513610
0.521795 0.521795 0.521795
0.529980 0.529980 0.529980
0.538165 0.538165 0.538165
0.546351 0.546351 0.546351
0.554536 0.554536 0.554536
0.562721 0.562721 0.562721
0.570906 0.570906 0.570906
0.579091 0.579091 0.579091
0.587276 0.587276 0.587276
0.595461 0.595461 0.595461
0.603646 0.603646 0.603646
0.611831 0.611831 0.611831
0.620016 0.620016 0.620016
0.628201 0.628201 0.628201
0.636387 0.636387 0.636387
0.644572 0.644572 0.644572
0.652757 0.652757 0.652757
0.418369 0.418369 0.418369
0.426554 0.426554 0.426554
0.434739 0.434739 0.434739
0.442924 0.442924 0.442924
0.451109 0.451109 0.451109
0.459294 0.459294 0.459294
0.467479 0.467479 0.467479
0.475665 0.475665 0.475665
0.483850 0.483850 0.483850
0.492035 0.492035 0.492035
0.500220 0.500220 0.500220
0.508405 0.508405 0.508405
0.516590 0.516590 0.516590
0.524775 0.524775 0.524775
0.532960 0.532960 0.532960
0.541145 0.541145 0.541145
0.549330 0.549330 0.549330
0.557516 0.557516 0.557516
0.565701 0.565701 0.565701
0.573886 0.573886 0.573886
0.582071 0.582071 0.582071
0.590256 0.590256 0.590256
0.598441 0.598441 0.598441
0.606626 0.606626 0.606626
0.614811 0.614811 0.614811
0.622996 0.622996 0.622996
0.631181 0.631181 0.631181
0.639367 0.639367 0.639367
0.647552 0.647552 0.647552
0.655737 0.655737 0.655737
0.663922 0.663922 0.663922
0.672107 0.672107 0.672107
0.680292 0.680292 0.680292
0.445904 0.445904 0.445904
0.454089 0.454089 0.454089
0.462274 0.462274 0.462274
0.470459 0.470459 0.470459
0.478644 0.478644 0.478644
0.486829 0.486829 0.486829
0.495015 0.495015 0.495015
0.503200 0.503200 0.503200
0.511385 0.511385 0.511385
0.519570 0.519570 0.519570
0.527755 0.527755 0.527755
0.535940 0.535940 0.535940
0.544125 0.544125 0.544125
0.552310 0.552310 0.552310
0.560495 0.560495 0.560495
0.568681 0.568681 0.568681
0.576866 0.576866 0.576866
0.585051 0.585051 0.585051
0.593236 0.593236 0.593236
0.601421 0.601421 0.601421
0.609606 0.609606 0.609606
0.617791 0.617791 0.617791
0.625976 0.625976 0.625976
0.634161 0.634161 0.634161
0.642346 0.642346 0.642346
0.650531 0.650531 0.650531
0.658717 0.658717 0.658717
0.666902 0.666902 0.666902
0.675087 0.675087 0.675087
0.683272 0.683272 0.683272
0.691457 0.691457 0.691457
0.699642 0.699642 0.699642
0.707827 0.707827 0.707827
0.473439 0.473439 0.473439
0.481624 0.481624 0.481624
0.489809 0.489809 0.489809
0.497995 0.497995 0.497995
0.506180 0.506180 0.506180
0.514365 0.514365 0.514365
0.522550 0.522550 0.522550
0.530735 0.530735 0.530735
0.538920 0.538920 0.538920
0.547105 0.547105 0.547105
0.555290 0.555290 0.555290
0.563475 0.563475 0.563475
0.571660 0.571660 0.571660
0.579846 0.579846 0.579846
0.588031 0.588031 0.588031
0.596216 0.596216 0.596216
0.604401 0.604401 0.604401
0.612586 0.612586 0.612586
0.620771 0.620771 0.620771
0.628956 0.628956 0.628956
0.637141 0.637141 0.637141
0.645326 0.645326 0.645326
0.653511 0.653511 0.653511
0.661697 0.661697 0.661697
0.669882 0.669882 0.669882
0.678067 0.678067 0.678067
0.686252 0.686252 0.686252
0.694437 0.694437 0.694437
0.702622 0.702622 0.702622
0.710807 0.710807 0.710807
0.718992 0.718992 0.718992
0.727177 0.727177 0.727177
0.735362 0.735362 0.735362
0.500974 0.500974 0.500974
0.509159 0.509159 0.509159
0.517345 0.517345 0.517345
0.525530 0.525530 0.525530
0.533715 0.533715 0.533715
0.541900 0.541900 0.541900
0.550085 0.550085 0.550085
0.558270 0.558270 0.558270
0.566455 0.566455 0.566455
0.574640 0.574640 0.574640
0.582825 0.582825 0.582825
0.591010 0.591010 0.591010
0.599196 0.599196 0.599196
0.607381 0.607381 0.607381
0.615566 0.615566 0.615566
0.623751 0.623751 0.623751
0.631936 0.631936 0.631936
0.640121 0.640121 0.640121
0.648306 0.648306 0.648306
0.656491 0.656491 0.656491
0.664676 0.664676 0.664676
0.672861 0.672861 0.672861
0.681047 0.681047 0.681047
0.689232 0.689232 0.689232
0.697417 0.697417 0.697417
0.705602 0.705602 0.705602
0.713787 0.713787 0.713787
0.721972 0.721972 0.721972
0.730157 0.730157 0.730157
0.738342 0.738342 0.738342
0.746527 0.746527 0.746527
0.754713 0.754713 0.754713
0.761774 0.761774 0.761774
0.528510 0.528510 0.528510
0.536695 0.536695 0.536695
0.544880 0.544880 0.544880
0.553065 0.553065 0.553065
0.561250 0.561250 0.561250
0.569435 0.569435 0.569435
0.577620 0.577620 0.577620
0.585805 0.585805 0.585805
0.593990 0.593990 0.593990
0.602176 0.602176 0.602176
0.610361 0.610361 0.610361
0.618546 0.618546 0.618546
0.626731 0.626731 0.626731
0.634916 0.634916 0.634916
0.643101 0.643101 0.643101
0.651286 0.651286 0.651286
0.659471 0.659471 0.659471
0.667656 0.667656 0.667656
0.675841 0.675841 0.675841
0.684027 0.684027 0.684027
0.692212 0.692212 0.692212
0.700397 0.700397 0.700397
0.708582 0.708582 0.708582
0.716767 0.716767 0.716767
0.724952 0.724952 0.724952
0.733137 0.733137 0.733137
0.741322 0.741322 0.741322
0.749507 0.749507 0.749507
0.757673 0.757673 0.757673
0.764122 0.764122 0.764122
0.770571 0.770571 0.770571
0.777019 0.777019 0.777019
0.783468 0.783468 0.783468
0.556045 0.556045 0.556045
0.564230 0.564230 0.564230
0.572415 0.572415 0.572415
0.580600 0.580600 0.580600
0.588785 0.588785 0.588785
0.596970 0.596970 0.596970
0.605155 0.605155 0.605155
0.613340 0.613340 0.613340
0.621526 0.621526 0.621526
0.629711 0.629711 0.629711
0.637896 0.637896 0.637896
0.646081 0.646081 0.646081
0.654266 0.654266 0.654266
0.662451 0.662451 0.662451
0.670636 0.670636 0.670636
0.678821 0.678821 0.678821
0.687006 0.687006 0.687006
0.695192 0.695192 0.695192
0.703377 0.703377 0.703377
0.711562 0.711562 0.711562
0.719747 0.719747 0.719747
0.727932 0.727932 0.727932
0.736117 0.736117 0.736117
0.744302 0.744302 0.744302
0.752487 0.752487 0.752487
0.760021 0.760021 0.760021
0.766469 0.766469 0.766469
0.772918 0.772918 0.772918
0.779367 0.779367 0.779367
0.785816 0.785816 0.785816
0.792265 0.792265 0.792265
0.798714 0.798714 0.798714
0.805163 0.805163 0.805163
0.583580 0.583580 0.583580
0.591765 0.591765 0.591765
0.599950 0.599950 0.599950
0.608135 0.608135 0.608135
0.616320 0.616320 0.616320
0.624506 0.624506 0.624506
0.632691 0.632691 0.632691
0.640876 0.640876 0.640876
0.649061 0.649061 0.649061
0.657246 0.657246 0.657246
0.665431 0.665431 0.665431
0.673616 0.673616 0.673616
0.681801 0.681801 0.681801
0.689986 0.689986 0.689986
0.698171 0.698171 0.698171
0.706357 0.706357 0.706357
0.714542 0.714542 0.714542
0.722727 0.722727 0.722727
0.730912 0.730912 0.730912
0.739097 0.739097 0.739097
0.747282 0.747282 0.747282
0.755467 0.755467 0.755467
0.762368 0.762368 0.762368
0.768817 0.768817 0.768817
0.775266 0.775266 0.775266
0.781715 0.781715 0.781715
0.788164 0.788164 0.788164
0.794613 0.794613 0.794613
0.801062 0.801062 0.801062
0.807510 0.807510 0.807510
0.813959 0.813959 0.813959
0.820408 0.820408 0.820408
0.826857 0.826857 0.826857
0.611115 0.611115 0.611115
0.619300 0.619300 0.619300
0.627485 0.627485 0.627485
0.635670 0.635670 0.635670
0.643856 0.643856 0.643856
0.652041 0.652041 0.652041
0.660226 0.660226 0.660226
0.668411 0.668411 0.668411
0.676596 0.676596 0.676596
0.684781 0.684781 0.684781
0.692966 0.692966 0.692966
0.701151 0.701151 0.701151
0.709336 0.709336 0.709336
0.717521 0.717521 0.717521
0.725707 0.725707 0.725707
0.733892 0.733892 0.733892
0.742077 0.742077 0.742077
0.750262 0.750262 0.750262
0.758267 0.758267 0.758267
0.764716 0.764716 0.764716
0.771165 0.771165 0.771165
0.777614 0.777614 0.777614
0.784063 0.784063 0.784063
0.790512 0.790512 0.790512
0.796961 0.796961 0.796961
0.803409 0.803409 0.803409
0.809858 0.809858 0.809858
0.816307 0.816307 0.816307
0.822756 0.822756 0.822756
