luts/mono_fine_400.cube
TITLE "Bw Kodak Tmax 400"
LUT_3D_SIZE 33
0.000000 0.000000 0.000000
0.000000 0.000000 0.000000
0.000000 0.000000 0.000000
0.005730 0.005730 0.005730
0.012474 0.012474 0.012474
0.019217 0.019217 0.019217
0.025960 0.025960 0.025960
0.032704 0.032704 0.032704
0.039447 0.039447 0.039447
0.046191 0.046191 0.046191
0.052934 0.052934 0.052934
0.059677 0.059677 0.059677
0.066421 0.066421 0.066421
0.073164 0.073164 0.073164
0.079908 0.079908 0.079908
0.086651 0.086651 0.086651
0.093394 0.093394 0.093394
0.100138 0.100138 0.100138
0.106881 0.106881 0.106881
0.113625 0.113625 0.113625
0.120368 0.120368 0.120368
0.127112 0.127112 0.127112
0.133855 0.133855 0.133855
0.140598 0.140598 0.140598
0.147342 0.147342 0.147342
0.154085 0.154085 0.154085
0.160829 0.160829 0.160829
0.167572 0.167572 0.167572
0.174315 0.174315 0.174315
0.181059 0.181059 0.181059
0.187802 0.187802 0.187802
0.194546 0.194546 0.194546
0.201289 0.201289 0.201289
0.008185 0.008185 0.008185
0.014929 0.014929 0.014929
0.021672 0.021672 0.021672
0.028415 0.028415 0.028415
0.035159 0.035159 0.035159
0.041902 0.041902 0.041902
0.048646 0.048646 0.048646
0.055389 0.055389 0.055389
0.062132 0.062132 0.062132
0.068876 0.068876 0.068876
0.075619 0.075619 0.075619
0.082363 0.082363 0.082363
0.089106 0.089106 0.089106
0.095850 0.095850 0.095850
0.102593 0.102593 0.102593
0.109336 0.109336 0.109336
0.116080 0.116080 0.116080
0.122823 0.122823 0.122823
0.129567 0.129567 0.129567
0.136310 0.136310 0.136310
0.143053 0.143053 0.143053
0.149797 0.149797 0.149797
0.156540 0.156540 0.156540
0.163284 0.163284 0.163284
0.170027 0.170027 0.170027
0.176770 0.176770 0.176770
0.183514 0.183514 0.183514
0.190257 0.190257 0.190257
0.197001 0.197001 0.197001
0.203744 0.203744 0.203744
0.210487 0.210487 0.210487
0.217231 0.217231 0.217231
0.223974 0.223974 0.223974
0.030871 0.030871 0.030871
0.037614 0.037614 0.037614
0.044357 0.044357 0.044357
0.051101 0.051101 0.051101
0.057844 0.057844 0.057844
0.064588 0.064588 0.064588
0.071331 0.071331 0.071331
0.078074 0.078074 0.078074
0.084818 0.084818 0.084818
0.091561 0.091561 0.091561
0.098305 0.098305 0.098305
0.105048 0.105048 0.105048
0.111791 0.111791 0.111791
0.118535 0.118535 0.118535
0.125278 0.125278 0.125278
0.132022 0.132022 0.132022
0.138765 0.138765 0.138765
0.145508 0.145508 0.145508
0.152252 0.152252 0.152252
0.158995 0.158995 0.158995
0.165739 0.165739 0.165739
0.172482 0.172482 0.172482
0.179225 0.179225 0.179225
0.185969 0.185969 0.185969
0.192712 0.192712 0.192712
0.199456 0.199456 0.199456
0.206199 0.206199 0.206199
0.212942 0.212942 0.212942
0.219686 0.219686 0.219686
0.226429 0.226429 0.226429
0.233173 0.233173 0.233173
0.239916 0.239916 0.239916
0.246659 0.246659 0.246659
0.053556 0.053556 0.053556
0.060299 0.060299 0.060299
0.067043 0.067043 0.067043
0.073786 0.073786 0.073786
0.080529 0.080529 0.080529
0.087273 0.087273 0.087273
0.094016 0.094016 0.094016
0.100760 0.100760 0.100760
0.107503 0.107503 0.107503
0.114246 0.114246 0.114246
0.120990 0.120990 0.120990
0.127733 0.127733 0.127733
0.134477 0.134477 0.134477
0.141220 0.141220 0.141220
0.147963 0.147963 0.147963
0.154707 0.154707 0.154707
0.161450 0.161450 0.161450
0.168194 0.168194 0.168194
0.174937 0.174937 0.174937
0.181680 0.181680 0.181680
0.188424 0.188424 0.188424
0.195167 0.195167 0.195167
0.201911 0.201911 0.201911
0.208654 0.208654 0.208654
0.215398 0.215398 0.215398
0.222141 0.222141 0.222141
0.228884 0.228884 0.228884
0.235628 0.235628 0.235628
0.242371 0.242371 0.242371
0.249115 0.249115 0.249115
0.255858 0.255858 0.255858
0.262601 0.262601 0.262601
0.269345 0.269345 0.269345
0.076241 0.076241 0.076241
0.082984 0.082984 0.082984
0.089728 0.089728 0.089728
0.096471 0.096471 0.096471
0.103215 0.103215 0.103215
0.109958 0.109958 0.109958
0.116701 0.116701 0.116701
0.123445 0.123445 0.123445
0.130188 0.130188 0.130188
0.136932 0.136932 0.136932
0.143675 0.143675 0.143675
0.150418 0.150418 0.150418
0.157162 0.157162 0.157162
0.163905 0.163905 0.163905
0.170649 0.170649 0.170649
0.177392 0.177392 0.177392
0.184135 0.184135 0.184135
0.190879 0.190879 0.190879
0.197622 0.197622 0.197622
0.204366 0.204366 0.204366
0.211109 0.211109 0.211109
0.217853 0.217853 0.217853
0.224596 0.224596 0.224596
0.231339 0.231339 0.231339
0.238083 0.238083 0.238083
0.244826 0.244826 0.244826
0.251570 0.251570 0.251570
0.258313 0.258313 0.258313
0.265056 0.265056 0.265056
0.271800 0.271800 0.271800
0.278543 0.278543 0.278543
0.285287 0.285287 0.285287
0.292205 0.292205 0.292205
0.098926 0.098926 0.098926
0.105670 0.105670 0.105670
0.112413 0.112413 0.112413
0.119156 0.119156 0.119156
0.125900 0.125900 0.125900
0.132643 0.132643 0.132643
0.139387 0.139387 0.139387
0.146130 0.146130 0.146130
0.152874 0.152874 0.152874
0.159617 0.159617 0.159617
0.166360 0.166360 0.166360
0.173104 0.173104 0.173104
0.179847 0.179847 0.179847
0.186591 0.186591 0.186591
0.193334 0.193334 0.193334
0.200077 0.200077 0.200077
0.206821 0.206821 0.206821
0.213564 0.213564 0.213564
0.220308 0.220308 0.220308
0.227051 0.227051 0.227051
0.233794 0.233794 0.233794
0.240538 0.240538 0.240538
0.247281 0.247281 0.247281
0.254025 0.254025 0.254025
0.260768 0.260768 0.260768
0.267511 0.267511 0.267511
0.274255 0.274255 0.274255
0.280998 0.280998 0.280998
0.287742 0.287742 0.287742
0.294872 0.294872 0.294872
0.302196 0.302196 0.302196
0.309521 0.309521 0.309521
0.316846 0.316846 0.316846
0.121612 0.121612 0.121612
0.128355 0.128355 0.128355
0.135098 0.135098 0.135098
0.141842 0.141842 0.141842
0.148585 0.148585 0.148585
0.155329 0.155329 0.155329
0.162072 0.162072 0.162072
0.168815 0.168815 0.168815
0.175559 0.175559 0.175559
0.182302 0.182302 0.182302
0.189046 0.189046 0.189046
0.195789 0.195789 0.195789
0.202532 0.202532 0.202532
0.209276 0.209276 0.209276
0.216019 0.216019 0.216019
0.222763 0.222763 0.222763
0.229506 0.229506 0.229506
0.236249 0.236249 0.236249
0.242993 0.242993 0.242993
0.249736 0.249736 0.249736
0.256480 0.256480 0.256480
0.263223 0.263223 0.263223
0.269966 0.269966 0.269966
0.276710 0.276710 0.276710
0.283453 0.283453 0.283453
0.290214 0.290214 0.290214
0.297538 0.297538 0.297538
0.304863 0.304863 0.304863
0.312188 0.312188 0.312188
0.319513 0.319513 0.319513
0.326837 0.326837 0.326837
0.334162 0.334162 0.334162
0.341487 0.341487 0.341487
0.144297 0.144297 0.144297
0.151040 0.151040 0.151040
0.157784 0.157784 0.157784
0.164527 0.164527 0.164527
0.171270 0.171270 0.171270
0.178014 0.178014 0.178014
0.184757 0.184757 0.184757
0.191501 0.191501 0.191501
0.198244 0.198244 0.198244
0.204987 0.204987 0.204987
0.211731 0.211731 0.211731
0.218474 0.218474 0.218474
0.225218 0.225218 0.225218
0.231961 0.231961 0.231961
0.238704 0.238704 0.238704
0.245448 0.245448 0.245448
0.252191 0.252191 0.252191
0.258935 0.258935 0.258935
0.265678 0.265678 0.265678
0.272421 0.272421 0.272421
0.279165 0.279165 0.279165
0.285908 0.285908 0.285908
0.292880 0.292880 0.292880
0.300205 0.300205 0.300205
0.307530 0.307530 0.307530
0.314854 0.314854 0.314854
0.322179 0.322179 0.322179
0.329504 0.329504 0.329504
0.336829 0.336829 0.336829
0.344153 0.344153 0.344153
0.351478 0.351478 0.351478
0.358803 0.358803 0.358803
0.366128 0.366128 0.366128
0.166982 0.166982 0.166982
0.173725 0.173725 0.173725
0.180469 0.180469 0.180469
0.187212 0.187212 0.187212
0.193956 0.193956 0.193956
0.200699 0.200699 0.200699
0.207442 0.207442 0.207442
0.214186 0.214186 0.214186
0.220929 0.220929 0.220929
0.227673 0.227673 0.227673
0.234416 0.234416 0.234416
0.241159 0.241159 0.241159
0.247903 0.247903 0.247903
0.254646 0.254646 0.254646
0.261390 0.261390 0.261390
0.268133 0.268133 0.268133
0.274876 0.274876 0.274876
0.281620 0.281620 0.281620
0.288363 0.288363 0.288363
0.295547 0.295547 0.295547
0.302872 0.302872 0.302872
0.310196 0.310196 0.310196
0.317521 0.317521 0.317521
0.324846 0.324846 0.324846
0.332171 0.332171 0.332171
0.339495 0.339495 0.339495
0.346820 0.346820 0.346820
0.354145 0.354145 0.354145
0.361470 0.361470 0.361470
0.368794 0.368794 0.368794
0.376119 0.376119 0.376119
0.383444 0.383444 0.383444
0.390768 0.390768 0.390768
0.189667 0.189667 0.189667
0.196411 0.196411 0.196411
0.203154 0.203154 0.203154
0.209897 0.209897 0.209897
0.216641 0.216641 0.216641
0.223384 0.223384 0.223384
0.230128 0.230128 0.230128
0.236871 0.236871 0.236871
0.243614 0.243614 0.243614
0.250358 0.250358 0.250358
0.257101 0.257101 0.257101
0.263845 0.263845 0.263845
0.270588 0.270588 0.270588
0.277332 0.277332 0.277332
0.284075 0.284075 0.284075
0.290889 0.290889 0.290889
0.298214 0.298214 0.298214
0.305538 0.305538 0.305538
0.312863 0.312863 0.312863
0.320188 0.320188 0.320188
0.327513 0.327513 0.327513
0.334837 0.334837 0.334837
0.342162 0.342162 0.342162
0.349487 0.349487 0.349487
0.356811 0.356811 0.356811
0.364136 0.364136 0.364136
0.371461 0.371461 0.371461
0.378786 0.378786 0.378786
0.386110 0.386110 0.386110
0.393435 0.393435 0.393435
0.400760 0.400760 0.400760
0.408085 0.408085 0.408085
0.415409 0.415409 0.415409
0.212352 0.212352 0.212352
0.219096 0.219096 0.219096
0.225839 0.225839 0.225839
0.232583 0.232583 0.232583
0.239326 0.239326 0.239326
0.246070 0.246070 0.246070
0.252813 0.252813 0.252813
0.259556 0.259556 0.259556
0.266300 0.266300 0.266300
0.273043 0.273043 0.273043
0.279787 0.279787 0.279787
0.286530 0.286530 0.286530
0.293556 0.293556 0.293556
0.300880 0.300880 0.300880
0.308205 0.308205 0.308205
0.315530 0.315530 0.315530
0.322855 0.322855 0.322855
0.330179 0.330179 0.330179
0.337504 0.337504 0.337504
0.344829 0.344829 0.344829
0.352153 0.352153 0.352153
0.359478 0.359478 0.359478
0.366803 0.366803 0.366803
0.374128 0.374128 0.374128
0.381452 0.381452 0.381452
0.388777 0.388777 0.388777
0.396102 0.396102 0.396102
0.403427 0.403427 0.403427
0.410751 0.410751 0.410751
0.418076 0.418076 0.418076
0.425401 0.425401 0.425401
0.432725 0.432725 0.432725
0.440050 0.440050 0.440050
0.235038 0.235038 0.235038
0.241781 0.241781 0.241781
0.248525 0.248525 0.248525
0.255268 0.255268 0.255268
0.262011 0.262011 0.262011
0.268755 0.268755 0.268755
0.275498 0.275498 0.275498
0.282242 0.282242 0.282242
0.288985 0.288985 0.288985
0.296222 0.296222 0.296222
0.303547 0.303547 0.303547
0.310872 0.310872 0.310872
0.318196 0.318196 0.318196
0.325521 0.325521 0.325521
0.332846 0.332846 0.332846
0.340171 0.340171 0.340171
0.347495 0.347495 0.347495
0.354820 0.354820 0.354820
0.362145 0.362145 0.362145
0.369470 0.369470 0.369470
0.376794 0.376794 0.376794
0.384119 0.384119 0.384119
0.391444 0.391444 0.391444
0.398769 0.398769 0.398769
0.406093 0.406093 0.406093
0.413418 0.413418 0.413418
0.420743 0.420743 0.420743
0.428067 0.428067 0.428067
0.435392 0.435392 0.435392
0.442717 0.442717 0.442717
0.450042 0.450042 0.450042
0.457366 0.457366 0.457366
0.464691 0.464691 0.464691
0.257723 0.257723 0.257723
0.264466 0.264466 0.264466
0.271210 0.271210 0.271210
0.277953 0.277953 0.277953
0.284697 0.284697 0.284697
0.291564 0.291564 0.291564
0.298889 0.298889 0.298889
0.306214 0.306214 0.306214
0.313538 0.313538 0.313538
0.320863 0.320863 0.320863
0.328188 0.328188 0.328188
0.335513 0.335513 0.335513
0.342837 0.342837 0.342837
0.350162 0.350162 0.350162
0.357487 0.357487 0.357487
0.364812 0.364812 0.364812
0.372136 0.372136 0.372136
0.379461 0.379461 0.379461
0.386786 0.386786 0.386786
0.394110 0.394110 0.394110
0.401435 0.401435 0.401435
0.408760 0.408760 0.408760
0.416085 0.416085 0.416085
0.423409 0.423409 0.423409
0.430734 0.430734 0.430734
0.438059 0.438059 0.438059
0.445384 0.445384 0.445384
0.452708 0.452708 0.452708
0.460033 0.460033 0.460033
0.467358 0.467358 0.467358
0.474683 0.474683 0.474683
0.482007 0.482007 0.482007
0.489332 0.489332 0.489332
0.280408 0.280408 0.280408
0.287152 0.287152 0.287152
0.294231 0.294231 0.294231
0.301556 0.301556 0.301556
0.308880 0.308880 0.308880
0.316205 0.316205 0.316205
0.323530 0.323530 0.323530
0.330855 0.330855 0.330855
0.338179 0.338179 0.338179
0.345504 0.345504 0.345504
0.352829 0.352829 0.352829
0.360153 0.360153 0.360153
0.367478 0.367478 0.367478
0.374803 0.374803 0.374803
0.382128 0.382128 0.382128
0.389452 0.389452 0.389452
0.396777 0.396777 0.396777
0.404102 0.404102 0.404102
0.411427 0.411427 0.411427
0.418751 0.418751 0.418751
0.426076 0.426076 0.426076
0.433401 0.433401 0.433401
0.440726 0.440726 0.440726
0.448050 0.448050 0.448050
0.455375 0.455375 0.455375
0.462700 0.462700 0.462700
0.470024 0.470024 0.470024
0.477349 0.477349 0.477349
0.484674 0.484674 0.484674
0.491999 0.491999 0.491999
0.499323 0.499323 0.499323
0.506648 0.506648 0.506648
0.513973 0.513973 0.513973
0.304222 0.304222 0.304222
0.311547 0.311547 0.311547
0.318872 0.318872 0.318872
0.326196 0.326196 0.326196
0.333521 0.333521 0.333521
0.340846 0.340846 0.340846
0.348171 0.348171 0.348171
0.355495 0.355495 0.355495
0.362820 0.362820 0.362820
0.370145 0.370145 0.370145
0.377470 0.377470 0.377470
0.384794 0.384794 0.384794
0.392119 0.392119 0.392119
0.399444 0.399444 0.399444
0.406769 0.406769 0.406769
0.414093 0.414093 0.414093
0.421418 0.421418 0.421418
0.428743 0.428743 0.428743
0.436067 0.436067 0.436067
0.443392 0.443392 0.443392
0.450717 0.450717 0.450717
0.458042 0.458042 0.458042
0.465366 0.465366 0.465366
0.472691 0.472691 0.472691
0.480016 0.480016 0.480016
0.487341 0.487341 0.487341
0.494665 0.494665 0.494665
0.501990 0.501990 0.501990
0.509315 0.509315 0.509315
0.516640 0.516640 0.516640
0.523964 0.523964 0.523964
0.531289 0.531289 0.531289
0.538614 0.538614 0.538614
0.328863 0.328863 0.328863
0.336188 0.336188 0.336188
0.343513 0.343513 0.343513
0.350837 0.350837 0.350837
0.358162 0.358162 0.358162
0.365487 0.365487 0.365487
0.372812 0.372812 0.372812
0.380136 0.380136 0.380136
0.387461 0.387461 0.387461
0.394786 0.394786 0.394786
0.402110 0.402110 0.402110
0.409435 0.409435 0.409435
0.416760 0.416760 0.416760
0.424085 0.424085 0.424085
0.431409 0.431409 0.431409
0.438734 0.438734 0.438734
0.446059 0.446059 0.446059
0.453384 0.453384 0.453384
0.460708 0.460708 0.460708
0.468033 0.468033 0.468033
0.475358 0.475358 0.475358
0.482683 0.482683 0.482683
0.490007 0.490007 0.490007
0.497332 0.497332 0.497332
0.504657 0.504657 0.504657
0.511981 0.511981 0.511981
0.519306 0.519306 0.519306
0.526631 0.526631 0.526631
0.533956 0.533956 0.533956
0.541280 0.541280 0.541280
0.548605 0.548605 0.548605
0.555930 0.555930 0.555930
0.563255 0.563255 0.563255
0.353504 0.353504 0.353504
0.360829 0.360829 0.360829
0.368153 0.368153 0.368153
0.375478 0.375478 0.375478
0.382803 0.382803 0.382803
0.390128 0.390128 0.390128
0.397452 0.397452 0.397452
0.404777 0.404777 0.404777
0.412102 0.412102 0.412102
0.419427 0.419427 0.419427
0.426751 0.426751 0.426751
0.434076 0.434076 0.434076
0.441401 0.441401 0.441401
0.448726 0.448726 0.448726
0.456050 0.456050 0.456050
0.463375 0.463375 0.463375
0.470700 0.470700 0.470700
0.478024 0.478024 0.478024
0.485349 0.485349 0.485349
0.492674 0.492674 0.492674
0.499999 0.499999 0.499999
0.507323 0.507323 0.507323
0.514648 0.514648 0.514648
0.521973 0.521973 0.521973
0.529298 0.529298 0.529298
0.536622 0.536622 0.536622
0.543947 0.543947 0.543947
0.551272 0.551272 0.551272
0.558597 0.558597 0.558597
0.565921 0.565921 0.565921
0.573246 0.573246 0.573246
0.580571 0.580571 0.580571
0.587895 0.587895 0.587895
0.378145 0.378145 0.378145
0.385470 0.385470 0.385470
0.392794 0.392794 0.392794
0.400119 0.400119 0.400119
0.407444 0.407444 0.407444
0.414769 0.414769 0.414769
0.422093 0.422093 0.422093
0.429418 0.429418 0.429418
0.436743 0.436743 0.436743
0.444067 0.444067 0.444067
0.451392 0.451392 0.451392
0.458717 0.458717 0.458717
0.466042 0.466042 0.466042
0.473366 0.473366 0.473366
0.480691 0.480691 0.480691
0.488016 0.488016 0.488016
0.495341 0.495341 0.495341
0.502665 0.502665 0.502665
0.509990 0.509990 0.509990
0.517315 0.517315 0.517315
0.524640 0.524640 0.524640
0.531964 0.531964 0.531964
0.539289 0.539289 0.539289
0.546614 0.546614 0.546614
0.553938 0.553938 0.553938
0.561263 0.561263 0.561263
0.568588 0.568588 0.568588
0.575913 0.575913 0.575913
0.583237 0.583237 0.583237
0.590562 0.590562 0.590562
0.597887 0.597887 0.597887
0.605212 0.605212 0.605212
0.612536 0.612536 0.612536
0.402786 0.402786 0.402786
0.410110 0.410110 0.410110
0.417435 0.417435 0.417435
0.424760 0.424760 0.424760
0.432085 0.432085 0.432085
0.439409 0.439409 0.439409
0.446734 0.446734 0.446734
0.454059 0.454059 0.454059
0.461384 0.461384 0.461384
0.468708 0.468708 0.468708
0.476033 0.476033 0.476033
0.483358 0.483358 0.483358
0.490683 0.490683 0.490683
0.498007 0.498007 0.498007
0.505332 0.505332 0.505332
0.512657 0.512657 0.512657
0.519981 0.519981 0.519981
0.527306 0.527306 0.527306
0.534631 0.534631 0.534631
0.541956 0.541956 0.541956
0.549280 0.549280 0.549280
0.556605 0.556605 0.556605
0.563930 0.563930 0.563930
0.571255 0.571255 0.571255
0.578579 0.578579 0.578579
0.585904 0.585904 0.585904
0.593229 0.593229 0.593229
0.600554 0.600554 0.600554
0.607878 0.607878 0.607878
0.615203 0.615203 0.615203
0.622528 0.622528 0.622528
0.629852 0.629852 0.629852
0.637177 0.637177 0.637177
0.427427 0.427427 0.427427
0.434751 0.434751 0.434751
0.442076 0.442076 0.442076
0.449401 0.449401 0.449401
0.456726 0.456726 0.456726
0.464050 0.464050 0.464050
0.471375 0.471375 0.471375
0.478700 0.478700 0.478700
0.486025 0.486025 0.486025
0.493349 0.493349 0.493349
0.500674 0.500674 0.500674
0.507999 0.507999 0.507999
0.515323 0.515323 0.515323
0.522648 0.522648 0.522648
0.529973 0.529973 0.529973
0.537298 0.537298 0.537298
0.544622 0.544622 0.544622
0.551947 0.551947 0.551947
0.559272 0.559272 0.559272
0.566597 0.566597 0.566597
0.573921 0.573921 0.573921
0.581246 0.581246 0.581246
0.588571 0.588571 0.588571
0.595896 0.595896 0.595896
0.603220 0.603220 0.603220
0.610545 0.610545 0.610545
0.617870 0.617870 0.617870
0.625194 0.625194 0.625194
0.632519 0.632519 0.632519
0.639844 0.639844 0.639844
0.647169 0.647169 0.647169
0.654493 0.654493 0.654493
0.661818 0.661818 0.661818
0.452067 0.452067 0.452067
0.459392 0.459392 0.459392
0.466717 0.466717 0.466717
0.474042 0.474042 0.474042
0.481366 0.481366 0.481366
0.488691 0.488691 0.488691
0.496016 0.496016 0.496016
0.503341 0.503341 0.503341
0.510665 0.510665 0.510665
0.517990 0.517990 0.517990
0.525315 0.525315 0.525315
0.532640 0.532640 0.532640
0.539964 0.539964 0.539964
0.547289 0.547289 0.547289
0.554614 0.554614 0.554614
0.561939 0.561939 0.561939
0.569263 0.569263 0.569263
0.576588 0.576588 0.576588
0.583913 0.583913 0.583913
0.591237 0.591237 0.591237
0.598562 0.598562 0.598562
0.605887 0.605887 0.605887
0.613212 0.613212 0.613212
0.620536 0.620536 0.620536
0.627861 0.627861 0.627861
0.635186 0.635186 0.635186
0.642511 0.642511 0.642511
0.649835 0.649835 0.649835
0.657160 0.657160 0.657160
0.664485 0.664485 0.664485
0.671810 0.671810 0.671810
0.679134 0.679134 0.679134
0.686459 0.686459 0.686459
0.476708 0.476708 0.476708
0.484033 0.484033 0.484033
0.491358 0.491358 0.491358
0.498683 0.498683 0.498683
0.506007 0.506007 0.506007
0.513332 0.513332 0.513332
0.520657 0.520657 0.520657
0.527982 0.527982 0.527982
0.535306 0.535306 0.535306
0.542631 0.542631 0.542631
0.549956 0.549956 0.549956
0.557280 0.557280 0.557280
0.564605 0.564605 0.564605
0.571930 0.571930 0.571930
0.579255 0.579255 0.579255
0.586579 0.586579 0.586579
0.593904 0.593904 0.593904
0.601229 0.601229 0.601229
0.608554 0.608554 0.608554
0.615878 0.615878 0.615878
0.623203 0.623203 0.623203
0.630528 0.630528 0.630528
0.637853 0.637853 0.637853
0.645177 0.645177 0.645177
0.652502 0.652502 0.652502
0.659827 0.659827 0.659827
0.667151 0.667151 0.667151
0.674476 0.674476 0.674476
0.681801 0.681801 0.681801
0.689126 0.689126 0.689126
0.696450 0.696450 0.696450
0.703775 0.703775 0.703775
0.711100 0.711100 0.711100
0.501349 0.501349 0.501349
0.508674 0.508674 0.508674
0.515999 0.515999 0.515999
0.523323 0.523323 0.523323
0.530648 0.530648 0.530648
0.537973 0.537973 0.537973
0.545298 0.545298 0.545298
0.552622 0.552622 0.552622
0.559947 0.559947 0.559947
0.567272 0.567272 0.567272
0.574597 0.574597 0.574597
0.581921 0.581921 0.581921
0.589246 0.589246 0.589246
0.596571 0.596571 0.596571
0.603896 0.603896 0.603896
0.611220 0.611220 0.611220
0.618545 0.618545 0.618545
0.625870 0.625870 0.625870
0.633194 0.633194 0.633194
0.640519 0.640519 0.640519
0.647844 0.647844 0.647844
0.655169 0.655169 0.655169
0.662493 0.662493 0.662493
0.669818 0.669818 0.669818
0.677143 0.677143 0.677143
0.684468 0.684468 0.684468
0.691792 0.691792 0.691792
0.699117 0.699117 0.699117
0.706442 0.706442 0.706442
0.713767 0.713767 0.713767
0.721091 0.721091 0.721091
0.728416 0.728416 0.728416
0.735063 0.735063 0.735063
0.525990 0.525990 0.525990
0.533315 0.533315 0.533315
0.540640 0.540640 0.540640
0.547964 0.547964 0.547964
0.555289 0.555289 0.555289
0.562614 0.562614 0.562614
0.569939 0.569939 0.569939
0.577263 0.577263 0.577263
0.584588 0.584588 0.584588
0.591913 0.591913 0.591913
0.599237 0.599237 0.599237
0.606562 0.606562 0.606562
0.613887 0.613887 0.613887
0.621212 0.621212 0.621212
0.628536 0.628536 0.628536
0.635861 0.635861 0.635861
0.643186 0.643186 0.643186
0.650511 0.650511 0.650511
0.657835 0.657835 0.657835
0.665160 0.665160 0.665160
0.672485 0.672485 0.672485
0.679810 0.679810 0.679810
0.687134 0.687134 0.687134
0.694459 0.694459 0.694459
0.701784 0.701784 0.701784
0.709108 0.709108 0.709108
0.716433 0.716433 0.716433
0.723758 0.723758 0.723758
0.731071 0.731071 0.731071
0.737349 0.737349 0.737349
0.743628 0.743628 0.743628
0.749906 0.749906 0.749906
0.756184 0.756184 0.756184
0.550631 0.550631 0.550631
0.557956 0.557956 0.557956
0.565280 0.565280 0.565280
0.572605 0.572605 0.572605
0.579930 0.579930 0.579930
0.587255 0.587255 0.587255
0.594579 0.594579 0.594579
0.601904 0.601904 0.601904
0.609229 0.609229 0.609229
0.616554 0.616554 0.616554
0.623878 0.623878 0.623878
0.631203 0.631203 0.631203
0.638528 0.638528 0.638528
0.645853 0.645853 0.645853
0.653177 0.653177 0.653177
0.660502 0.660502 0.660502
0.667827 0.667827 0.667827
0.675152 0.675152 0.675152
0.682476 0.682476 0.682476
0.689801 0.689801 0.689801
0.697126 0.697126 0.697126
0.704450 0.704450 0.704450
0.711775 0.711775 0.711775
0.719100 0.719100 0.719100
0.726425 0.726425 0.726425
0.733357 0.733357 0.733357
0.739635 0.739635 0.739635
0.745913 0.745913 0.745913
0.752192 0.752192 0.752192
0.758470 0.758470 0.758470
0.764748 0.764748 0.764748
0.771027 0.771027 0.771027
0.777305 0.777305 0.777305
0.575272 0.575272 0.575272
0.582597 0.582597 0.582597
0.589921 0.589921 0.589921
0.597246 0.597246 0.597246
0.604571 0.604571 0.604571
0.611896 0.611896 0.611896
0.619220 0.619220 0.619220
0.626545 0.626545 0.626545
0.633870 0.633870 0.633870
0.641195 0.641195 0.641195
0.648519 0.648519 0.648519
0.655844 0.655844 0.655844
0.663169 0.663169 0.663169
0.670493 0.670493 0.670493
0.677818 0.677818 0.677818
0.685143 0.685143 0.685143
0.692468 0.692468 0.692468
0.699792 0.699792 0.699792
0.707117 0.707117 0.707117
0.714442 0.714442 0.714442
0.721767 0.721767 0.721767
0.729091 0.729091 0.729091
0.735642 0.735642 0.735642
0.741921 0.741921 0.741921
0.748199 0.748199 0.748199
0.754477 0.754477 0.754477
0.760756 0.760756 0.760756
0.767034 0.767034 0.767034
0.773312 0.773312 0.773312
0.779591 0.779591 0.779591
0.785869 0.785869 0.785869
0.792147 0.792147 0.792147
0.798426 0.798426 0.798426
0.599913 0.599913 0.599913
0.607237 0.607237 0.607237
0.614562 0.614562 0.614562
0.621887 0.621887 0.621887
0.629212 0.629212 0.629212
0.636536 0.636536 0.636536
0.643861 0.643861 0.643861
0.651186 0.651186 0.651186
0.658511 0.658511 0.658511
0.665835 0.665835 0.665835
0.673160 0.673160 0.673160
0.680485 0.680485 0.680485
0.687810 0.687810 0.687810
0.695134 0.695134 0.695134
0.702459 0.702459 0.702459
0.709784 0.709784 0.709784
0.717108 0.717108 0.717108
0.724433 0.724433 0.724433
0.731650 0.731650 0.731650
0.737928 0.737928 0.737928
0.744206 0.744206 0.744206
0.750485 0.750485 0.750485
0.756763 0.756763 0.756763
0.763041 0.763041 0.763041
0.769320 0.769320 0.769320
0.775598 0.775598 0.775598
0.781876 0.781876 0.781876
0.788155 0.788155 0.788155
0.794433 0.794433 0.794433
