luts/muted_cinema_500.cube
TITLE "Fuji Eterna 500"
LUT_3D_SIZE 33
0.110379 0.104395 0.098411
0.128893 0.106079 0.100095
0.147407 0.107763 0.101779
0.165921 0.109447 0.103463
0.184435 0.111131 0.105147
0.202948 0.112814 0.106830
0.221462 0.114498 0.108514
0.239976 0.116182 0.110198
0.258490 0.117866 0.111882
0.277003 0.119549 0.113565
0.295312 0.121215 0.115231
0.313311 0.122852 0.116868
0.331311 0.124489 0.118505
0.349310 0.126126 0.120142
0.367310 0.127763 0.121779
0.385309 0.129400 0.123416
0.403309 0.131037 0.125053
0.421308 0.132674 0.126690
0.439308 0.134311 0.128327
0.457307 0.135948 0.129964
0.475307 0.137585 0.131601
0.493306 0.139222 0.133238
0.511306 0.140859 0.134875
0.527557 0.142337 0.136353
0.542642 0.143709 0.137725
0.557727 0.145081 0.139097
0.572813 0.146453 0.140469
0.587898 0.147825 0.141841
0.602983 0.149197 0.143213
0.618069 0.150569 0.144585
0.633154 0.151941 0.145957
0.648239 0.153313 0.147329
0.663325 0.154685 0.148701
0.116044 0.126890 0.104076
0.134558 0.128574 0.105760
0.153071 0.130257 0.107443
0.171585 0.131941 0.109127
0.190099 0.133625 0.110811
0.208613 0.135309 0.112495
0.227127 0.136993 0.114179
0.245640 0.138676 0.115862
0.264154 0.140360 0.117546
0.282668 0.142044 0.119230
0.300976 0.143709 0.120895
0.318975 0.145346 0.122532
0.336975 0.146983 0.124169
0.354975 0.148620 0.125806
0.372974 0.150257 0.127443
0.390974 0.151894 0.129080
0.408973 0.153531 0.130717
0.426973 0.155168 0.132354
0.444972 0.156805 0.133991
0.462972 0.158442 0.135628
0.480971 0.160079 0.137265
0.498971 0.161716 0.138902
0.516970 0.163353 0.140539
0.533221 0.164831 0.142017
0.548307 0.166203 0.143389
0.563392 0.167575 0.144761
0.578477 0.168947 0.146133
0.593562 0.170319 0.147505
0.608648 0.171691 0.148877
0.623733 0.173063 0.150249
0.638818 0.174435 0.151621
0.653904 0.175807 0.152993
0.668989 0.177179 0.154365
0.121708 0.149384 0.109740
0.140222 0.151068 0.111424
0.158736 0.152752 0.113108
0.177250 0.154436 0.114792
0.195763 0.156119 0.116475
0.214277 0.157803 0.118159
0.232791 0.159487 0.119843
0.251305 0.161171 0.121527
0.269818 0.162854 0.123210
0.288332 0.164538 0.124894
0.306640 0.166203 0.126559
0.324640 0.167840 0.128196
0.342639 0.169477 0.129833
0.360639 0.171114 0.131470
0.378638 0.172751 0.133107
0.396638 0.174388 0.134744
0.414637 0.176025 0.136381
0.432637 0.177662 0.138018
0.450637 0.179300 0.139656
0.468636 0.180937 0.141293
0.486636 0.182574 0.142930
0.504635 0.184211 0.144567
0.522635 0.185848 0.146204
0.538886 0.187326 0.147682
0.553971 0.188698 0.149054
0.569056 0.190070 0.150426
0.584142 0.191442 0.151798
0.599227 0.192813 0.153169
0.614312 0.194185 0.154541
0.629397 0.195557 0.155913
0.644483 0.196929 0.157285
0.659568 0.198301 0.158657
0.674653 0.199673 0.160029
0.127373 0.171879 0.115405
0.145886 0.173562 0.117088
0.164400 0.175246 0.118772
0.182914 0.176930 0.120456
0.201428 0.178614 0.122140
0.219941 0.180297 0.123823
0.238455 0.181981 0.125507
0.256969 0.183665 0.127191
0.275483 0.185349 0.128875
0.293997 0.187033 0.130559
0.312305 0.188698 0.132224
0.330304 0.190335 0.133861
0.348304 0.191972 0.135498
0.366303 0.193609 0.137135
0.384303 0.195246 0.138772
0.402302 0.196883 0.140409
0.420302 0.198520 0.142046
0.438301 0.200157 0.143683
0.456301 0.201794 0.145320
0.474300 0.203431 0.146957
0.492300 0.205068 0.148594
0.510299 0.206705 0.150231
0.528299 0.208342 0.151868
0.544550 0.209820 0.153346
0.559635 0.211192 0.154718
0.574721 0.212564 0.156090
0.589806 0.213936 0.157462
0.604891 0.215308 0.158834
0.619977 0.216680 0.160206
0.635062 0.218052 0.161578
0.650147 0.219424 0.162950
0.665232 0.220796 0.164322
0.680318 0.222168 0.165694
0.133037 0.194373 0.121069
0.151551 0.196057 0.122753
0.170064 0.197740 0.124436
0.188578 0.199424 0.126120
0.207092 0.201108 0.127804
0.225606 0.202792 0.129488
0.244120 0.204476 0.131172
0.262633 0.206159 0.132855
0.281147 0.207843 0.134539
0.299661 0.209527 0.136223
0.317969 0.211192 0.137888
0.335969 0.212829 0.139525
0.353968 0.214466 0.141162
0.371968 0.216103 0.142799
0.389967 0.217740 0.144436
0.407967 0.219377 0.146073
0.425966 0.221014 0.147710
0.443966 0.222651 0.149347
0.461965 0.224288 0.150984
0.479965 0.225925 0.152621
0.497964 0.227562 0.154258
0.515964 0.229199 0.155895
0.533963 0.230836 0.157532
0.550214 0.232314 0.159010
0.565300 0.233686 0.160382
0.580385 0.235058 0.161754
0.595470 0.236430 0.163126
0.610556 0.237802 0.164498
0.625641 0.239174 0.165870
0.640726 0.240546 0.167242
0.655812 0.241918 0.168614
0.670897 0.243290 0.169986
0.685982 0.244662 0.171358
0.138701 0.216867 0.126733
0.157215 0.218551 0.128417
0.175729 0.220235 0.130101
0.194243 0.221919 0.131785
0.212756 0.223602 0.133468
0.231270 0.225286 0.135152
0.249784 0.226970 0.136836
0.268298 0.228654 0.138520
0.286812 0.230338 0.140204
0.305325 0.232021 0.141887
0.323633 0.233686 0.143552
0.341633 0.235324 0.145190
0.359633 0.236961 0.146827
0.377632 0.238598 0.148464
0.395632 0.240235 0.150101
0.413631 0.241872 0.151738
0.431631 0.243509 0.153375
0.449630 0.245146 0.155012
0.467630 0.246783 0.156649
0.485629 0.248420 0.158286
0.503629 0.250057 0.159923
0.521628 0.251694 0.161560
0.539628 0.253331 0.163197
0.555879 0.254809 0.164675
0.570964 0.256181 0.166047
0.586049 0.257553 0.167419
0.601135 0.258925 0.168791
0.616220 0.260297 0.170163
0.631305 0.261669 0.171535
0.646391 0.263041 0.172907
0.661476 0.264413 0.174279
0.676561 0.265785 0.175651
0.691647 0.267157 0.177023
0.144366 0.239362 0.132398
0.162879 0.241045 0.134081
0.181393 0.242729 0.135765
0.199907 0.244413 0.137449
0.218421 0.246097 0.139133
0.236935 0.247781 0.140817
0.255448 0.249464 0.142500
0.273962 0.251148 0.144184
0.292476 0.252832 0.145868
0.310990 0.254516 0.147552
0.329298 0.256181 0.149217
0.347297 0.257818 0.150854
0.365297 0.259455 0.152491
0.383296 0.261092 0.154128
0.401296 0.262729 0.155765
0.419295 0.264366 0.157402
0.437295 0.266003 0.159039
0.455295 0.267640 0.160676
0.473294 0.269277 0.162313
0.491294 0.270914 0.163950
0.509293 0.272551 0.165587
0.527293 0.274188 0.167224
0.545292 0.275825 0.168861
0.561543 0.277303 0.170339
0.576628 0.278675 0.171711
0.591714 0.280047 0.173083
0.606799 0.281419 0.174455
0.621884 0.282791 0.175827
0.636970 0.284163 0.177199
0.652055 0.285535 0.178571
0.667140 0.286907 0.179943
0.682226 0.288279 0.181315
0.697311 0.289651 0.182687
0.150030 0.261856 0.138062
0.168544 0.263540 0.139746
0.187058 0.265224 0.141430
0.205571 0.266907 0.143113
0.224085 0.268591 0.144797
0.242599 0.270275 0.146481
0.261113 0.271959 0.148165
0.279627 0.273643 0.149849
0.298140 0.275326 0.151532
0.316654 0.277010 0.153216
0.334962 0.278675 0.154881
0.352962 0.280312 0.156518
0.370961 0.281949 0.158155
0.388961 0.283586 0.159792
0.406960 0.285223 0.161429
0.424960 0.286860 0.163066
0.442959 0.288497 0.164703
0.460959 0.290134 0.166340
0.478958 0.291771 0.167977
0.496958 0.293408 0.169614
0.514957 0.295045 0.171251
0.532957 0.296682 0.172888
0.550957 0.298320 0.174526
0.567208 0.299798 0.176004
0.582293 0.301169 0.177375
0.597378 0.302541 0.178747
0.612463 0.303913 0.180119
0.627549 0.305285 0.181491
0.642634 0.306657 0.182863
0.657719 0.308029 0.184235
0.672805 0.309401 0.185607
0.687890 0.310773 0.186979
0.702975 0.312145 0.188351
0.155694 0.284350 0.143726
0.174208 0.286034 0.145410
0.192722 0.287718 0.147094
0.211236 0.289402 0.148778
0.229750 0.291086 0.150462
0.248263 0.292769 0.152145
0.266777 0.294453 0.153829
0.285291 0.296137 0.155513
0.303805 0.297821 0.157197
0.322319 0.299505 0.158881
0.340627 0.301170 0.160546
0.358626 0.302807 0.162183
0.376626 0.304444 0.163820
0.394625 0.306081 0.165457
0.412625 0.307718 0.167094
0.430624 0.309355 0.168731
0.448624 0.310992 0.170368
0.466623 0.312629 0.172005
0.484623 0.314266 0.173642
0.502622 0.315903 0.175279
0.520622 0.317540 0.176916
0.538621 0.319177 0.178553
0.556621 0.320814 0.180190
0.572872 0.322292 0.181668
0.587957 0.323664 0.183040
0.603043 0.325036 0.184412
0.618128 0.326408 0.185784
0.633213 0.327780 0.187156
0.648298 0.329152 0.188528
0.663384 0.330524 0.189900
0.678469 0.331896 0.191272
0.693554 0.333268 0.192644
0.708640 0.334640 0.194016
0.161359 0.306845 0.149391
0.179873 0.308529 0.151075
0.198386 0.310212 0.152758
0.216900 0.311896 0.154442
0.235414 0.313580 0.156126
0.253928 0.315264 0.157810
0.272442 0.316948 0.159494
0.290955 0.318631 0.161177
0.309469 0.320315 0.162861
0.327983 0.321999 0.164545
0.346291 0.323664 0.166210
0.364291 0.325301 0.167847
0.382290 0.326938 0.169484
0.400290 0.328575 0.171121
0.418289 0.330212 0.172758
0.436289 0.331849 0.174395
0.454288 0.333486 0.176032
0.472288 0.335123 0.177669
0.490287 0.336760 0.179306
0.508287 0.338397 0.180943
0.526286 0.340034 0.182580
0.544286 0.341671 0.184217
0.562285 0.343308 0.185854
0.578536 0.344786 0.187332
0.593622 0.346158 0.188704
0.608707 0.347530 0.190076
0.623792 0.348902 0.191448
0.638878 0.350274 0.192820
0.653963 0.351646 0.194192
0.669048 0.353018 0.195564
0.684133 0.354390 0.196936
0.699219 0.355762 0.198308
0.714304 0.357134 0.199680
0.166960 0.329089 0.154992
0.185474 0.330773 0.156676
0.203988 0.332457 0.158360
0.222502 0.334141 0.160044
0.241015 0.335824 0.161727
0.259529 0.337508 0.163411
0.278043 0.339192 0.165095
0.296557 0.340876 0.166779
0.315071 0.342560 0.168463
0.333584 0.344243 0.170146
0.351892 0.345908 0.171811
0.369892 0.347545 0.173448
0.387892 0.349183 0.175086
0.405891 0.350820 0.176723
0.423891 0.352457 0.178360
0.441890 0.354094 0.179997
0.459890 0.355731 0.181634
0.477889 0.357368 0.183271
0.495889 0.359005 0.184908
0.513888 0.360642 0.186545
0.531888 0.362279 0.188182
0.549887 0.363916 0.189819
0.567887 0.365553 0.191456
0.584138 0.367031 0.192934
0.599223 0.368403 0.194306
0.614308 0.369775 0.195678
0.629394 0.371147 0.197050
0.644479 0.372519 0.198422
0.659564 0.373891 0.199794
0.674650 0.375263 0.201166
0.689735 0.376635 0.202538
0.704820 0.378007 0.203910
0.719906 0.379379 0.205282
0.172467 0.350959 0.160499
0.190981 0.352643 0.162183
0.209495 0.354326 0.163867
0.228009 0.356010 0.165551
0.246522 0.357694 0.167234
0.265036 0.359378 0.168918
0.283550 0.361062 0.170602
0.302064 0.362745 0.172286
0.320578 0.364429 0.173970
0.339091 0.366113 0.175653
0.357400 0.367778 0.177319
0.375399 0.369415 0.178956
0.393399 0.371052 0.180593
0.411398 0.372689 0.182230
0.429398 0.374326 0.183867
0.447397 0.375963 0.185504
0.465397 0.377600 0.187141
0.483396 0.379237 0.188778
0.501396 0.380874 0.190415
0.519395 0.382511 0.192052
0.537395 0.384148 0.193689
0.555394 0.385785 0.195326
0.573394 0.387422 0.196963
0.589645 0.388900 0.198441
0.604730 0.390272 0.199813
0.619815 0.391644 0.201185
0.634901 0.393016 0.202557
0.649986 0.394388 0.203929
0.665071 0.395760 0.205301
0.680157 0.397132 0.206673
0.695242 0.398504 0.208045
0.710327 0.399876 0.209417
0.725413 0.401248 0.210789
0.177974 0.372828 0.166006
0.196488 0.374512 0.167690
0.215002 0.376196 0.169374
0.233516 0.377880 0.171058
0.252030 0.379564 0.172742
0.270543 0.381247 0.174425
0.289057 0.382931 0.176109
0.307571 0.384615 0.177793
0.326085 0.386299 0.179477
0.344598 0.387982 0.181160
0.362907 0.389648 0.182826
0.380906 0.391285 0.184463
0.398906 0.392922 0.186100
0.416905 0.394559 0.187737
0.434905 0.396196 0.189374
0.452904 0.397833 0.191011
0.470904 0.399470 0.192648
0.488903 0.401107 0.194285
0.506903 0.402744 0.195922
0.524902 0.404381 0.197559
0.542902 0.406018 0.199196
0.560901 0.407655 0.200833
0.578901 0.409292 0.202470
0.595152 0.410770 0.203948
0.610237 0.412142 0.205320
0.625322 0.413514 0.206692
0.640408 0.414886 0.208064
0.655493 0.416258 0.209436
0.670578 0.417630 0.210808
0.685664 0.419002 0.212180
0.700749 0.420374 0.213552
0.715834 0.421746 0.214924
0.730920 0.423118 0.216296
0.183481 0.394698 0.171513
0.201995 0.396382 0.173197
0.220509 0.398065 0.174881
0.239023 0.399749 0.176565
0.257537 0.401433 0.178249
0.276050 0.403117 0.179932
0.294564 0.404801 0.181616
0.313078 0.406484 0.183300
0.331592 0.408168 0.184984
0.350106 0.409852 0.186668
0.368414 0.411517 0.188333
0.386413 0.413154 0.189970
0.404413 0.414791 0.191607
0.422412 0.416428 0.193244
0.440412 0.418065 0.194881
0.458411 0.419702 0.196518
0.476411 0.421339 0.198155
0.494410 0.422976 0.199792
0.512410 0.424613 0.201429
0.530409 0.426250 0.203066
0.548409 0.427887 0.204703
0.566408 0.429524 0.206340
0.584408 0.431161 0.207977
0.600659 0.432639 0.209455
0.615744 0.434011 0.210827
0.630829 0.435383 0.212199
0.645915 0.436755 0.213571
0.661000 0.438127 0.214943
0.676085 0.439499 0.216315
0.691171 0.440871 0.217687
0.706256 0.442243 0.219059
0.721341 0.443615 0.220431
0.736427 0.444987 0.221803
0.188988 0.416567 0.177020
0.207502 0.418251 0.178704
0.226016 0.419935 0.180388
0.244530 0.421619 0.182072
0.263044 0.423303 0.183756
0.281557 0.424986 0.185439
0.300071 0.426670 0.187123
0.318585 0.428354 0.188807
0.337099 0.430038 0.190491
0.355613 0.431722 0.192175
0.373921 0.433387 0.193840
0.391920 0.435024 0.195477
0.409920 0.436661 0.197114
0.427919 0.438298 0.198751
0.445919 0.439935 0.200388
0.463918 0.441572 0.202025
0.481918 0.443209 0.203662
0.499917 0.444846 0.205299
0.517917 0.446483 0.206936
0.535916 0.448120 0.208573
0.553916 0.449757 0.210210
0.571915 0.451394 0.211847
0.589915 0.453031 0.213484
0.606166 0.454509 0.214962
0.621251 0.455881 0.216334
0.636336 0.457253 0.217706
0.651422 0.458625 0.219078
0.666507 0.459997 0.220450
0.681592 0.461369 0.221822
0.696678 0.462741 0.223194
0.711763 0.464113 0.224566
0.726848 0.465485 0.225938
0.741934 0.466857 0.227310
0.194495 0.438437 0.182527
0.213009 0.440121 0.184211
0.231523 0.441805 0.185895
0.250037 0.443488 0.187579
0.268551 0.445172 0.189263
0.287064 0.446856 0.190946
0.305578 0.448540 0.192630
0.324092 0.450224 0.194314
0.342606 0.451907 0.195998
0.361120 0.453591 0.197682
0.379428 0.455256 0.199347
0.397427 0.456893 0.200984
0.415427 0.458530 0.202621
0.433426 0.460167 0.204258
0.451426 0.461804 0.205895
0.469425 0.463441 0.207532
0.487425 0.465078 0.209169
0.505424 0.466715 0.210806
0.523424 0.468352 0.212443
0.541423 0.469989 0.214080
0.559423 0.471626 0.215717
0.577422 0.473263 0.217354
0.595422 0.474900 0.218991
0.611673 0.476378 0.220469
0.626758 0.477750 0.221841
0.641844 0.479122 0.223213
0.656929 0.480494 0.224585
0.672014 0.481866 0.225957
0.687099 0.483238 0.227329
0.702185 0.484610 0.228701
0.717270 0.485982 0.230073
0.732355 0.487354 0.231445
0.747441 0.488726 0.232817
0.200003 0.460307 0.188035
0.218516 0.461990 0.189718
0.237030 0.463674 0.191402
0.255544 0.465358 0.193086
0.274058 0.467042 0.194770
0.292571 0.468725 0.196453
0.311085 0.470409 0.198137
0.329599 0.472093 0.199821
0.348113 0.473777 0.201505
0.366627 0.475461 0.203189
0.384935 0.477126 0.204854
0.402934 0.478763 0.206491
0.420934 0.480400 0.208128
0.438933 0.482037 0.209765
0.456933 0.483674 0.211402
0.474932 0.485311 0.213039
0.492932 0.486948 0.214676
0.510931 0.488585 0.216313
0.528931 0.490222 0.217950
0.546930 0.491859 0.219587
0.564930 0.493496 0.221224
0.582929 0.495133 0.222861
0.600929 0.496770 0.224498
0.617180 0.498248 0.225976
0.632265 0.499620 0.227348
0.647351 0.500992 0.228720
0.662436 0.502364 0.230092
0.677521 0.503736 0.231464
0.692607 0.505108 0.232836
0.707692 0.506480 0.234208
0.722777 0.507852 0.235580
0.737862 0.509224 0.236952
0.752948 0.510596 0.238324
0.205510 0.482176 0.193542
0.224023 0.483860 0.195225
0.242537 0.485544 0.196909
0.261051 0.487227 0.198593
0.279565 0.488911 0.200277
0.298079 0.490595 0.201961
0.316592 0.492279 0.203644
0.335106 0.493963 0.205328
0.353620 0.495646 0.207012
0.372134 0.497330 0.208696
0.390442 0.498995 0.210361
0.408441 0.500632 0.211998
0.426441 0.502269 0.213635
0.444440 0.503906 0.215272
0.462440 0.505543 0.216909
0.480439 0.507180 0.218546
0.498439 0.508817 0.220183
0.516438 0.510454 0.221820
0.534438 0.512091 0.223457
0.552437 0.513728 0.225094
0.570437 0.515365 0.226731
0.588436 0.517002 0.228368
0.606436 0.518640 0.230005
0.622687 0.520117 0.231483
0.637772 0.521489 0.232855
0.652858 0.522861 0.234227
0.667943 0.524233 0.235599
0.683028 0.525605 0.236971
0.698114 0.526977 0.238343
0.713199 0.528349 0.239715
0.728284 0.529721 0.241087
0.743369 0.531093 0.242459
0.758455 0.532465 0.243831
0.211017 0.504046 0.199049
0.229530 0.505729 0.200732
0.248044 0.507413 0.202416
0.266558 0.509097 0.204100
0.285072 0.510781 0.205784
0.303586 0.512465 0.207468
0.322099 0.514148 0.209151
0.340613 0.515832 0.210835
0.359127 0.517516 0.212519
0.377641 0.519200 0.214203
0.395949 0.520865 0.215868
0.413948 0.522502 0.217505
0.431948 0.524139 0.219142
0.449947 0.525776 0.220779
0.467947 0.527413 0.222416
0.485946 0.529050 0.224053
0.503946 0.530687 0.225690
0.521945 0.532324 0.227327
0.539945 0.533961 0.228964
0.557944 0.535598 0.230601
0.575944 0.537235 0.232238
0.593944 0.538872 0.233875
0.611943 0.540509 0.235512
0.628194 0.541987 0.236990
0.643279 0.543359 0.238362
0.658365 0.544731 0.239734
0.673450 0.546103 0.241106
0.688535 0.547475 0.242478
0.703621 0.548847 0.243850
0.718706 0.550219 0.245222
0.733791 0.551591 0.246594
0.748877 0.552963 0.247966
0.763962 0.554335 0.249338
0.216524 0.525915 0.204556
0.235037 0.527599 0.206239
0.253551 0.529283 0.207923
0.272065 0.530967 0.209607
0.290579 0.532650 0.211291
0.309093 0.534334 0.212975
0.327606 0.536018 0.214658
0.346120 0.537702 0.216342
0.364634 0.539385 0.218026
0.383148 0.541069 0.219710
0.401456 0.542734 0.221375
0.419455 0.544371 0.223012
0.437455 0.546008 0.224649
0.455454 0.547645 0.226286
0.473454 0.549282 0.227923
0.491453 0.550919 0.229560
0.509453 0.552556 0.231197
0.527452 0.554193 0.232834
0.545452 0.555831 0.234471
0.563452 0.557468 0.236108
0.581451 0.559105 0.237745
0.599451 0.560742 0.239382
0.617450 0.562379 0.241019
0.633701 0.563857 0.242497
0.648786 0.565229 0.243869
0.663872 0.566601 0.245241
0.678957 0.567973 0.246613
0.694042 0.569344 0.247985
0.709128 0.570716 0.249357
0.724213 0.572088 0.250729
0.739298 0.573460 0.252101
0.754384 0.574832 0.253473
0.769469 0.576204 0.254845
0.222031 0.547785 0.210063
0.240544 0.549468 0.211746
0.259058 0.551152 0.213430
0.277572 0.552836 0.215114
0.296086 0.554520 0.216798
0.314600 0.556204 0.218482
0.333113 0.557887 0.220165
0.351627 0.559571 0.221849
0.370141 0.561255 0.223533
0.388655 0.562939 0.225217
0.406963 0.564604 0.226882
0.424962 0.566241 0.228519
0.442962 0.567878 0.230156
0.460961 0.569515 0.231793
0.478961 0.571152 0.233430
0.496960 0.572789 0.235067
0.514960 0.574426 0.236704
0.532960 0.576063 0.238341
0.550959 0.577700 0.239978
0.568959 0.579337 0.241615
0.586958 0.580974 0.243252
0.604958 0.582611 0.244889
0.622957 0.584248 0.246526
0.639208 0.585726 0.248004
0.654293 0.587098 0.249376
0.669379 0.588470 0.250748
0.684464 0.589842 0.252120
0.699549 0.591214 0.253492
0.714635 0.592586 0.254864
0.729720 0.593958 0.256236
0.744805 0.595330 0.257608
0.759891 0.596702 0.258980
0.774976 0.598074 0.260352
0.227538 0.569654 0.215570
0.246052 0.571338 0.217254
0.264565 0.573022 0.218937
0.283079 0.574706 0.220621
0.301593 0.576389 0.222305
0.320107 0.578073 0.223989
0.338620 0.579757 0.225672
0.357134 0.581441 0.227356
0.375648 0.583125 0.229040
0.394162 0.584808 0.230724
0.412470 0.586473 0.232389
0.430469 0.588110 0.234026
0.448469 0.589747 0.235663
0.466468 0.591384 0.237300
0.484468 0.593022 0.238937
0.502468 0.594659 0.240574
0.520467 0.596296 0.242211
0.538467 0.597933 0.243848
0.556466 0.599570 0.245485
0.574466 0.601207 0.247122
0.592465 0.602844 0.248759
0.610465 0.604481 0.250396
0.628464 0.606118 0.252033
0.644715 0.607596 0.253511
0.659800 0.608968 0.254883
0.674886 0.610340 0.256255
0.689971 0.611712 0.257627
0.705056 0.613084 0.258999
0.720142 0.614456 0.260371
0.735227 0.615828 0.261743
0.750312 0.617200 0.263115
0.765398 0.618571 0.264487
0.780483 0.619943 0.265859
0.233045 0.591524 0.221077
0.251559 0.593208 0.222761
0.270072 0.594891 0.224444
0.288586 0.596575 0.226128
0.307100 0.598259 0.227812
0.325614 0.599943 0.229496
0.344128 0.601627 0.231180
0.362641 0.603310 0.232863
0.381155 0.604994 0.234547
0.399669 0.606678 0.236231
0.417977 0.608343 0.237896
0.435976 0.609980 0.239533
0.453976 0.611617 0.241170
0.471976 0.613254 0.242807
0.489975 0.614891 0.244444
0.507975 0.616528 0.246081
0.525974 0.618165 0.247718
0.543974 0.619802 0.249355
0.561973 0.621439 0.250992
0.579973 0.623076 0.252629
0.597972 0.624713 0.254266
0.615972 0.626350 0.255903
0.633971 0.627987 0.257540
0.650222 0.629465 0.259018
0.665308 0.630837 0.260390
0.680393 0.632209 0.261762
0.695478 0.633581 0.263134
0.710563 0.634953 0.264506
0.725649 0.636325 0.265878
0.740734 0.637697 0.267250
0.755819 0.639069 0.268622
0.770905 0.640441 0.269994
0.785990 0.641813 0.271366
0.238143 0.611769 0.226175
0.256656 0.613452 0.227858
0.275170 0.615136 0.229542
0.293684 0.616820 0.231226
0.312198 0.618504 0.232910
0.330712 0.620188 0.234594
0.349225 0.621871 0.236277
0.367739 0.623555 0.237961
0.386253 0.625239 0.239645
0.404767 0.626923 0.241329
0.423075 0.628588 0.242994
0.441074 0.630225 0.244631
0.459074 0.631862 0.246268
0.477073 0.633499 0.247905
0.495073 0.635136 0.249542
0.513073 0.636773 0.251179
0.531072 0.638410 0.252816
0.549072 0.640047 0.254453
0.567071 0.641684 0.256090
0.585071 0.643321 0.257727
0.603070 0.644958 0.259364
0.621070 0.646595 0.261001
0.639069 0.648232 0.262638
0.655320 0.649710 0.264116
0.670405 0.651082 0.265488
0.685491 0.652454 0.266860
0.700576 0.653826 0.268232
0.715661 0.655198 0.269604
0.730747 0.656570 0.270976
0.745832 0.657942 0.272348
0.760917 0.659314 0.273720
0.776003 0.660686 0.275092
0.791088 0.662058 0.276464
0.242968 0.630931 0.231000
0.261482 0.632614 0.232684
0.279995 0.634298 0.234367
0.298509 0.635982 0.236051
0.317023 0.637666 0.237735
0.335537 0.639350 0.239419
0.354051 0.641033 0.241103
0.372564 0.642717 0.242786
0.391078 0.644401 0.244470
0.409592 0.646085 0.246154
0.427900 0.647750 0.247819
0.445900 0.649387 0.249456
0.463899 0.651024 0.251093
0.481899 0.652661 0.252730
0.499898 0.654298 0.254367
0.517898 0.655935 0.256004
0.535897 0.657572 0.257641
0.553897 0.659209 0.259278
0.571896 0.660846 0.260915
0.589896 0.662483 0.262552
0.607895 0.664120 0.264189
0.625895 0.665757 0.265826
0.643894 0.667394 0.267463
0.660145 0.668872 0.268941
0.675231 0.670244 0.270313
0.690316 0.671616 0.271685
0.705401 0.672988 0.273057
0.720487 0.674360 0.274429
0.735572 0.675732 0.275801
0.750657 0.677104 0.277173
0.765743 0.678476 0.278545
0.780828 0.679848 0.279917
0.795913 0.681220 0.281289
0.247793 0.650092 0.235825
0.266307 0.651776 0.237509
0.284821 0.653460 0.239193
0.303335 0.655144 0.240877
0.321848 0.656828 0.242560
0.340362 0.658511 0.244244
0.358876 0.660195 0.245928
0.377390 0.661879 0.247612
0.395903 0.663563 0.249295
0.414417 0.665247 0.250979
0.432725 0.666912 0.252644
0.450725 0.668549 0.254281
0.468724 0.670186 0.255918
0.486724 0.671823 0.257555
0.504723 0.673460 0.259192
0.522723 0.675097 0.260829
0.540722 0.676734 0.262466
0.558722 0.678371 0.264103
0.576721 0.680008 0.265740
0.594721 0.681645 0.267378
0.612721 0.683282 0.269015
0.630720 0.684919 0.270652
0.648720 0.686556 0.272289
0.664971 0.688034 0.273767
0.680056 0.689406 0.275139
0.695141 0.690778 0.276511
0.710227 0.692150 0.277883
0.725312 0.693522 0.279254
0.740397 0.694894 0.280626
0.755482 0.696266 0.281998
0.770568 0.697638 0.283370
0.785653 0.699010 0.284742
0.800738 0.700382 0.286114
0.252618 0.669254 0.240650
0.271132 0.670938 0.242334
0.289646 0.672622 0.244018
0.308160 0.674306 0.245702
0.326674 0.675990 0.247386
0.345187 0.677673 0.249069
0.363701 0.679357 0.250753
0.382215 0.681041 0.252437
0.400729 0.682725 0.254121
0.419242 0.684408 0.255804
0.437551 0.686074 0.257470
0.455550 0.687711 0.259107
0.473550 0.689348 0.260744
0.491549 0.690985 0.262381
0.509549 0.692622 0.264018
0.527548 0.694259 0.265655
0.545548 0.695896 0.267292
0.563547 0.697533 0.268929
0.581547 0.699170 0.270566
0.599546 0.700807 0.272203
0.617546 0.702444 0.273840
0.635545 0.704081 0.275477
0.653545 0.705718 0.277114
0.669796 0.707196 0.278592
0.684881 0.708568 0.279964
0.699966 0.709940 0.281336
0.715052 0.711312 0.282708
0.730137 0.712684 0.284080
0.745222 0.714056 0.285452
