luts/muted_cinema_500.cube
TITLE "Fuji Eterna 500"
LUT_3D_SIZE 9
0.110379 0.104395 0.098411
0.184435 0.111131 0.105147
0.258490 0.117866 0.111882
0.331311 0.124489 0.118505
0.403309 0.131037 0.125053
0.475307 0.137585 0.131601
0.542642 0.143709 0.137725
0.602983 0.149197 0.143213
0.663325 0.154685 0.148701
0.133037 0.194373 0.121069
0.207092 0.201108 0.127804
0.281147 0.207843 0.134539
0.353968 0.214466 0.141162
0.425966 0.221014 0.147710
0.497964 0.227562 0.154258
0.565300 0.233686 0.160382
0.625641 0.239174 0.165870
0.685982 0.244662 0.171358
0.155694 0.284350 0.143726
0.229750 0.291086 0.150462
0.303805 0.297821 0.157197
0.376626 0.304444 0.163820
0.448624 0.310992 0.170368
0.520622 0.317540 0.176916
0.587957 0.323664 0.183040
0.648298 0.329152 0.188528
0.708640 0.334640 0.194016
0.177974 0.372828 0.166006
0.252030 0.379564 0.172742
0.326085 0.386299 0.179477
0.398906 0.392922 0.186100
0.470904 0.399470 0.192648
0.542902 0.406018 0.199196
0.610237 0.412142 0.205320
0.670578 0.417630 0.210808
0.730920 0.423118 0.216296
0.200003 0.460307 0.188035
0.274058 0.467042 0.194770
0.348113 0.473777 0.201505
0.420934 0.480400 0.208128
0.492932 0.486948 0.214676
0.564930 0.493496 0.221224
0.632265 0.499620 0.227348
0.692607 0.505108 0.232836
0.752948 0.510596 0.238324
0.222031 0.547785 0.210063
0.296086 0.554520 0.216798
0.370141 0.561255 0.223533
0.442962 0.567878 0.230156
0.514960 0.574426 0.236704
0.586958 0.580974 0.243252
0.654293 0.587098 0.249376
0.714635 0.592586 0.254864
0.774976 0.598074 0.260352
0.242968 0.630931 0.231000
0.317023 0.637666 0.237735
0.391078 0.644401 0.244470
0.463899 0.651024 0.251093
0.535897 0.657572 0.257641
0.607895 0.664120 0.264189
0.675231 0.670244 0.270313
0.735572 0.675732 0.275801
0.795913 0.681220 0.281289
0.262269 0.707578 0.250301
0.336324 0.714313 0.257036
0.410379 0.721048 0.263771
0.483200 0.727671 0.270394
0.555198 0.734219 0.276942
0.627196 0.740768 0.283490
0.694532 0.746892 0.289614
0.754873 0.752379 0.295102
0.815214 0.757867 0.300590
0.281570 0.784226 0.269602
0.355625 0.790961 0.276337
0.429680 0.797696 0.283072
0.502501 0.804319 0.289695
0.574499 0.810867 0.296243
0.646497 0.817415 0.302791
0.713832 0.823539 0.308915
0.774174 0.829027 0.314403
0.834515 0.834515 0.319891
0.112667 0.106683 0.168019
0.186722 0.113418 0.174754
0.260777 0.120153 0.181489
0.333598 0.126776 0.188112
0.405596 0.133324 0.194660
0.477594 0.139872 0.201208
0.544929 0.145996 0.207332
0.605271 0.151484 0.212820
0.665612 0.156972 0.218308
0.135324 0.196660 0.190676
0.209379 0.203395 0.197411
0.283435 0.210131 0.204147
0.356255 0.216753 0.210769
0.428254 0.223302 0.217318
0.500252 0.229850 0.223866
0.567587 0.235974 0.229990
0.627928 0.241462 0.235478
0.688269 0.246949 0.240965
0.157982 0.286638 0.213334
0.232037 0.293373 0.220069
0.306092 0.300108 0.226804
0.378913 0.306731 0.233427
0.450911 0.313279 0.239975
0.522909 0.319827 0.246523
0.590244 0.325951 0.252647
0.650586 0.331439 0.258135
0.710927 0.336927 0.263623
0.180262 0.375116 0.235614
0.254317 0.381851 0.242349
0.328372 0.388586 0.249084
0.401193 0.395209 0.255707
0.473191 0.401757 0.262255
0.545189 0.408305 0.268803
0.612524 0.414429 0.274927
0.672866 0.419917 0.280415
0.733207 0.425405 0.285903
0.202290 0.462594 0.257642
0.276345 0.469329 0.264377
0.350400 0.476064 0.271112
0.423221 0.482687 0.277735
0.495219 0.489235 0.284283
0.567217 0.495783 0.290831
0.634553 0.501907 0.296955
0.694894 0.507395 0.302443
0.755235 0.512883 0.307931
0.224318 0.550072 0.279670
0.298373 0.556807 0.286405
0.372428 0.563542 0.293140
0.445249 0.570165 0.299763
0.517247 0.576713 0.306311
0.589245 0.583261 0.312859
0.656581 0.589385 0.318983
0.716922 0.594873 0.324471
0.777263 0.600361 0.329959
0.245255 0.633218 0.300607
0.319310 0.639953 0.307342
0.393366 0.646688 0.314078
0.466186 0.653311 0.320700
0.538185 0.659859 0.327249
0.610183 0.666407 0.333797
0.677518 0.672531 0.339921
0.737859 0.678019 0.345409
0.798200 0.683507 0.350896
0.264556 0.709865 0.319908
0.338611 0.716601 0.326643
0.412666 0.723336 0.333378
0.485487 0.729959 0.340001
0.557485 0.736507 0.346549
0.629483 0.743055 0.353097
0.696819 0.749179 0.359221
0.757160 0.754667 0.364709
0.817501 0.760155 0.370197
0.283857 0.786513 0.339209
0.357912 0.793248 0.345944
0.431967 0.799983 0.352679
0.504788 0.806606 0.359302
0.576786 0.813154 0.365850
0.648784 0.819702 0.372398
0.716120 0.825826 0.378522
0.776461 0.831314 0.384010
0.836802 0.836802 0.389498
0.114954 0.108970 0.237626
0.189009 0.115705 0.244361
0.263064 0.122440 0.251096
0.335885 0.129063 0.257719
0.407883 0.135611 0.264267
0.479881 0.142159 0.270815
0.547217 0.148283 0.276939
0.607558 0.153771 0.282427
0.667899 0.159259 0.287915
0.137611 0.198947 0.260283
0.211667 0.205683 0.267019
0.285722 0.212418 0.273754
0.358543 0.219041 0.280377
0.430541 0.225589 0.286925
0.502539 0.232137 0.293473
0.569874 0.238261 0.299597
0.630216 0.243749 0.305085
0.690557 0.249237 0.310573
0.160269 0.288925 0.282941
0.234324 0.295660 0.289676
0.308379 0.302395 0.296411
0.381200 0.309018 0.303034
0.453198 0.315566 0.309582
0.525196 0.322114 0.316130
0.592532 0.328238 0.322254
0.652873 0.333726 0.327742
0.713214 0.339214 0.333230
0.182549 0.377403 0.305221
0.256604 0.384138 0.311956
0.330659 0.390873 0.318691
0.403480 0.397496 0.325314
0.475478 0.404044 0.331862
0.547476 0.410592 0.338410
0.614812 0.416716 0.344534
0.675153 0.422204 0.350022
0.735494 0.427692 0.355510
0.204577 0.464881 0.327249
0.278632 0.471616 0.333984
0.352687 0.478351 0.340719
0.425508 0.484974 0.347342
0.497506 0.491522 0.353890
0.569505 0.498071 0.360439
0.636840 0.504195 0.366563
0.697181 0.509682 0.372050
0.757522 0.515170 0.377538
0.226605 0.552359 0.349277
0.300660 0.559094 0.356012
0.374716 0.565830 0.362748
0.447537 0.572453 0.369371
0.519535 0.579001 0.375919
0.591533 0.585549 0.382467
0.658868 0.591673 0.388591
0.719209 0.597161 0.394079
0.779551 0.602649 0.399567
0.247543 0.635505 0.370215
0.321598 0.642240 0.376950
0.395653 0.648976 0.383685
0.468474 0.655598 0.390308
0.540472 0.662147 0.396856
0.612470 0.668695 0.403404
0.679805 0.674819 0.409528
0.740147 0.680307 0.415016
0.800488 0.685794 0.420504
0.266843 0.712153 0.389515
0.340899 0.718888 0.396251
0.414954 0.725623 0.402986
0.487775 0.732246 0.409609
0.559773 0.738794 0.416157
0.631771 0.745342 0.422705
0.699106 0.751466 0.428829
0.759447 0.756954 0.434317
0.819789 0.762442 0.439805
0.286144 0.788800 0.408816
0.360199 0.795535 0.415551
0.434255 0.802271 0.422287
0.507075 0.808893 0.428909
0.579074 0.815442 0.435458
0.651072 0.821990 0.442006
0.718407 0.828114 0.448130
0.778748 0.833602 0.453618
0.839089 0.839089 0.459105
0.117165 0.111181 0.304913
0.191220 0.117916 0.311648
0.265275 0.124651 0.318383
0.338096 0.131274 0.325006
0.410094 0.137822 0.331554
0.482092 0.144370 0.338102
0.549428 0.150494 0.344226
0.609769 0.155982 0.349714
0.670110 0.161470 0.355202
0.139823 0.201159 0.327571
0.213878 0.207894 0.334306
0.287933 0.214629 0.341041
0.360754 0.221252 0.347664
0.432752 0.227800 0.354212
0.504750 0.234348 0.360760
0.572085 0.240472 0.366884
0.632427 0.245960 0.372372
0.692768 0.251448 0.377860
0.162480 0.291136 0.350228
0.236535 0.297871 0.356963
0.310590 0.304606 0.363698
0.383411 0.311229 0.370321
0.455409 0.317777 0.376869
0.527407 0.324325 0.383417
0.594743 0.330450 0.389542
0.655084 0.335937 0.395029
0.715425 0.341425 0.400517
0.184760 0.379614 0.372508
0.258815 0.386349 0.379243
0.332870 0.393084 0.385978
0.405691 0.399707 0.392601
0.477689 0.406255 0.399149
0.549687 0.412803 0.405697
0.617023 0.418927 0.411821
0.677364 0.424415 0.417309
0.737705 0.429903 0.422797
0.206788 0.467092 0.394536
0.280843 0.473827 0.401271
0.354898 0.480562 0.408006
0.427719 0.487185 0.414629
0.499717 0.493733 0.421177
0.571716 0.500282 0.427726
0.639051 0.506406 0.433850
0.699392 0.511893 0.439337
0.759733 0.517381 0.444825
0.228816 0.554570 0.416564
0.302871 0.561305 0.423299
0.376927 0.568041 0.430035
0.449748 0.574664 0.436658
0.521746 0.581212 0.443206
0.593744 0.587760 0.449754
0.661079 0.593884 0.455878
0.721420 0.599372 0.461366
0.781762 0.604860 0.466854
0.249754 0.637716 0.437502
0.323809 0.644451 0.444237
0.397864 0.651187 0.450972
0.470685 0.657809 0.457595
0.542683 0.664358 0.464143
0.614681 0.670906 0.470691
0.682016 0.677030 0.476815
0.742358 0.682518 0.482303
0.802699 0.688005 0.487791
0.269054 0.714364 0.456802
0.343110 0.721099 0.463538
0.417165 0.727834 0.470273
0.489986 0.734457 0.476896
0.561984 0.741005 0.483444
0.633982 0.747553 0.489992
0.701317 0.753677 0.496116
0.761658 0.759165 0.501604
0.822000 0.764653 0.507092
0.288355 0.791011 0.476103
0.362410 0.797746 0.482838
0.436466 0.804482 0.489574
0.509287 0.811105 0.496197
0.581285 0.817653 0.502745
0.653283 0.824201 0.509293
0.720618 0.830325 0.515417
0.780959 0.835813 0.520905
0.841301 0.841301 0.526393
0.119325 0.113341 0.370653
0.193380 0.120076 0.377388
0.267436 0.126812 0.384124
0.340256 0.133434 0.390746
0.412255 0.139983 0.397295
0.484253 0.146531 0.403843
0.551588 0.152655 0.409967
0.611929 0.158143 0.415455
0.672270 0.163630 0.420942
0.141983 0.203319 0.393311
0.216038 0.210054 0.400046
0.290093 0.216789 0.406781
0.362914 0.223412 0.413404
0.434912 0.229960 0.419952
0.506910 0.236508 0.426500
0.574246 0.242632 0.432624
0.634587 0.248120 0.438112
0.694928 0.253608 0.443600
0.164640 0.293296 0.415968
0.238695 0.300031 0.422703
0.312751 0.306767 0.429439
0.385572 0.313390 0.436062
0.457570 0.319938 0.442610
0.529568 0.326486 0.449158
0.596903 0.332610 0.455282
0.657244 0.338098 0.460770
0.717586 0.343586 0.466258
0.186920 0.381774 0.438248
0.260975 0.388509 0.444983
0.335031 0.395245 0.451719
0.407851 0.401867 0.458341
0.479850 0.408416 0.464890
0.551848 0.414964 0.471438
0.619183 0.421088 0.477562
0.679524 0.426576 0.483050
0.739865 0.432063 0.488537
0.208948 0.469252 0.460276
0.283004 0.475988 0.467012
0.357059 0.482723 0.473747
0.429880 0.489346 0.480370
0.501878 0.495894 0.486918
0.573876 0.502442 0.493466
0.641211 0.508566 0.499590
0.701552 0.514054 0.505078
0.761894 0.519542 0.510566
0.230977 0.556731 0.482305
0.305032 0.563466 0.489040
0.379087 0.570201 0.495775
0.451908 0.576824 0.502398
0.523906 0.583372 0.508946
0.595904 0.589920 0.515494
0.663239 0.596044 0.521618
0.723581 0.601532 0.527106
0.783922 0.607020 0.532594
0.251914 0.639876 0.503242
0.325969 0.646612 0.509977
0.400024 0.653347 0.516712
0.472845 0.659970 0.523335
0.544843 0.666518 0.529883
0.616841 0.673066 0.536431
0.684177 0.679190 0.542555
0.744518 0.684678 0.548043
0.804859 0.690166 0.553531
0.271215 0.716524 0.522543
0.345270 0.723259 0.529278
0.419325 0.729994 0.536013
0.492146 0.736617 0.542636
0.564144 0.743165 0.549184
0.636142 0.749713 0.555732
0.703477 0.755837 0.561856
0.763819 0.761325 0.567344
0.824160 0.766813 0.572832
0.290516 0.793172 0.541844
0.364571 0.799907 0.548579
0.438626 0.806642 0.555314
0.511447 0.813265 0.561937
0.583445 0.819813 0.568485
0.655443 0.826361 0.575033
0.722778 0.832485 0.581157
0.783120 0.837973 0.586645
0.843461 0.843461 0.592133
0.121485 0.115501 0.436393
0.195541 0.122237 0.443129
0.269596 0.128972 0.449864
0.342417 0.135595 0.456487
0.414415 0.142143 0.463035
0.486413 0.148691 0.469583
0.553748 0.154815 0.475707
0.614089 0.160303 0.481195
0.674431 0.165791 0.486683
0.144143 0.205479 0.459051
0.218198 0.212214 0.465786
0.292253 0.218949 0.472521
0.365074 0.225572 0.479144
0.437072 0.232120 0.485692
0.509070 0.238668 0.492240
0.576406 0.244792 0.498364
0.636747 0.250280 0.503852
0.697088 0.255768 0.509340
0.166801 0.295457 0.481709
0.240856 0.302192 0.488444
0.314911 0.308927 0.495179
0.387732 0.315550 0.501802
0.459730 0.322098 0.508350
0.531728 0.328646 0.514898
0.599063 0.334770 0.521022
0.659405 0.340258 0.526510
0.719746 0.345746 0.531998
0.189080 0.383934 0.503988
0.263136 0.390670 0.510724
0.337191 0.397405 0.517459
0.410012 0.404028 0.524082
0.482010 0.410576 0.530630
0.554008 0.417124 0.537178
0.621343 0.423248 0.543302
0.681684 0.428736 0.548790
0.742026 0.434224 0.554278
0.211109 0.471413 0.526017
0.285164 0.478148 0.532752
0.359219 0.484883 0.539487
0.432040 0.491506 0.546110
0.504038 0.498054 0.552658
0.576036 0.504602 0.559206
0.643371 0.510726 0.565330
0.703713 0.516214 0.570818
0.764054 0.521702 0.576306
0.233137 0.558891 0.548045
0.307192 0.565626 0.554780
0.381247 0.572361 0.561515
0.454068 0.578984 0.568138
0.526066 0.585532 0.574686
0.598064 0.592080 0.581234
0.665400 0.598204 0.587358
0.725741 0.603692 0.592846
0.786082 0.609180 0.598334
0.254074 0.642037 0.568982
0.328129 0.648772 0.575717
0.402184 0.655507 0.582452
0.475005 0.662130 0.589075
0.547003 0.668678 0.595623
0.619001 0.675226 0.602171
0.686337 0.681350 0.608295
0.746678 0.686838 0.613783
0.807019 0.692326 0.619271
0.273375 0.718684 0.588283
0.347430 0.725419 0.595018
0.421485 0.732155 0.601753
0.494306 0.738777 0.608376
0.566304 0.745326 0.614924
0.638302 0.751874 0.621472
0.705638 0.757998 0.627596
0.765979 0.763486 0.633084
0.826320 0.768973 0.638572
0.292676 0.795332 0.607584
0.366731 0.802067 0.614319
0.440786 0.808802 0.621054
0.513607 0.815425 0.627677
0.585605 0.821973 0.634225
0.657603 0.828521 0.640773
0.724938 0.834645 0.646897
0.785280 0.840133 0.652385
0.845621 0.845621 0.657873
0.123595 0.117611 0.500587
0.197650 0.124346 0.507322
0.271705 0.131081 0.514057
0.344526 0.137704 0.520680
0.416524 0.144252 0.527228
0.488522 0.150800 0.533776
0.555858 0.156924 0.539900
0.616199 0.162412 0.545388
0.676540 0.167900 0.550876
0.146252 0.207588 0.523244
0.220308 0.214324 0.529980
0.294363 0.221059 0.536715
0.367184 0.227682 0.543338
0.439182 0.234230 0.549886
0.511180 0.240778 0.556434
0.578515 0.246902 0.562558
0.638856 0.252390 0.568046
0.699198 0.257878 0.573534
0.168910 0.297566 0.545902
0.242965 0.304301 0.552637
0.317020 0.311036 0.559372
0.389841 0.317659 0.565995
0.461839 0.324207 0.572543
0.533837 0.330755 0.579091
0.601173 0.336879 0.585215
0.661514 0.342367 0.590703
0.721855 0.347855 0.596191
0.191190 0.386044 0.568182
0.265245 0.392779 0.574917
0.339300 0.399514 0.581652
0.412121 0.406137 0.588275
0.484119 0.412685 0.594823
0.556117 0.419233 0.601371
0.623453 0.425357 0.607495
0.683794 0.430845 0.612983
0.744135 0.436333 0.618471
0.213218 0.473522 0.590210
0.287273 0.480257 0.596945
0.361328 0.486992 0.603680
0.434149 0.493615 0.610303
0.506147 0.500163 0.616851
0.578145 0.506711 0.623399
0.645481 0.512835 0.629523
0.705822 0.518323 0.635011
0.766163 0.523811 0.640499
0.235246 0.561000 0.612238
0.309301 0.567735 0.618973
0.383356 0.574470 0.625708
0.456177 0.581093 0.632331
0.528175 0.587641 0.638879
0.600174 0.594190 0.645428
0.667509 0.600314 0.651552
0.727850 0.605801 0.657039
0.788191 0.611289 0.662527
0.256183 0.644146 0.633175
0.330239 0.650881 0.639911
0.404294 0.657616 0.646646
0.477115 0.664239 0.653269
0.549113 0.670787 0.659817
0.621111 0.677335 0.666365
0.688446 0.683459 0.672489
0.748787 0.688947 0.677977
0.809129 0.694435 0.683465
0.275484 0.720794 0.652476
0.349539 0.727529 0.659211
0.423595 0.734264 0.665947
0.496416 0.740887 0.672570
0.568414 0.747435 0.679118
0.640412 0.753983 0.685666
0.707747 0.760107 0.691790
0.768088 0.765595 0.697278
0.828430 0.771083 0.702766
0.294785 0.797441 0.671777
0.368840 0.804176 0.678512
0.442895 0.810911 0.685247
0.515716 0.817534 0.691870
0.587714 0.824082 0.698418
0.659713 0.830631 0.704967
0.727048 0.836755 0.711091
0.787389 0.842242 0.716578
0.847730 0.847730 0.722066
0.125628 0.119644 0.562460
0.199683 0.126379 0.569195
0.273738 0.133114 0.575930
0.346559 0.139737 0.582553
0.418557 0.146285 0.589101
0.490555 0.152833 0.595649
0.557891 0.158957 0.601773
0.618232 0.164445 0.607261
0.678573 0.169933 0.612749
0.148286 0.209622 0.585118
0.222341 0.216357 0.591853
0.296396 0.223092 0.598588
0.369217 0.229715 0.605211
0.441215 0.236263 0.611759
0.513213 0.242811 0.618307
0.580548 0.248935 0.624431
0.640890 0.254423 0.629919
0.701231 0.259911 0.635407
0.170943 0.299599 0.607775
0.244998 0.306334 0.614510
0.319053 0.313069 0.621245
0.391874 0.319692 0.627868
0.463872 0.326240 0.634416
0.535870 0.332788 0.640964
0.603206 0.338913 0.647089
0.663547 0.344400 0.652576
0.723888 0.349888 0.658064
0.193223 0.388077 0.630055
0.267278 0.394812 0.636790
0.341333 0.401547 0.643525
0.414154 0.408170 0.650148
0.486152 0.414718 0.656696
0.558150 0.421266 0.663244
0.625486 0.427390 0.669368
0.685827 0.432878 0.674856
0.746168 0.438366 0.680344
0.215251 0.475555 0.652083
0.289306 0.482290 0.658818
0.363361 0.489025 0.665553
0.436182 0.495648 0.672176
0.508180 0.502196 0.678724
0.580179 0.508745 0.685273
0.647514 0.514869 0.691397
0.707855 0.520356 0.696884
0.768196 0.525844 0.702372
0.237279 0.563033 0.674111
0.311334 0.569768 0.680846
0.385390 0.576504 0.687582
0.458211 0.583127 0.694205
0.530209 0.589675 0.700753
0.602207 0.596223 0.707301
0.669542 0.602347 0.713425
0.729883 0.607835 0.718913
0.790225 0.613323 0.724401
0.258217 0.646179 0.695049
0.332272 0.652914 0.701784
0.406327 0.659650 0.708519
0.479148 0.666272 0.715142
0.551146 0.672821 0.721690
0.623144 0.679369 0.728238
0.690479 0.685493 0.734362
0.750821 0.690981 0.739850
0.811162 0.696468 0.745338
0.277517 0.722827 0.714349
0.351573 0.729562 0.721085
0.425628 0.736297 0.727820
0.498449 0.742920 0.734443
0.570447 0.749468 0.740991
0.642445 0.756016 0.747539
0.709780 0.762140 0.753663
0.770121 0.767628 0.759151
0.830463 0.773116 0.764639
0.296818 0.799474 0.733650
0.370873 0.806209 0.740385
0.444929 0.812945 0.747121
0.517750 0.819568 0.753744
0.589748 0.826116 0.760292
0.661746 0.832664 0.766840
0.729081 0.838788 0.772964
0.789422 0.844276 0.778452
0.849764 0.849764 0.783940
0.127661 0.121677 0.624333
0.201716 0.128412 0.631068
0.275771 0.135147 0.637803
0.348592 0.141770 0.644426
0.420590 0.148318 0.650974
0.492589 0.154867 0.657523
0.559924 0.160991 0.663647
0.620265 0.166478 0.669134
0.680606 0.171966 0.674622
0.150319 0.211655 0.646991
0.224374 0.218390 0.653726
0.298429 0.225125 0.660461
0.371250 0.231748 0.667084
0.443248 0.238296 0.673632
0.515246 0.244844 0.680180
0.582581 0.250968 0.686304
0.642923 0.256456 0.691792
0.703264 0.261944 0.697280
0.172976 0.301632 0.669648
0.247031 0.308367 0.676383
0.321087 0.315103 0.683119
0.393907 0.321725 0.689741
0.465906 0.328274 0.696290
0.537904 0.334822 0.702838
0.605239 0.340946 0.708962
0.665580 0.346434 0.714450
0.725921 0.351921 0.719937
0.195256 0.390110 0.691928
0.269311 0.396845 0.698663
0.343366 0.403580 0.705398
0.416187 0.410203 0.712021
0.488185 0.416751 0.718569
0.560184 0.423300 0.725118
0.627519 0.429424 0.731242
0.687860 0.434911 0.736729
0.748201 0.440399 0.742217
0.217284 0.477588 0.713956
0.291339 0.484323 0.720691
0.365395 0.491059 0.727427
0.438216 0.497682 0.734050
0.510214 0.504230 0.740598
0.582212 0.510778 0.747146
0.649547 0.516902 0.753270
0.709888 0.522390 0.758758
0.770230 0.527878 0.764246
0.239312 0.565066 0.735984
0.313368 0.571802 0.742720
0.387423 0.578537 0.749455
0.460244 0.585160 0.756078
0.532242 0.591708 0.762626
0.604240 0.598256 0.769174
0.671575 0.604380 0.775298
0.731916 0.609868 0.780786
0.792258 0.615356 0.786274
0.260250 0.648212 0.756922
0.334305 0.654948 0.763657
0.408360 0.661683 0.770392
0.481181 0.668306 0.777015
0.553179 0.674854 0.783563
0.625177 0.681402 0.790111
0.692512 0.687526 0.796235
0.752854 0.693014 0.801723
0.813195 0.698502 0.807211
0.279551 0.724860 0.776223
0.353606 0.731595 0.782958
0.427661 0.738330 0.789693
0.500482 0.744953 0.796316
0.572480 0.751501 0.802864
0.644478 0.758049 0.809412
0.711813 0.764173 0.815536
0.772155 0.769661 0.821024
0.832496 0.775149 0.826512
0.298851 0.801507 0.795523
0.372907 0.808243 0.802259
0.446962 0.814978 0.808994
0.519783 0.821601 0.815617
0.591781 0.828149 0.822165
0.663779 0.834697 0.828713
0.731114 0.840821 0.834837
0.791455 0.846309 0.840325
0.851797 0.851797 0.845813
