luts/muted_cinema_500.cube
TITLE "Fuji Eterna 500"
LUT_3D_SIZE 5
0.110379 0.104395 0.098411
0.258490 0.117866 0.111882
0.403309 0.131037 0.125053
0.542642 0.143709 0.137725
0.663325 0.154685 0.148701
0.155694 0.284350 0.143726
0.303805 0.297821 0.157197
0.448624 0.310992 0.170368
0.587957 0.323664 0.183040
0.708640 0.334640 0.194016
0.200003 0.460307 0.188035
0.348113 0.473777 0.201505
0.492932 0.486948 0.214676
0.632265 0.499620 0.227348
0.752948 0.510596 0.238324
0.242968 0.630931 0.231000
0.391078 0.644401 0.244470
0.535897 0.657572 0.257641
0.675231 0.670244 0.270313
0.795913 0.681220 0.281289
0.281570 0.784226 0.269602
0.429680 0.797696 0.283072
0.574499 0.810867 0.296243
0.713832 0.823539 0.308915
0.834515 0.834515 0.319891
0.114954 0.108970 0.237626
0.263064 0.122440 0.251096
0.407883 0.135611 0.264267
0.547217 0.148283 0.276939
0.667899 0.159259 0.287915
0.160269 0.288925 0.282941
0.308379 0.302395 0.296411
0.453198 0.315566 0.309582
0.592532 0.328238 0.322254
0.713214 0.339214 0.333230
0.204577 0.464881 0.327249
0.352687 0.478351 0.340719
0.497506 0.491522 0.353890
0.636840 0.504195 0.366563
0.757522 0.515170 0.377538
0.247543 0.635505 0.370215
0.395653 0.648976 0.383685
0.540472 0.662147 0.396856
0.679805 0.674819 0.409528
0.800488 0.685794 0.420504
0.286144 0.788800 0.408816
0.434255 0.802271 0.422287
0.579074 0.815442 0.435458
0.718407 0.828114 0.448130
0.839089 0.839089 0.459105
0.119325 0.113341 0.370653
0.267436 0.126812 0.384124
0.412255 0.139983 0.397295
0.551588 0.152655 0.409967
0.672270 0.163630 0.420942
0.164640 0.293296 0.415968
0.312751 0.306767 0.429439
0.457570 0.319938 0.442610
0.596903 0.332610 0.455282
0.717586 0.343586 0.466258
0.208948 0.469252 0.460276
0.357059 0.482723 0.473747
0.501878 0.495894 0.486918
0.641211 0.508566 0.499590
0.761894 0.519542 0.510566
0.251914 0.639876 0.503242
0.400024 0.653347 0.516712
0.544843 0.666518 0.529883
0.684177 0.679190 0.542555
0.804859 0.690166 0.553531
0.290516 0.793172 0.541844
0.438626 0.806642 0.555314
0.583445 0.819813 0.568485
0.722778 0.832485 0.581157
0.843461 0.843461 0.592133
0.123595 0.117611 0.500587
0.271705 0.131081 0.514057
0.416524 0.144252 0.527228
0.555858 0.156924 0.539900
0.676540 0.167900 0.550876
0.168910 0.297566 0.545902
0.317020 0.311036 0.559372
0.461839 0.324207 0.572543
0.601173 0.336879 0.585215
0.721855 0.347855 0.596191
0.213218 0.473522 0.590210
0.361328 0.486992 0.603680
0.506147 0.500163 0.616851
0.645481 0.512835 0.629523
0.766163 0.523811 0.640499
0.256183 0.644146 0.633175
0.404294 0.657616 0.646646
0.549113 0.670787 0.659817
0.688446 0.683459 0.672489
0.809129 0.694435 0.683465
0.294785 0.797441 0.671777
0.442895 0.810911 0.685247
0.587714 0.824082 0.698418
0.727048 0.836755 0.711091
0.847730 0.847730 0.722066
0.127661 0.121677 0.624333
0.275771 0.135147 0.637803
0.420590 0.148318 0.650974
0.559924 0.160991 0.663647
0.680606 0.171966 0.674622
0.172976 0.301632 0.669648
0.321087 0.315103 0.683119
0.465906 0.328274 0.696290
0.605239 0.340946 0.708962
0.725921 0.351921 0.719937
0.217284 0.477588 0.713956
0.365395 0.491059 0.727427
0.510214 0.504230 0.740598
0.649547 0.516902 0.753270
0.770230 0.527878 0.764246
0.260250 0.648212 0.756922
0.408360 0.661683 0.770392
0.553179 0.674854 0.783563
0.692512 0.687526 0.796235
0.813195 0.698502 0.807211
0.298851 0.801507 0.795523
0.446962 0.814978 0.808994
0.591781 0.828149 0.822165
0.731114 0.840821 0.834837
0.851797 0.851797 0.845813
