luts/natural_portrait_400.cube
TITLE "Kodak Portra 400"
LUT_3D_SIZE 5
0.096662 0.049041 0.001419
0.345211 0.046927 0.003642
0.582398 0.044909 0.005764
0.805382 0.043013 0.007758
1.000000 0.041261 0.009600
0.076407 0.280403 0.008399
0.324956 0.278289 0.010622
0.562143 0.276272 0.012743
0.785127 0.274375 0.014738
0.991067 0.272623 0.016580
0.056483 0.507988 0.015265
0.305032 0.505874 0.017488
0.542218 0.503857 0.019609
0.768610 0.502431 0.019627
0.980805 0.501544 0.017842
0.041700 0.732461 0.019227
0.297798 0.731390 0.017072
0.542188 0.730369 0.015016
0.771945 0.729408 0.013083
0.984140 0.728521 0.011297
0.044971 0.955128 0.012807
0.301069 0.954058 0.010652
0.545460 0.953036 0.008595
0.775217 0.952076 0.006662
0.987412 0.951189 0.004877
0.094837 0.048443 0.214548
0.343385 0.046328 0.216771
0.580572 0.044311 0.218893
0.803556 0.042414 0.220887
1.000000 0.040663 0.222729
0.074581 0.279805 0.221528
0.323130 0.277691 0.223751
0.560317 0.275673 0.225873
0.783301 0.273777 0.227867
0.989241 0.272025 0.229709
0.054657 0.507390 0.228394
0.303206 0.505276 0.230617
0.540393 0.503258 0.232738
0.768921 0.502128 0.231517
0.981116 0.501241 0.229732
0.042010 0.732158 0.231117
0.298108 0.731087 0.228962
0.542499 0.730066 0.226906
0.772256 0.729105 0.224973
0.984451 0.728218 0.223188
0.045282 0.954825 0.224697
0.301380 0.953755 0.222542
0.545771 0.952733 0.220486
0.775527 0.951773 0.218553
0.987723 0.950886 0.216767
0.092869 0.047798 0.444241
0.341418 0.045684 0.446464
0.578605 0.043666 0.448585
0.801588 0.041770 0.450579
1.000000 0.040018 0.452421
0.072614 0.279160 0.451220
0.321163 0.277046 0.453443
0.558349 0.275029 0.455565
0.781333 0.273132 0.457559
0.987274 0.271380 0.459401
0.052689 0.506745 0.458086
0.301238 0.504631 0.460309
0.539499 0.502762 0.461808
0.769256 0.501802 0.459875
0.981451 0.500915 0.458089
0.042345 0.731831 0.459474
0.298443 0.730761 0.457319
0.542834 0.729739 0.455263
0.772591 0.728779 0.453330
0.984786 0.727892 0.451545
0.045617 0.954499 0.453054
0.301715 0.953428 0.450899
0.546106 0.952407 0.448843
0.775862 0.951446 0.446910
0.988058 0.950559 0.445124
0.090891 0.047150 0.675151
0.339440 0.045035 0.677374
0.576627 0.043018 0.679495
0.799610 0.041121 0.681490
1.000000 0.039370 0.683332
0.070636 0.278512 0.682131
0.319185 0.276398 0.684354
0.556371 0.274380 0.686475
0.779355 0.272484 0.688469
0.985296 0.270732 0.690311
0.050711 0.506097 0.688996
0.299260 0.503983 0.691219
0.539836 0.502434 0.691376
0.769592 0.501473 0.689442
0.981788 0.500586 0.687657
0.042682 0.731503 0.689042
0.298780 0.730432 0.686887
0.543171 0.729411 0.684831
0.772927 0.728451 0.682898
0.985123 0.727564 0.681112
0.045954 0.954170 0.682622
0.302052 0.953100 0.680467
0.546442 0.952078 0.678411
0.776199 0.951118 0.676478
0.988394 0.950231 0.674692
0.088951 0.046514 0.901677
0.337499 0.044400 0.903900
0.574686 0.042382 0.906021
0.797670 0.040486 0.908015
1.000000 0.038734 0.909857
0.068695 0.277876 0.908656
0.317244 0.275762 0.910879
0.554431 0.273744 0.913001
0.777415 0.271848 0.914995
0.983355 0.270096 0.916837
0.048771 0.505461 0.915522
0.297320 0.503347 0.917745
0.540166 0.502112 0.916585
0.769923 0.501151 0.914651
0.982118 0.500264 0.912866
0.043012 0.731181 0.914251
0.299110 0.730110 0.912096
0.543501 0.729089 0.910040
0.773257 0.728129 0.908107
0.985453 0.727242 0.906321
0.046284 0.953848 0.907831
0.302382 0.952778 0.905676
0.546773 0.951756 0.903620
0.776529 0.950796 0.901687
0.988725 0.949909 0.899901
