luts/natural_portrait_400.cube
TITLE "Kodak Portra 400"
LUT_3D_SIZE 9
0.096662 0.049041 0.001419
0.220937 0.047984 0.002531
0.345211 0.046927 0.003642
0.465225 0.045906 0.004716
0.582398 0.044909 0.005764
0.699571 0.043913 0.006812
0.805382 0.043013 0.007758
0.908352 0.042137 0.008679
1.000000 0.041261 0.009600
0.086535 0.164722 0.004909
0.210809 0.163665 0.006021
0.335084 0.162608 0.007132
0.455097 0.161587 0.008206
0.572270 0.160590 0.009254
0.689443 0.159594 0.010302
0.795254 0.158694 0.011248
0.898224 0.157818 0.012169
1.000000 0.156942 0.013090
0.076407 0.280403 0.008399
0.200682 0.279346 0.009511
0.324956 0.278289 0.010622
0.444970 0.277268 0.011695
0.562143 0.276272 0.012743
0.679316 0.275275 0.013791
0.785127 0.274375 0.014738
0.888097 0.273499 0.015659
0.991067 0.272623 0.016580
0.066404 0.394668 0.011846
0.190678 0.393611 0.012958
0.314952 0.392554 0.014069
0.434966 0.391533 0.015143
0.552139 0.390536 0.016191
0.669312 0.389540 0.017239
0.775123 0.388640 0.018185
0.878093 0.387764 0.019106
0.981064 0.386888 0.020027
0.056483 0.507988 0.015265
0.180757 0.506931 0.016376
0.305032 0.505874 0.017488
0.425045 0.504853 0.018561
0.542218 0.503857 0.019609
0.659585 0.502887 0.020545
0.768610 0.502431 0.019627
0.874708 0.501988 0.018735
0.980805 0.501544 0.017842
0.046562 0.621308 0.018683
0.170836 0.620251 0.019795
0.296151 0.619338 0.020303
0.419810 0.618821 0.019263
0.540542 0.618317 0.018247
0.661274 0.617812 0.017231
0.770299 0.617356 0.016314
0.876396 0.616913 0.015421
0.982494 0.616469 0.014528
0.041700 0.732461 0.019227
0.169749 0.731925 0.018149
0.297798 0.731390 0.017072
0.421456 0.730873 0.016032
0.542188 0.730369 0.015016
0.662920 0.729864 0.014000
0.771945 0.729408 0.013083
0.878043 0.728965 0.012190
0.984140 0.728521 0.011297
0.043336 0.843794 0.016017
0.171385 0.843259 0.014939
0.299434 0.842724 0.013862
0.423092 0.842207 0.012821
0.543824 0.841702 0.011806
0.664556 0.841198 0.010790
0.773581 0.840742 0.009873
0.879678 0.840298 0.008980
0.985776 0.839855 0.008087
0.044971 0.955128 0.012807
0.173020 0.954593 0.011729
0.301069 0.954058 0.010652
0.424728 0.953541 0.009611
0.545460 0.953036 0.008595
0.666192 0.952531 0.007580
0.775217 0.952076 0.006662
0.881314 0.951632 0.005770
0.987412 0.951189 0.004877
0.095749 0.048742 0.107984
0.220024 0.047685 0.109095
0.344298 0.046628 0.110207
0.464312 0.045607 0.111280
0.581485 0.044610 0.112328
0.698658 0.043614 0.113376
0.804469 0.042714 0.114323
0.907439 0.041838 0.115244
1.000000 0.040962 0.116165
0.085622 0.164423 0.111474
0.209896 0.163366 0.112585
0.334171 0.162309 0.113697
0.454184 0.161288 0.114770
0.571357 0.160291 0.115818
0.688530 0.159295 0.116866
0.794341 0.158395 0.117812
0.897312 0.157519 0.118733
1.000000 0.156643 0.119654
0.075494 0.280104 0.114964
0.199769 0.279047 0.116075
0.324043 0.277990 0.117187
0.444057 0.276969 0.118260
0.561230 0.275972 0.119308
0.678403 0.274976 0.120356
0.784214 0.274076 0.121302
0.887184 0.273200 0.122223
0.990154 0.272324 0.123144
0.065491 0.394369 0.118411
0.189765 0.393312 0.119522
0.314040 0.392255 0.120634
0.434053 0.391234 0.121707
0.551226 0.390237 0.122755
0.668399 0.389240 0.123803
0.774210 0.388341 0.124749
0.877180 0.387465 0.125670
0.980151 0.386589 0.126591
0.055570 0.507689 0.121829
0.179844 0.506632 0.122941
0.304119 0.505575 0.124052
0.424132 0.504554 0.125126
0.541305 0.503557 0.126174
0.659741 0.502735 0.126490
0.768765 0.502280 0.125572
0.874863 0.501836 0.124680
0.980961 0.501393 0.123787
0.045649 0.621009 0.125248
0.169923 0.619952 0.126359
0.296307 0.619187 0.126248
0.419965 0.618670 0.125208
0.540697 0.618165 0.124192
0.661429 0.617660 0.123176
0.770454 0.617205 0.122259
0.876552 0.616761 0.121366
0.982649 0.616318 0.120473
0.041855 0.732309 0.125172
0.169904 0.731774 0.124095
0.297953 0.731239 0.123017
0.421612 0.730722 0.121977
0.542344 0.730217 0.120961
0.663076 0.729712 0.119945
0.772100 0.729257 0.119028
0.878198 0.728813 0.118135
0.984296 0.728370 0.117242
0.043491 0.843643 0.121962
0.171540 0.843108 0.120884
0.299589 0.842572 0.119807
0.423248 0.842056 0.118767
0.543980 0.841551 0.117751
0.664712 0.841046 0.116735
0.773736 0.840590 0.115818
0.879834 0.840147 0.114925
0.985932 0.839703 0.114032
0.045127 0.954977 0.118752
0.173176 0.954441 0.117674
0.301225 0.953906 0.116597
0.424884 0.953389 0.115556
0.545615 0.952885 0.114541
0.666347 0.952380 0.113525
0.775372 0.951924 0.112607
0.881470 0.951481 0.111715
0.987567 0.951037 0.110822
0.094837 0.048443 0.214548
0.219111 0.047386 0.215660
0.343385 0.046328 0.216771
0.463399 0.045308 0.217845
0.580572 0.044311 0.218893
0.697745 0.043314 0.219941
0.803556 0.042414 0.220887
0.906526 0.041539 0.221808
1.000000 0.040663 0.222729
0.084709 0.164124 0.218038
0.208983 0.163067 0.219150
0.333258 0.162010 0.220261
0.453272 0.160989 0.221335
0.570445 0.159992 0.222383
0.687618 0.158996 0.223431
0.793428 0.158096 0.224377
0.896399 0.157220 0.225298
0.999369 0.156344 0.226219
0.074581 0.279805 0.221528
0.198856 0.278748 0.222640
0.323130 0.277691 0.223751
0.443144 0.276670 0.224825
0.560317 0.275673 0.225873
0.677490 0.274677 0.226921
0.783301 0.273777 0.227867
0.886271 0.272901 0.228788
0.989241 0.272025 0.229709
0.064578 0.394069 0.224975
0.188852 0.393012 0.226087
0.313127 0.391955 0.227198
0.433140 0.390935 0.228272
0.550313 0.389938 0.229320
0.667487 0.388941 0.230368
0.773297 0.388041 0.231314
0.876268 0.387166 0.232235
0.979428 0.386316 0.233046
0.054657 0.507390 0.228394
0.178931 0.506333 0.229505
0.303206 0.505276 0.230617
0.423220 0.504255 0.231690
0.540393 0.503258 0.232738
0.659896 0.502584 0.232435
0.768921 0.502128 0.231517
0.875018 0.501685 0.230625
0.981116 0.501241 0.229732
0.044736 0.620710 0.231813
0.169011 0.619653 0.232924
0.296462 0.619035 0.232193
0.420121 0.618518 0.231153
0.540853 0.618014 0.230137
0.661585 0.617509 0.229121
0.770609 0.617053 0.228204
0.876707 0.616610 0.227311
0.982805 0.616166 0.226418
0.042010 0.732158 0.231117
0.170059 0.731622 0.230040
0.298108 0.731087 0.228962
0.421767 0.730570 0.227922
0.542499 0.730066 0.226906
0.663231 0.729561 0.225890
0.772256 0.729105 0.224973
0.878353 0.728662 0.224080
0.984451 0.728218 0.223188
0.043646 0.843491 0.227907
0.171695 0.842956 0.226830
0.299744 0.842421 0.225752
0.423403 0.841904 0.224712
0.544135 0.841399 0.223696
0.664867 0.840895 0.222680
0.773891 0.840439 0.221763
0.879989 0.839995 0.220870
0.986087 0.839552 0.219977
0.045282 0.954825 0.224697
0.173331 0.954290 0.223619
0.301380 0.953755 0.222542
0.425039 0.953238 0.221502
0.545771 0.952733 0.220486
0.666503 0.952228 0.219470
0.775527 0.951773 0.218553
0.881625 0.951329 0.217660
0.987723 0.950886 0.216767
0.093871 0.048126 0.327324
0.218145 0.047069 0.328436
0.342419 0.046012 0.329547
0.462433 0.044991 0.330621
0.579606 0.043994 0.331669
0.696779 0.042998 0.332717
0.802590 0.042098 0.333663
0.905560 0.041222 0.334584
1.000000 0.040346 0.335505
0.083743 0.163807 0.330814
0.208017 0.162750 0.331926
0.332292 0.161693 0.333037
0.452305 0.160672 0.334110
0.569479 0.159676 0.335158
0.686652 0.158679 0.336206
0.792462 0.157779 0.337153
0.895433 0.156903 0.338074
0.998403 0.156027 0.338995
0.073615 0.279488 0.334304
0.197890 0.278431 0.335415
0.322164 0.277374 0.336527
0.442178 0.276353 0.337600
0.559351 0.275357 0.338648
0.676524 0.274360 0.339696
0.782335 0.273460 0.340643
0.885305 0.272584 0.341564
0.988275 0.271708 0.342485
0.063612 0.393753 0.337751
0.187886 0.392696 0.338863
0.312161 0.391639 0.339974
0.432174 0.390618 0.341047
0.549347 0.389621 0.342095
0.666520 0.388625 0.343143
0.772331 0.387725 0.344090
0.875302 0.386849 0.345011
0.979592 0.386156 0.345166
0.053691 0.507073 0.341170
0.177965 0.506016 0.342281
0.302240 0.504959 0.343393
0.422253 0.503938 0.344466
0.539427 0.502942 0.345514
0.660061 0.502424 0.344555
0.769085 0.501968 0.343638
0.875183 0.501524 0.342745
0.981281 0.501081 0.341852
0.043770 0.620393 0.344588
0.168578 0.619410 0.345391
0.296627 0.618875 0.344313
0.420285 0.618358 0.343273
0.541017 0.617853 0.342257
0.661749 0.617349 0.341241
0.770774 0.616893 0.340324
0.876871 0.616449 0.339431
0.982969 0.616006 0.338539
0.042175 0.731997 0.343237
0.170224 0.731462 0.342160
0.298273 0.730927 0.341082
0.421932 0.730410 0.340042
0.542664 0.729905 0.339026
0.663396 0.729401 0.338010
0.772420 0.728945 0.337093
0.878518 0.728501 0.336200
0.984616 0.728058 0.335308
0.043811 0.843331 0.340027
0.171860 0.842796 0.338950
0.299909 0.842261 0.337872
0.423567 0.841744 0.336832
0.544299 0.841239 0.335816
0.665031 0.840734 0.334800
0.774056 0.840279 0.333883
0.880154 0.839835 0.332990
0.986251 0.839392 0.332098
0.045447 0.954665 0.336817
0.173496 0.954130 0.335740
0.301545 0.953594 0.334662
0.425203 0.953077 0.333622
0.545935 0.952573 0.332606
0.666667 0.952068 0.331590
0.775692 0.951612 0.330673
0.881789 0.951169 0.329780
0.987887 0.950725 0.328887
0.092869 0.047798 0.444241
0.217143 0.046741 0.445352
0.341418 0.045684 0.446464
0.461432 0.044663 0.447537
0.578605 0.043666 0.448585
0.695778 0.042670 0.449633
0.801588 0.041770 0.450579
0.904559 0.040894 0.451500
1.000000 0.040018 0.452421
0.082741 0.163479 0.447731
0.207016 0.162422 0.448842
0.331290 0.161365 0.449954
0.451304 0.160344 0.451027
0.568477 0.159347 0.452075
0.685650 0.158351 0.453123
0.791461 0.157451 0.454069
0.894431 0.156575 0.454990
0.997401 0.155699 0.455911
0.072614 0.279160 0.451220
0.196888 0.278103 0.452332
0.321163 0.277046 0.453443
0.441176 0.276025 0.454517
0.558349 0.275029 0.455565
0.675522 0.274032 0.456613
0.781333 0.273132 0.457559
0.884304 0.272256 0.458480
0.987274 0.271380 0.459401
0.062610 0.393425 0.454668
0.186885 0.392368 0.455779
0.311159 0.391311 0.456891
0.431173 0.390290 0.457964
0.548346 0.389293 0.459012
0.665519 0.388297 0.460060
0.771330 0.387397 0.461006
0.874300 0.386521 0.461927
0.979762 0.385989 0.461403
0.052689 0.506745 0.458086
0.176964 0.505688 0.459198
0.301238 0.504631 0.460309
0.421252 0.503610 0.461383
0.539499 0.502762 0.461808
0.660231 0.502257 0.460792
0.769256 0.501802 0.459875
0.875353 0.501358 0.458982
0.981451 0.500915 0.458089
0.042769 0.620065 0.461505
0.168748 0.619244 0.461628
0.296797 0.618709 0.460550
0.420456 0.618192 0.459510
0.541188 0.617687 0.458494
0.661920 0.617182 0.457478
0.770944 0.616727 0.456561
0.877042 0.616283 0.455668
0.983140 0.615840 0.454775
0.042345 0.731831 0.459474
0.170394 0.731296 0.458397
0.298443 0.730761 0.457319
0.422102 0.730244 0.456279
0.542834 0.729739 0.455263
0.663566 0.729234 0.454247
0.772591 0.728779 0.453330
0.878688 0.728335 0.452437
0.984786 0.727892 0.451545
0.043981 0.843165 0.456264
0.172030 0.842630 0.455187
0.300079 0.842094 0.454109
0.423738 0.841578 0.453069
0.544470 0.841073 0.452053
0.665202 0.840568 0.451037
0.774226 0.840112 0.450120
0.880324 0.839669 0.449227
0.986422 0.839225 0.448334
0.045617 0.954499 0.453054
0.173666 0.953963 0.451976
0.301715 0.953428 0.450899
0.425374 0.952911 0.449859
0.546106 0.952407 0.448843
0.666838 0.951902 0.447827
0.775862 0.951446 0.446910
0.881960 0.951003 0.446017
0.988058 0.950559 0.445124
0.091867 0.047470 0.561157
0.216142 0.046413 0.562269
0.340416 0.045355 0.563380
0.460430 0.044335 0.564454
0.577603 0.043338 0.565502
0.694776 0.042341 0.566550
0.800587 0.041441 0.567496
0.903557 0.040566 0.568417
1.000000 0.039690 0.569338
0.081740 0.163151 0.564647
0.206014 0.162094 0.565759
0.330289 0.161037 0.566870
0.450302 0.160016 0.567944
0.567475 0.159019 0.568992
0.684649 0.158023 0.570039
0.790459 0.157123 0.570986
0.893430 0.156247 0.571907
0.996400 0.155371 0.572828
0.071612 0.278832 0.568137
0.195887 0.277775 0.569249
0.320161 0.276718 0.570360
0.440175 0.275697 0.571433
0.557348 0.274700 0.572481
0.674521 0.273704 0.573529
0.780332 0.272804 0.574476
0.883302 0.271928 0.575397
0.986272 0.271052 0.576318
0.061609 0.393096 0.571584
0.185883 0.392039 0.572696
0.310158 0.390982 0.573807
0.430171 0.389962 0.574881
0.547344 0.388965 0.575928
0.664517 0.387968 0.576976
0.770328 0.387068 0.577923
0.873835 0.386267 0.578533
0.979933 0.385823 0.577640
0.051688 0.506417 0.575003
0.175962 0.505360 0.576114
0.300237 0.504303 0.577226
0.420250 0.503282 0.578299
0.539670 0.502596 0.578045
0.660401 0.502091 0.577029
0.769426 0.501635 0.576111
0.875524 0.501192 0.575219
0.981622 0.500748 0.574326
0.041767 0.619737 0.578421
0.168918 0.619078 0.577865
0.296967 0.618542 0.576787
0.420626 0.618026 0.575747
0.541358 0.617521 0.574731
0.662090 0.617016 0.573715
0.771115 0.616561 0.572798
0.877212 0.616117 0.571905
0.983310 0.615674 0.571012
0.042516 0.731665 0.575711
0.170565 0.731130 0.574634
0.298614 0.730595 0.573556
0.422273 0.730078 0.572516
0.543005 0.729573 0.571500
0.663736 0.729068 0.570484
0.772761 0.728613 0.569567
0.878859 0.728169 0.568674
0.984957 0.727726 0.567782
0.044152 0.842999 0.572501
0.172201 0.842463 0.571423
0.300250 0.841928 0.570346
0.423908 0.841411 0.569306
0.544640 0.840907 0.568290
0.665372 0.840402 0.567274
0.774397 0.839946 0.566357
0.880495 0.839503 0.565464
0.986592 0.839059 0.564571
0.045787 0.954332 0.569291
0.173836 0.953797 0.568213
0.301885 0.953262 0.567136
0.425544 0.952745 0.566095
0.546276 0.952240 0.565080
0.667008 0.951736 0.564064
0.776033 0.951280 0.563147
0.882130 0.950837 0.562254
0.988228 0.950393 0.561361
0.090891 0.047150 0.675151
0.215165 0.046093 0.676262
0.339440 0.045035 0.677374
0.459454 0.044015 0.678447
0.576627 0.043018 0.679495
0.693800 0.042021 0.680543
0.799610 0.041121 0.681490
0.902581 0.040246 0.682411
1.000000 0.039370 0.683332
0.080763 0.162831 0.678641
0.205038 0.161774 0.679752
0.329312 0.160717 0.680864
0.449326 0.159696 0.681937
0.566499 0.158699 0.682985
0.683672 0.157703 0.684033
0.789483 0.156803 0.684979
0.892453 0.155927 0.685900
0.995423 0.155051 0.686821
0.070636 0.278512 0.682131
0.194910 0.277455 0.683242
0.319185 0.276398 0.684354
0.439198 0.275377 0.685427
0.556371 0.274380 0.686475
0.673544 0.273384 0.687523
0.779355 0.272484 0.688469
0.882326 0.271608 0.689390
0.985296 0.270732 0.690311
0.060632 0.392776 0.685578
0.184907 0.391719 0.686689
0.309181 0.390662 0.687801
0.429195 0.389642 0.688874
0.546368 0.388645 0.689922
0.663541 0.387648 0.690970
0.769352 0.386748 0.691916
0.874001 0.386105 0.691864
0.980099 0.385661 0.690971
0.050711 0.506097 0.688996
0.174986 0.505040 0.690108
0.299260 0.503983 0.691219
0.419274 0.502962 0.692293
0.539836 0.502434 0.691376
0.660568 0.501929 0.690360
0.769592 0.501473 0.689442
0.875690 0.501030 0.688550
0.981788 0.500586 0.687657
0.041036 0.619451 0.692273
0.169085 0.618916 0.691196
0.297134 0.618380 0.690118
0.420792 0.617864 0.689078
0.541524 0.617359 0.688062
0.662256 0.616854 0.687046
0.771281 0.616398 0.686129
0.877379 0.615955 0.685236
0.983476 0.615512 0.684343
0.042682 0.731503 0.689042
0.170731 0.730968 0.687965
0.298780 0.730432 0.686887
0.422439 0.729916 0.685847
0.543171 0.729411 0.684831
0.663903 0.728906 0.683815
0.772927 0.728451 0.682898
0.879025 0.728007 0.682005
0.985123 0.727564 0.681112
0.044318 0.842837 0.685832
0.172367 0.842301 0.684754
0.300416 0.841766 0.683677
0.424075 0.841249 0.682637
0.544807 0.840745 0.681621
0.665538 0.840240 0.680605
0.774563 0.839784 0.679688
0.880661 0.839341 0.678795
0.986759 0.838897 0.677902
0.045954 0.954170 0.682622
0.174003 0.953635 0.681544
0.302052 0.953100 0.680467
0.425710 0.952583 0.679426
0.546442 0.952078 0.678411
0.667174 0.951574 0.677395
0.776199 0.951118 0.676478
0.882297 0.950674 0.675585
0.988394 0.950231 0.674692
0.089921 0.046832 0.788414
0.214195 0.045775 0.789525
0.338470 0.044718 0.790637
0.458483 0.043697 0.791710
0.575656 0.042700 0.792758
0.692829 0.041703 0.793806
0.798640 0.040804 0.794753
0.901610 0.039928 0.795673
1.000000 0.039052 0.796594
0.079793 0.162513 0.791904
0.204068 0.161456 0.793015
0.328342 0.160399 0.794127
0.448356 0.159378 0.795200
0.565529 0.158381 0.796248
0.682702 0.157385 0.797296
0.788513 0.156485 0.798242
0.891483 0.155609 0.799163
0.994453 0.154733 0.800084
0.069666 0.278194 0.795394
0.193940 0.277137 0.796505
0.318215 0.276080 0.797617
0.438228 0.275059 0.798690
0.555401 0.274062 0.799738
0.672574 0.273066 0.800786
0.778385 0.272166 0.801732
0.881355 0.271290 0.802653
0.984326 0.270414 0.803574
0.059662 0.392459 0.798841
0.183937 0.391401 0.799952
0.308211 0.390344 0.801064
0.428225 0.389324 0.802137
0.545398 0.388327 0.803185
0.662571 0.387330 0.804233
0.768382 0.386430 0.805179
0.874167 0.385944 0.804468
0.980264 0.385500 0.803575
0.049741 0.505779 0.802259
0.174016 0.504722 0.803371
0.298290 0.503665 0.804482
0.419269 0.502777 0.804996
0.540001 0.502273 0.803980
0.660733 0.501768 0.802964
0.769757 0.501312 0.802047
0.875855 0.500869 0.801154
0.981953 0.500425 0.800262
0.041201 0.619290 0.804877
0.169250 0.618755 0.803800
0.297299 0.618219 0.802723
0.420958 0.617703 0.801682
0.541689 0.617198 0.800666
0.662421 0.616693 0.799651
0.771446 0.616237 0.798733
0.877544 0.615794 0.797841
0.983641 0.615351 0.796948
0.042847 0.731342 0.801647
0.170896 0.730807 0.800569
0.298945 0.730271 0.799492
0.422604 0.729755 0.798451
0.543336 0.729250 0.797436
0.664068 0.728745 0.796420
0.773092 0.728290 0.795502
0.879190 0.727846 0.794610
0.985288 0.727403 0.793717
0.044483 0.842676 0.798436
0.172532 0.842140 0.797359
0.300581 0.841605 0.796282
0.424240 0.841088 0.795241
0.544972 0.840584 0.794225
0.665704 0.840079 0.793210
0.774728 0.839623 0.792292
0.880826 0.839180 0.791400
0.986924 0.838736 0.790507
0.046119 0.954009 0.795226
0.174168 0.953474 0.794149
0.302217 0.952939 0.793071
0.425876 0.952422 0.792031
0.546607 0.951917 0.791015
0.667339 0.951413 0.789999
0.776364 0.950957 0.789082
0.882462 0.950513 0.788189
0.988560 0.950070 0.787297
0.088951 0.046514 0.901677
0.213225 0.045457 0.902788
0.337499 0.044400 0.903900
0.457513 0.043379 0.904973
0.574686 0.042382 0.906021
0.691859 0.041386 0.907069
0.797670 0.040486 0.908015
0.900640 0.039610 0.908936
1.000000 0.038734 0.909857
0.078823 0.162195 0.905167
0.203097 0.161138 0.906278
0.327372 0.160081 0.907390
0.447386 0.159060 0.908463
0.564559 0.158063 0.909511
0.681732 0.157067 0.910559
0.787542 0.156167 0.911505
0.890513 0.155291 0.912426
0.993483 0.154415 0.913347
0.068695 0.277876 0.908656
0.192970 0.276819 0.909768
0.317244 0.275762 0.910879
0.437258 0.274741 0.911953
0.554431 0.273744 0.913001
0.671604 0.272748 0.914049
0.777415 0.271848 0.914995
0.880385 0.270972 0.915916
0.983355 0.270096 0.916837
0.058692 0.392141 0.912104
0.182966 0.391084 0.913215
0.307241 0.390027 0.914327
0.427254 0.389006 0.915400
0.544427 0.388009 0.916448
0.661600 0.387012 0.917496
0.768234 0.386226 0.917965
0.874332 0.385783 0.917073
0.980429 0.385339 0.916180
0.048771 0.505461 0.915522
0.173045 0.504404 0.916634
0.297320 0.503347 0.917745
0.419434 0.502616 0.917600
0.540166 0.502112 0.916585
0.660898 0.501607 0.915569
0.769923 0.501151 0.914651
0.876020 0.500708 0.913759
0.982118 0.500264 0.912866
0.041366 0.619129 0.917482
0.169415 0.618594 0.916405
0.297464 0.618058 0.915327
0.421123 0.617542 0.914287
0.541855 0.617037 0.913271
0.662587 0.616532 0.912255
0.771611 0.616076 0.911338
0.877709 0.615633 0.910445
0.983807 0.615190 0.909552
0.043012 0.731181 0.914251
0.171061 0.730646 0.913174
0.299110 0.730110 0.912096
0.422769 0.729594 0.911056
0.543501 0.729089 0.910040
0.664233 0.728584 0.909024
0.773257 0.728129 0.908107
0.879355 0.727685 0.907214
0.985453 0.727242 0.906321
0.044648 0.842515 0.911041
0.172697 0.841979 0.909963
0.300746 0.841444 0.908886
0.424405 0.840927 0.907846
0.545137 0.840423 0.906830
0.665869 0.839918 0.905814
0.774893 0.839462 0.904897
0.880991 0.839019 0.904004
0.987089 0.838575 0.903111
0.046284 0.953848 0.907831
0.174333 0.953313 0.906753
0.302382 0.952778 0.905676
0.426041 0.952261 0.904635
0.546773 0.951756 0.903620
0.667505 0.951252 0.902604
0.776529 0.950796 0.901687
0.882627 0.950352 0.900794
0.988725 0.949909 0.899901
