luts/natural_portrait_160.cube
TITLE "Kodak Portra 160"
LUT_3D_SIZE 33
0.077488 0.039372 0.001256
0.107182 0.039243 0.001513
0.136877 0.039115 0.001770
0.166571 0.038987 0.002027
0.196266 0.038858 0.002284
0.225960 0.038730 0.002541
0.255655 0.038601 0.002798
0.285350 0.038473 0.003054
0.315044 0.038344 0.003311
0.344739 0.038216 0.003568
0.374492 0.038087 0.003826
0.404333 0.037958 0.004084
0.434173 0.037829 0.004342
0.464014 0.037700 0.004600
0.493855 0.037571 0.004858
0.523696 0.037442 0.005116
0.553537 0.037313 0.005375
0.583377 0.037184 0.005633
0.613218 0.037055 0.005891
0.643059 0.036926 0.006149
0.672900 0.036796 0.006407
0.702039 0.036670 0.006659
0.728369 0.036556 0.006887
0.754699 0.036443 0.007115
0.781029 0.036329 0.007343
0.807359 0.036215 0.007570
0.833689 0.036101 0.007798
0.860020 0.035987 0.008026
0.886350 0.035873 0.008254
0.912680 0.035759 0.008482
0.939010 0.035645 0.008709
0.965340 0.035531 0.008937
0.991670 0.035418 0.009165
0.075819 0.068121 0.002091
0.105513 0.067993 0.002347
0.135208 0.067864 0.002604
0.164903 0.067736 0.002861
0.194597 0.067608 0.003118
0.224292 0.067479 0.003375
0.253986 0.067351 0.003632
0.283681 0.067222 0.003889
0.313375 0.067094 0.004146
0.343070 0.066965 0.004403
0.372823 0.066837 0.004660
0.402664 0.066708 0.004918
0.432505 0.066579 0.005176
0.462345 0.066449 0.005434
0.492186 0.066320 0.005693
0.522027 0.066191 0.005951
0.551868 0.066062 0.006209
0.581709 0.065933 0.006467
0.611550 0.065804 0.006725
0.641390 0.065675 0.006983
0.671231 0.065546 0.007242
0.700370 0.065420 0.007494
0.726700 0.065306 0.007721
0.753030 0.065192 0.007949
0.779360 0.065078 0.008177
0.805690 0.064964 0.008405
0.832021 0.064850 0.008633
0.858351 0.064736 0.008860
0.884681 0.064623 0.009088
0.911011 0.064509 0.009316
0.937341 0.064395 0.009544
0.963671 0.064281 0.009771
0.990001 0.064167 0.009999
0.074150 0.096871 0.002925
0.103845 0.096742 0.003182
0.133539 0.096614 0.003439
0.163234 0.096486 0.003696
0.192928 0.096357 0.003953
0.222623 0.096229 0.004209
0.252317 0.096100 0.004466
0.282012 0.095972 0.004723
0.311706 0.095843 0.004980
0.341401 0.095715 0.005237
0.371154 0.095586 0.005494
0.400995 0.095457 0.005753
0.430836 0.095328 0.006011
0.460677 0.095199 0.006269
0.490517 0.095070 0.006527
0.520358 0.094941 0.006785
0.550199 0.094812 0.007043
0.580040 0.094683 0.007301
0.609881 0.094554 0.007560
0.639722 0.094424 0.007818
0.669562 0.094295 0.008076
0.698701 0.094169 0.008328
0.725031 0.094055 0.008556
0.751361 0.093942 0.008784
0.777691 0.093828 0.009011
0.804022 0.093714 0.009239
0.830352 0.093600 0.009467
0.856682 0.093486 0.009695
0.883012 0.093372 0.009923
0.909342 0.093258 0.010150
0.935672 0.093144 0.010378
0.962002 0.093030 0.010606
0.988333 0.092916 0.010834
0.072481 0.125620 0.003759
0.102176 0.125492 0.004016
0.131870 0.125363 0.004273
0.161565 0.125235 0.004530
0.191259 0.125107 0.004787
0.220954 0.124978 0.005044
0.250649 0.124850 0.005301
0.280343 0.124721 0.005558
0.310038 0.124593 0.005814
0.339732 0.124464 0.006071
0.369485 0.124336 0.006329
0.399326 0.124207 0.006587
0.429167 0.124077 0.006845
0.459008 0.123948 0.007103
0.488849 0.123819 0.007361
0.518689 0.123690 0.007620
0.548530 0.123561 0.007878
0.578371 0.123432 0.008136
0.608212 0.123303 0.008394
0.638053 0.123174 0.008652
0.667894 0.123045 0.008910
0.697032 0.122919 0.009162
0.723362 0.122805 0.009390
0.749693 0.122691 0.009618
0.776023 0.122577 0.009846
0.802353 0.122463 0.010074
0.828683 0.122349 0.010301
0.855013 0.122235 0.010529
0.881343 0.122122 0.010757
0.907673 0.122008 0.010985
0.934004 0.121894 0.011213
0.960334 0.121780 0.011440
0.986664 0.121666 0.011668
0.070812 0.154370 0.004594
0.100507 0.154241 0.004851
0.130202 0.154113 0.005108
0.159896 0.153984 0.005364
0.189591 0.153856 0.005621
0.219285 0.153728 0.005878
0.248980 0.153599 0.006135
0.278674 0.153471 0.006392
0.308369 0.153342 0.006649
0.338063 0.153214 0.006906
0.367816 0.153085 0.007163
0.397657 0.152956 0.007421
0.427498 0.152827 0.007679
0.457339 0.152698 0.007938
0.487180 0.152569 0.008196
0.517021 0.152440 0.008454
0.546861 0.152311 0.008712
0.576702 0.152182 0.008970
0.606543 0.152052 0.009228
0.636384 0.151923 0.009487
0.666225 0.151794 0.009745
0.695363 0.151668 0.009997
0.721694 0.151554 0.010225
0.748024 0.151440 0.010452
0.774354 0.151327 0.010680
0.800684 0.151213 0.010908
0.827014 0.151099 0.011136
0.853344 0.150985 0.011364
0.879674 0.150871 0.011591
0.906005 0.150757 0.011819
0.932335 0.150643 0.012047
0.958665 0.150529 0.012275
0.984995 0.150415 0.012502
0.069144 0.183119 0.005428
0.098838 0.182991 0.005685
0.128533 0.182862 0.005942
0.158227 0.182734 0.006199
0.187922 0.182605 0.006456
0.217616 0.182477 0.006713
0.247311 0.182349 0.006970
0.277006 0.182220 0.007226
0.306700 0.182092 0.007483
0.336395 0.181963 0.007740
0.366148 0.181835 0.007998
0.395989 0.181705 0.008256
0.425829 0.181576 0.008514
0.455670 0.181447 0.008772
0.485511 0.181318 0.009030
0.515352 0.181189 0.009288
0.545193 0.181060 0.009547
0.575033 0.180931 0.009805
0.604874 0.180802 0.010063
0.634715 0.180673 0.010321
0.664556 0.180544 0.010579
0.693695 0.180418 0.010831
0.720025 0.180304 0.011059
0.746355 0.180190 0.011287
0.772685 0.180076 0.011515
0.799015 0.179962 0.011742
0.825345 0.179848 0.011970
0.851676 0.179734 0.012198
0.878006 0.179620 0.012426
0.904336 0.179507 0.012654
0.930666 0.179393 0.012881
0.956996 0.179279 0.013109
0.983326 0.179165 0.013337
0.067475 0.211869 0.006263
0.097169 0.211740 0.006519
0.126864 0.211612 0.006776
0.156559 0.211483 0.007033
0.186253 0.211355 0.007290
0.215948 0.211226 0.007547
0.245642 0.211098 0.007804
0.275337 0.210970 0.008061
0.305031 0.210841 0.008318
0.334726 0.210713 0.008575
0.364479 0.210584 0.008832
0.394320 0.210455 0.009090
0.424161 0.210326 0.009348
0.454001 0.210197 0.009606
0.483842 0.210068 0.009865
0.513683 0.209939 0.010123
0.543524 0.209810 0.010381
0.573365 0.209680 0.010639
0.603206 0.209551 0.010897
0.633046 0.209422 0.011155
0.662887 0.209293 0.011414
0.692026 0.209167 0.011666
0.718356 0.209053 0.011893
0.744686 0.208939 0.012121
0.771016 0.208826 0.012349
0.797346 0.208712 0.012577
0.823677 0.208598 0.012805
0.850007 0.208484 0.013032
0.876337 0.208370 0.013260
0.902667 0.208256 0.013488
0.928997 0.208142 0.013716
0.955327 0.208028 0.013943
0.981657 0.207914 0.014171
0.065806 0.240618 0.007097
0.095501 0.240490 0.007354
0.125195 0.240361 0.007611
0.154890 0.240233 0.007868
0.184584 0.240104 0.008125
0.214279 0.239976 0.008381
0.243973 0.239848 0.008638
0.273668 0.239719 0.008895
0.303362 0.239591 0.009152
0.333057 0.239462 0.009409
0.362810 0.239333 0.009666
0.392651 0.239204 0.009925
0.422492 0.239075 0.010183
0.452333 0.238946 0.010441
0.482173 0.238817 0.010699
0.512014 0.238688 0.010957
0.541855 0.238559 0.011215
0.571696 0.238430 0.011473
0.601537 0.238301 0.011732
0.631378 0.238172 0.011990
0.661218 0.238043 0.012248
0.690357 0.237917 0.012500
0.716687 0.237803 0.012728
0.743017 0.237689 0.012956
0.769347 0.237575 0.013183
0.795678 0.237461 0.013411
0.822008 0.237347 0.013639
0.848338 0.237233 0.013867
0.874668 0.237119 0.014095
0.900998 0.237006 0.014322
0.927328 0.236892 0.014550
0.953658 0.236778 0.014778
0.979989 0.236664 0.015006
0.064137 0.269368 0.007931
0.093832 0.269239 0.008188
0.123526 0.269111 0.008445
0.153221 0.268982 0.008702
0.182915 0.268854 0.008959
0.212610 0.268725 0.009216
0.242305 0.268597 0.009473
0.271999 0.268469 0.009730
0.301694 0.268340 0.009986
0.331388 0.268212 0.010243
0.361141 0.268083 0.010501
0.390982 0.267954 0.010759
0.420823 0.267825 0.011017
0.450664 0.267696 0.011275
0.480505 0.267567 0.011533
0.510345 0.267438 0.011792
0.540186 0.267308 0.012050
0.570027 0.267179 0.012308
0.599868 0.267050 0.012566
0.629709 0.266921 0.012824
0.659550 0.266792 0.013082
0.688688 0.266666 0.013334
0.715018 0.266552 0.013562
0.741349 0.266438 0.013790
0.767679 0.266324 0.014018
0.794009 0.266211 0.014246
0.820339 0.266097 0.014473
0.846669 0.265983 0.014701
0.872999 0.265869 0.014929
0.899329 0.265755 0.015157
0.925660 0.265641 0.015385
0.951990 0.265527 0.015612
0.978320 0.265413 0.015840
0.062468 0.298117 0.008766
0.092163 0.297989 0.009023
0.121858 0.297860 0.009280
0.151552 0.297732 0.009536
0.181247 0.297603 0.009793
0.210941 0.297475 0.010050
0.240636 0.297346 0.010307
0.270330 0.297218 0.010564
0.300025 0.297090 0.010821
0.329719 0.296961 0.011078
0.359472 0.296832 0.011335
0.389313 0.296703 0.011593
0.419154 0.296574 0.011851
0.448995 0.296445 0.012110
0.478836 0.296316 0.012368
0.508677 0.296187 0.012626
0.538517 0.296058 0.012884
0.568358 0.295929 0.013142
0.598199 0.295800 0.013400
0.628040 0.295671 0.013659
0.657881 0.295542 0.013917
0.687019 0.295416 0.014169
0.713350 0.295302 0.014397
0.739680 0.295188 0.014624
0.766010 0.295074 0.014852
0.792340 0.294960 0.015080
0.818670 0.294846 0.015308
0.845000 0.294732 0.015536
0.871330 0.294618 0.015763
0.897661 0.294504 0.015991
0.923991 0.294391 0.016219
0.950321 0.294277 0.016447
0.976651 0.294163 0.016674
0.060793 0.326984 0.009604
0.090487 0.326855 0.009860
0.120182 0.326727 0.010117
0.149877 0.326599 0.010374
0.179571 0.326470 0.010631
0.209266 0.326342 0.010888
0.238960 0.326213 0.011145
0.268655 0.326085 0.011402
0.298349 0.325956 0.011659
0.328044 0.325828 0.011916
0.357797 0.325699 0.012173
0.387638 0.325570 0.012431
0.417479 0.325441 0.012689
0.447319 0.325312 0.012947
0.477160 0.325183 0.013206
0.507001 0.325054 0.013464
0.536842 0.324925 0.013722
0.566683 0.324796 0.013980
0.596524 0.324667 0.014238
0.626364 0.324538 0.014496
0.656205 0.324408 0.014755
0.685344 0.324282 0.015007
0.711674 0.324169 0.015234
0.738004 0.324055 0.015462
0.764334 0.323941 0.015690
0.790664 0.323827 0.015918
0.816995 0.323713 0.016146
0.843325 0.323599 0.016373
0.869655 0.323485 0.016601
0.895985 0.323371 0.016829
0.922315 0.323257 0.017057
0.948645 0.323143 0.017284
0.974975 0.323030 0.017512
0.059107 0.356027 0.010446
0.088802 0.355898 0.010703
0.118496 0.355770 0.010960
0.148191 0.355641 0.011217
0.177885 0.355513 0.011474
0.207580 0.355385 0.011731
0.237274 0.355256 0.011988
0.266969 0.355128 0.012245
0.296663 0.354999 0.012502
0.326358 0.354871 0.012759
0.356111 0.354742 0.013016
0.385952 0.354613 0.013274
0.415793 0.354484 0.013532
0.445634 0.354355 0.013790
0.475474 0.354226 0.014049
0.505315 0.354097 0.014307
0.535156 0.353968 0.014565
0.564997 0.353838 0.014823
0.594838 0.353709 0.015081
0.624679 0.353580 0.015339
0.654519 0.353451 0.015597
0.683658 0.353325 0.015850
0.709988 0.353211 0.016077
0.736318 0.353097 0.016305
0.762648 0.352984 0.016533
0.788979 0.352870 0.016761
0.815309 0.352756 0.016988
0.841639 0.352642 0.017216
0.867969 0.352528 0.017444
0.894299 0.352414 0.017672
0.920629 0.352300 0.017900
0.946959 0.352186 0.018127
0.973290 0.352072 0.018355
0.057421 0.385070 0.011289
0.087116 0.384941 0.011546
0.116810 0.384813 0.011803
0.146505 0.384684 0.012060
0.176199 0.384556 0.012317
0.205894 0.384427 0.012574
0.235589 0.384299 0.012831
0.265283 0.384170 0.013088
0.294978 0.384042 0.013345
0.324672 0.383914 0.013601
0.354425 0.383785 0.013859
0.384266 0.383656 0.014117
0.414107 0.383527 0.014375
0.443948 0.383398 0.014633
0.473789 0.383269 0.014891
0.503629 0.383139 0.015150
0.533470 0.383010 0.015408
0.563311 0.382881 0.015666
0.593152 0.382752 0.015924
0.622993 0.382623 0.016182
0.652834 0.382494 0.016440
0.681972 0.382368 0.016692
0.708302 0.382254 0.016920
0.734632 0.382140 0.017148
0.760963 0.382026 0.017376
0.787293 0.381912 0.017604
0.813623 0.381799 0.017831
0.839953 0.381685 0.018059
0.866283 0.381571 0.018287
0.892613 0.381457 0.018515
0.918943 0.381343 0.018743
0.945274 0.381229 0.018970
0.971604 0.381115 0.019198
0.055735 0.414112 0.012132
0.085430 0.413984 0.012389
0.115124 0.413856 0.012646
0.144819 0.413727 0.012903
0.174514 0.413599 0.013160
0.204208 0.413470 0.013417
0.233903 0.413342 0.013674
0.263597 0.413213 0.013931
0.293292 0.413085 0.014187
0.322986 0.412956 0.014444
0.352739 0.412828 0.014702
0.382580 0.412699 0.014960
0.412421 0.412570 0.015218
0.442262 0.412440 0.015476
0.472103 0.412311 0.015734
0.501944 0.412182 0.015993
0.531784 0.412053 0.016251
0.561625 0.411924 0.016509
0.591466 0.411795 0.016767
0.621307 0.411666 0.017025
0.651148 0.411537 0.017283
0.680286 0.411411 0.017535
0.706617 0.411297 0.017763
0.732947 0.411183 0.017991
0.759277 0.411069 0.018219
0.785607 0.410955 0.018447
0.811937 0.410841 0.018674
0.838267 0.410728 0.018902
0.864597 0.410614 0.019130
0.890928 0.410500 0.019358
0.917258 0.410386 0.019585
0.943588 0.410272 0.019813
0.970021 0.410179 0.020000
0.054050 0.443155 0.012975
0.083744 0.443027 0.013232
0.113439 0.442898 0.013489
0.143133 0.442770 0.013746
0.172828 0.442641 0.014003
0.202522 0.442513 0.014260
0.232217 0.442385 0.014517
0.261911 0.442256 0.014773
0.291606 0.442128 0.015030
0.321301 0.441999 0.015287
0.351054 0.441871 0.015545
0.380894 0.441741 0.015803
0.410735 0.441612 0.016061
0.440576 0.441483 0.016319
0.470417 0.441354 0.016577
0.500258 0.441225 0.016835
0.530099 0.441096 0.017094
0.559939 0.440967 0.017352
0.589780 0.440838 0.017610
0.619621 0.440709 0.017868
0.649462 0.440580 0.018126
0.678601 0.440454 0.018378
0.704931 0.440340 0.018606
0.731261 0.440226 0.018834
0.757591 0.440112 0.019062
0.783921 0.439998 0.019289
0.810251 0.439884 0.019517
0.836581 0.439770 0.019745
0.862912 0.439656 0.019973
0.889743 0.439643 0.020000
0.916643 0.439643 0.020000
0.943542 0.439643 0.020000
0.970442 0.439643 0.020000
0.052364 0.472198 0.013818
0.082058 0.472070 0.014075
0.111753 0.471941 0.014332
0.141447 0.471813 0.014589
0.171142 0.471684 0.014846
0.200836 0.471556 0.015103
0.230531 0.471427 0.015359
0.260226 0.471299 0.015616
0.289920 0.471171 0.015873
0.319615 0.471042 0.016130
0.349368 0.470913 0.016388
0.379209 0.470784 0.016646
0.409049 0.470655 0.016904
0.438890 0.470526 0.017162
0.468731 0.470397 0.017420
0.498572 0.470268 0.017678
0.528413 0.470139 0.017937
0.558254 0.470010 0.018195
0.588094 0.469881 0.018453
0.617935 0.469752 0.018711
0.647776 0.469623 0.018969
0.676915 0.469497 0.019221
0.703245 0.469383 0.019449
0.729575 0.469269 0.019677
0.755905 0.469155 0.019905
0.782566 0.469107 0.020000
0.809466 0.469107 0.020000
0.836365 0.469107 0.020000
0.863265 0.469107 0.020000
0.890165 0.469107 0.020000
0.917064 0.469107 0.020000
0.943964 0.469107 0.020000
0.970863 0.469107 0.020000
0.050678 0.501241 0.014661
0.080372 0.501112 0.014918
0.110067 0.500984 0.015175
0.139762 0.500856 0.015432
0.169456 0.500727 0.015689
0.199151 0.500599 0.015946
0.228845 0.500470 0.016202
0.258540 0.500342 0.016459
0.288234 0.500213 0.016716
0.317929 0.500085 0.016973
0.347682 0.499956 0.017230
0.377523 0.499827 0.017489
0.407364 0.499698 0.017747
0.437204 0.499569 0.018005
0.467045 0.499440 0.018263
0.496886 0.499311 0.018521
0.526727 0.499182 0.018779
0.556568 0.499053 0.019038
0.586409 0.498924 0.019296
0.616249 0.498794 0.019554
0.646090 0.498665 0.019812
0.675389 0.498571 0.020000
0.702289 0.498571 0.020000
0.729188 0.498571 0.020000
0.756088 0.498571 0.020000
0.782988 0.498571 0.020000
0.809887 0.498571 0.020000
0.836787 0.498571 0.020000
0.863686 0.498571 0.020000
0.890586 0.498571 0.020000
0.917486 0.498571 0.020000
0.944385 0.498571 0.020000
0.971285 0.498571 0.020000
0.048992 0.530284 0.015504
0.078687 0.530155 0.015761
0.108381 0.530027 0.016018
0.138076 0.529898 0.016275
0.167770 0.529770 0.016532
0.197465 0.529642 0.016788
0.227159 0.529513 0.017045
0.256854 0.529385 0.017302
0.286548 0.529256 0.017559
0.316243 0.529128 0.017816
0.345996 0.528999 0.018073
0.375837 0.528870 0.018332
0.405678 0.528741 0.018590
0.435519 0.528612 0.018848
0.465359 0.528483 0.019106
0.495200 0.528354 0.019364
0.525041 0.528225 0.019622
0.554882 0.528095 0.019880
0.585069 0.528036 0.020000
0.615556 0.528036 0.020000
0.646042 0.528036 0.020000
0.675811 0.528036 0.020000
0.702710 0.528036 0.020000
0.729610 0.528036 0.020000
0.756509 0.528036 0.020000
0.783409 0.528036 0.020000
0.810309 0.528036 0.020000
0.837208 0.528036 0.020000
0.864108 0.528036 0.020000
0.891008 0.528036 0.020000
0.917907 0.528036 0.020000
0.944807 0.528036 0.020000
0.971706 0.528036 0.020000
0.047306 0.559327 0.016347
0.077001 0.559198 0.016604
0.106695 0.559070 0.016861
0.136390 0.558941 0.017118
0.166084 0.558813 0.017374
0.195779 0.558684 0.017631
0.225474 0.558556 0.017888
0.255168 0.558427 0.018145
0.284863 0.558299 0.018402
0.314557 0.558171 0.018659
0.344310 0.558042 0.018916
0.374151 0.557913 0.019174
0.403992 0.557784 0.019433
0.433833 0.557655 0.019691
0.463674 0.557526 0.019949
0.494032 0.557500 0.020000
0.524518 0.557500 0.020000
0.555005 0.557500 0.020000
0.585491 0.557500 0.020000
0.615977 0.557500 0.020000
0.646463 0.557500 0.020000
0.676232 0.557500 0.020000
0.703132 0.557500 0.020000
0.730031 0.557500 0.020000
0.756931 0.557500 0.020000
0.783831 0.557500 0.020000
0.810730 0.557500 0.020000
0.837630 0.557500 0.020000
0.864529 0.557500 0.020000
0.891429 0.557500 0.020000
0.918329 0.557500 0.020000
0.945228 0.557500 0.020000
0.972128 0.557500 0.020000
0.045620 0.588369 0.017190
0.075315 0.588241 0.017447
0.105010 0.588112 0.017704
0.134704 0.587984 0.017960
0.164399 0.587856 0.018217
0.194093 0.587727 0.018474
0.223788 0.587599 0.018731
0.253482 0.587470 0.018988
0.283177 0.587342 0.019245
0.312871 0.587213 0.019502
0.342624 0.587085 0.019759
0.372509 0.586964 0.020000
0.402995 0.586964 0.020000
0.433481 0.586964 0.020000
0.463967 0.586964 0.020000
0.494454 0.586964 0.020000
0.524940 0.586964 0.020000
0.555426 0.586964 0.020000
0.585912 0.586964 0.020000
0.616398 0.586964 0.020000
0.646885 0.586964 0.020000
0.676654 0.586964 0.020000
0.703553 0.586964 0.020000
0.730453 0.586964 0.020000
0.757352 0.586964 0.020000
0.784252 0.586964 0.020000
0.811152 0.586964 0.020000
0.838051 0.586964 0.020000
0.864951 0.586964 0.020000
0.891850 0.586964 0.020000
0.918750 0.586964 0.020000
0.945650 0.586964 0.020000
0.972549 0.586964 0.020000
0.043935 0.617412 0.018033
0.073629 0.617284 0.018290
0.103324 0.617155 0.018546
0.133018 0.617027 0.018803
0.162713 0.616898 0.019060
0.192407 0.616770 0.019317
0.222102 0.616642 0.019574
0.251796 0.616513 0.019831
0.281711 0.616429 0.020000
0.312047 0.616429 0.020000
0.342444 0.616429 0.020000
0.372930 0.616429 0.020000
0.403416 0.616429 0.020000
0.433903 0.616429 0.020000
0.464389 0.616429 0.020000
0.494875 0.616429 0.020000
0.525361 0.616429 0.020000
0.555847 0.616429 0.020000
0.586334 0.616429 0.020000
0.616820 0.616429 0.020000
0.647306 0.616429 0.020000
0.677075 0.616429 0.020000
0.703975 0.616429 0.020000
0.730874 0.616429 0.020000
0.757774 0.616429 0.020000
0.784673 0.616429 0.020000
0.811573 0.616429 0.020000
0.838473 0.616429 0.020000
0.865372 0.616429 0.020000
0.892272 0.616429 0.020000
0.919171 0.616429 0.020000
0.946071 0.616429 0.020000
0.972971 0.616429 0.020000
0.042269 0.646103 0.018865
0.071964 0.645975 0.019122
0.101658 0.645846 0.019379
0.131353 0.645718 0.019636
0.161047 0.645589 0.019893
0.191117 0.645536 0.020000
0.221453 0.645536 0.020000
0.251790 0.645536 0.020000
0.282127 0.645536 0.020000
0.312464 0.645536 0.020000
0.342860 0.645536 0.020000
0.373346 0.645536 0.020000
0.403833 0.645536 0.020000
0.434319 0.645536 0.020000
0.464805 0.645536 0.020000
0.495291 0.645536 0.020000
0.525778 0.645536 0.020000
0.556264 0.645536 0.020000
0.586750 0.645536 0.020000
0.617236 0.645536 0.020000
0.647722 0.645536 0.020000
0.677491 0.645536 0.020000
0.704391 0.645536 0.020000
0.731291 0.645536 0.020000
0.758190 0.645536 0.020000
0.785090 0.645536 0.020000
0.811989 0.645536 0.020000
0.838889 0.645536 0.020000
0.865789 0.645536 0.020000
0.892688 0.645536 0.020000
0.919588 0.645536 0.020000
0.946487 0.645536 0.020000
0.973387 0.645536 0.020000
0.040686 0.673386 0.019657
0.070380 0.673257 0.019914
0.100502 0.673214 0.020000
0.130839 0.673214 0.020000
0.161176 0.673214 0.020000
0.191513 0.673214 0.020000
0.221849 0.673214 0.020000
0.252186 0.673214 0.020000
0.282523 0.673214 0.020000
0.312860 0.673214 0.020000
0.343256 0.673214 0.020000
0.373742 0.673214 0.020000
0.404229 0.673214 0.020000
0.434715 0.673214 0.020000
0.465201 0.673214 0.020000
0.495687 0.673214 0.020000
0.526174 0.673214 0.020000
0.556660 0.673214 0.020000
0.587146 0.673214 0.020000
0.617632 0.673214 0.020000
0.648118 0.673214 0.020000
0.677887 0.673214 0.020000
0.704787 0.673214 0.020000
0.731687 0.673214 0.020000
0.758586 0.673214 0.020000
0.785486 0.673214 0.020000
0.812385 0.673214 0.020000
0.839285 0.673214 0.020000
0.866185 0.673214 0.020000
0.893084 0.673214 0.020000
0.919984 0.673214 0.020000
0.946883 0.673214 0.020000
0.973783 0.673214 0.020000
0.040225 0.700893 0.020000
0.070561 0.700893 0.020000
0.100898 0.700893 0.020000
0.131235 0.700893 0.020000
0.161572 0.700893 0.020000
0.191908 0.700893 0.020000
0.222245 0.700893 0.020000
0.252582 0.700893 0.020000
0.282919 0.700893 0.020000
0.313256 0.700893 0.020000
0.343652 0.700893 0.020000
0.374138 0.700893 0.020000
0.404625 0.700893 0.020000
0.435111 0.700893 0.020000
0.465597 0.700893 0.020000
0.496083 0.700893 0.020000
0.526569 0.700893 0.020000
0.557056 0.700893 0.020000
0.587542 0.700893 0.020000
0.618028 0.700893 0.020000
0.648514 0.700893 0.020000
0.678283 0.700893 0.020000
0.705183 0.700893 0.020000
0.732082 0.700893 0.020000
0.758982 0.700893 0.020000
0.785882 0.700893 0.020000
0.812781 0.700893 0.020000
0.839681 0.700893 0.020000
0.866580 0.700893 0.020000
0.893480 0.700893 0.020000
0.920380 0.700893 0.020000
0.947279 0.700893 0.020000
0.974179 0.700893 0.020000
0.040620 0.728571 0.020000
0.070957 0.728571 0.020000
0.101294 0.728571 0.020000
0.131631 0.728571 0.020000
0.161968 0.728571 0.020000
0.192304 0.728571 0.020000
0.222641 0.728571 0.020000
0.252978 0.728571 0.020000
0.283315 0.728571 0.020000
0.313651 0.728571 0.020000
0.344048 0.728571 0.020000
0.374534 0.728571 0.020000
0.405020 0.728571 0.020000
0.435507 0.728571 0.020000
0.465993 0.728571 0.020000
0.496479 0.728571 0.020000
0.526965 0.728571 0.020000
0.557452 0.728571 0.020000
0.587938 0.728571 0.020000
0.618424 0.728571 0.020000
0.648910 0.728571 0.020000
0.678679 0.728571 0.020000
0.705579 0.728571 0.020000
0.732478 0.728571 0.020000
0.759378 0.728571 0.020000
0.786278 0.728571 0.020000
0.813177 0.728571 0.020000
0.840077 0.728571 0.020000
0.866976 0.728571 0.020000
0.893876 0.728571 0.020000
0.920776 0.728571 0.020000
0.947675 0.728571 0.020000
0.974575 0.728571 0.020000
0.041016 0.756250 0.020000
0.071353 0.756250 0.020000
0.101690 0.756250 0.020000
0.132027 0.756250 0.020000
0.162363 0.756250 0.020000
0.192700 0.756250 0.020000
0.223037 0.756250 0.020000
0.253374 0.756250 0.020000
0.283711 0.756250 0.020000
0.314047 0.756250 0.020000
0.344444 0.756250 0.020000
0.374930 0.756250 0.020000
0.405416 0.756250 0.020000
0.435903 0.756250 0.020000
0.466389 0.756250 0.020000
0.496875 0.756250 0.020000
0.527361 0.756250 0.020000
0.557847 0.756250 0.020000
0.588334 0.756250 0.020000
0.618820 0.756250 0.020000
0.649306 0.756250 0.020000
0.679075 0.756250 0.020000
0.705975 0.756250 0.020000
0.732874 0.756250 0.020000
0.759774 0.756250 0.020000
0.786673 0.756250 0.020000
0.813573 0.756250 0.020000
0.840473 0.756250 0.020000
0.867372 0.756250 0.020000
0.894272 0.756250 0.020000
0.921172 0.756250 0.020000
0.948071 0.756250 0.020000
0.974971 0.756250 0.020000
0.041412 0.783929 0.020000
0.071749 0.783929 0.020000
0.102086 0.783929 0.020000
0.132423 0.783929 0.020000
0.162759 0.783929 0.020000
0.193096 0.783929 0.020000
0.223433 0.783929 0.020000
0.253770 0.783929 0.020000
0.284107 0.783929 0.020000
0.314443 0.783929 0.020000
0.344840 0.783929 0.020000
0.375326 0.783929 0.020000
0.405812 0.783929 0.020000
0.436299 0.783929 0.020000
0.466785 0.783929 0.020000
0.497271 0.783929 0.020000
0.527757 0.783929 0.020000
0.558243 0.783929 0.020000
0.588730 0.783929 0.020000
0.619216 0.783929 0.020000
0.649702 0.783929 0.020000
0.679471 0.783929 0.020000
0.706371 0.783929 0.020000
0.733270 0.783929 0.020000
0.760170 0.783929 0.020000
0.787069 0.783929 0.020000
0.813969 0.783929 0.020000
0.840869 0.783929 0.020000
0.867768 0.783929 0.020000
