luts/natural_portrait_400.cube
TITLE "Kodak Portra 400"
LUT_3D_SIZE 33
0.096662 0.049041 0.001419
0.127731 0.048777 0.001697
0.158799 0.048512 0.001975
0.189868 0.048248 0.002253
0.220937 0.047984 0.002531
0.252005 0.047720 0.002809
0.283074 0.047455 0.003087
0.314143 0.047191 0.003364
0.345211 0.046927 0.003642
0.376280 0.046663 0.003920
0.406638 0.046404 0.004192
0.435932 0.046155 0.004454
0.465225 0.045906 0.004716
0.494518 0.045657 0.004978
0.523811 0.045408 0.005240
0.553105 0.045159 0.005502
0.582398 0.044909 0.005764
0.611691 0.044660 0.006026
0.640984 0.044411 0.006288
0.670278 0.044162 0.006550
0.699571 0.043913 0.006812
0.728154 0.043670 0.007067
0.753897 0.043451 0.007298
0.779639 0.043232 0.007528
0.805382 0.043013 0.007758
0.831124 0.042794 0.007988
0.856867 0.042575 0.008219
0.882609 0.042356 0.008449
0.908352 0.042137 0.008679
0.934095 0.041918 0.008909
0.959837 0.041699 0.009139
0.985580 0.041480 0.009370
1.000000 0.041261 0.009600
0.094130 0.077961 0.002292
0.125199 0.077697 0.002570
0.156268 0.077433 0.002848
0.187336 0.077168 0.003125
0.218405 0.076904 0.003403
0.249473 0.076640 0.003681
0.280542 0.076376 0.003959
0.311611 0.076111 0.004237
0.342679 0.075847 0.004515
0.373748 0.075583 0.004793
0.404106 0.075325 0.005064
0.433400 0.075075 0.005326
0.462693 0.074826 0.005588
0.491986 0.074577 0.005850
0.521279 0.074328 0.006112
0.550573 0.074079 0.006374
0.579866 0.073830 0.006636
0.609159 0.073580 0.006898
0.638452 0.073331 0.007160
0.667746 0.073082 0.007422
0.697039 0.072833 0.007684
0.725622 0.072590 0.007940
0.751365 0.072371 0.008170
0.777107 0.072152 0.008400
0.802850 0.071933 0.008631
0.828592 0.071714 0.008861
0.854335 0.071495 0.009091
0.880077 0.071276 0.009321
0.905820 0.071057 0.009551
0.931563 0.070838 0.009782
0.957305 0.070619 0.010012
0.983048 0.070400 0.010242
1.000000 0.070181 0.010472
0.091598 0.106881 0.003164
0.122667 0.106617 0.003442
0.153736 0.106353 0.003720
0.184804 0.106089 0.003998
0.215873 0.105824 0.004276
0.246942 0.105560 0.004554
0.278010 0.105296 0.004832
0.309079 0.105032 0.005109
0.340147 0.104767 0.005387
0.371216 0.104503 0.005665
0.401574 0.104245 0.005937
0.430868 0.103996 0.006199
0.460161 0.103747 0.006461
0.489454 0.103497 0.006723
0.518748 0.103248 0.006985
0.548041 0.102999 0.007247
0.577334 0.102750 0.007509
0.606627 0.102501 0.007771
0.635921 0.102252 0.008033
0.665214 0.102002 0.008295
0.694507 0.101753 0.008557
0.723090 0.101510 0.008812
0.748833 0.101291 0.009043
0.774575 0.101072 0.009273
0.800318 0.100853 0.009503
0.826060 0.100634 0.009733
0.851803 0.100415 0.009963
0.877546 0.100196 0.010194
0.903288 0.099977 0.010424
0.929031 0.099759 0.010654
0.954773 0.099540 0.010884
0.980516 0.099321 0.011115
1.000000 0.099102 0.011345
0.089067 0.135802 0.004037
0.120135 0.135537 0.004315
0.151204 0.135273 0.004593
0.182272 0.135009 0.004870
0.213341 0.134745 0.005148
0.244410 0.134480 0.005426
0.275478 0.134216 0.005704
0.306547 0.133952 0.005982
0.337615 0.133688 0.006260
0.368684 0.133423 0.006538
0.399043 0.133165 0.006809
0.428336 0.132916 0.007071
0.457629 0.132667 0.007333
0.486922 0.132418 0.007595
0.516216 0.132169 0.007857
0.545509 0.131919 0.008119
0.574802 0.131670 0.008381
0.604095 0.131421 0.008643
0.633389 0.131172 0.008905
0.662682 0.130923 0.009167
0.691975 0.130674 0.009429
0.720558 0.130430 0.009685
0.746301 0.130211 0.009915
0.772043 0.129993 0.010145
0.797786 0.129774 0.010375
0.823529 0.129555 0.010606
0.849271 0.129336 0.010836
0.875014 0.129117 0.011066
0.900756 0.128898 0.011296
0.926499 0.128679 0.011527
0.952241 0.128460 0.011757
0.977984 0.128241 0.011987
1.000000 0.128022 0.012217
0.086535 0.164722 0.004909
0.117603 0.164458 0.005187
0.148672 0.164193 0.005465
0.179741 0.163929 0.005743
0.210809 0.163665 0.006021
0.241878 0.163401 0.006299
0.272946 0.163136 0.006576
0.304015 0.162872 0.006854
0.335084 0.162608 0.007132
0.366152 0.162344 0.007410
0.396511 0.162085 0.007682
0.425804 0.161836 0.007944
0.455097 0.161587 0.008206
0.484390 0.161338 0.008468
0.513684 0.161089 0.008730
0.542977 0.160840 0.008992
0.572270 0.160590 0.009254
0.601564 0.160341 0.009516
0.630857 0.160092 0.009778
0.660150 0.159843 0.010040
0.689443 0.159594 0.010302
0.718026 0.159351 0.010557
0.743769 0.159132 0.010787
0.769512 0.158913 0.011018
0.795254 0.158694 0.011248
0.820997 0.158475 0.011478
0.846739 0.158256 0.011708
0.872482 0.158037 0.011939
0.898224 0.157818 0.012169
0.923967 0.157599 0.012399
0.949710 0.157380 0.012629
0.975452 0.157161 0.012860
1.000000 0.156942 0.013090
0.084003 0.193642 0.005782
0.115071 0.193378 0.006060
0.146140 0.193114 0.006337
0.177209 0.192849 0.006615
0.208277 0.192585 0.006893
0.239346 0.192321 0.007171
0.270414 0.192057 0.007449
0.301483 0.191792 0.007727
0.332552 0.191528 0.008005
0.363620 0.191264 0.008283
0.393979 0.191006 0.008554
0.423272 0.190757 0.008816
0.452565 0.190507 0.009078
0.481859 0.190258 0.009340
0.511152 0.190009 0.009602
0.540445 0.189760 0.009864
0.569738 0.189511 0.010126
0.599032 0.189262 0.010388
0.628325 0.189012 0.010650
0.657618 0.188763 0.010912
0.686911 0.188514 0.011174
0.715495 0.188271 0.011430
0.741237 0.188052 0.011660
0.766980 0.187833 0.011890
0.792722 0.187614 0.012120
0.818465 0.187395 0.012351
0.844207 0.187176 0.012581
0.869950 0.186957 0.012811
0.895692 0.186738 0.013041
0.921435 0.186519 0.013272
0.947178 0.186300 0.013502
0.972920 0.186081 0.013732
0.998663 0.185863 0.013962
0.081471 0.222563 0.006654
0.112540 0.222298 0.006932
0.143608 0.222034 0.007210
0.174677 0.221770 0.007488
0.205745 0.221506 0.007766
0.236814 0.221241 0.008044
0.267883 0.220977 0.008321
0.298951 0.220713 0.008599
0.330020 0.220448 0.008877
0.361088 0.220184 0.009155
0.391447 0.219926 0.009427
0.420740 0.219677 0.009689
0.450033 0.219428 0.009951
0.479327 0.219179 0.010213
0.508620 0.218929 0.010475
0.537913 0.218680 0.010737
0.567206 0.218431 0.010998
0.596500 0.218182 0.011260
0.625793 0.217933 0.011522
0.655086 0.217684 0.011784
0.684380 0.217434 0.012046
0.712963 0.217191 0.012302
0.738705 0.216972 0.012532
0.764448 0.216753 0.012763
0.790190 0.216534 0.012993
0.815933 0.216315 0.013223
0.841675 0.216097 0.013453
0.867418 0.215878 0.013684
0.893161 0.215659 0.013914
0.918903 0.215440 0.014144
0.944646 0.215221 0.014374
0.970388 0.215002 0.014604
0.996131 0.214783 0.014835
0.078939 0.251483 0.007527
0.110008 0.251219 0.007804
0.141076 0.250954 0.008082
0.172145 0.250690 0.008360
0.203213 0.250426 0.008638
0.234282 0.250162 0.008916
0.265351 0.249897 0.009194
0.296419 0.249633 0.009472
0.327488 0.249369 0.009750
0.358557 0.249105 0.010027
0.388915 0.248846 0.010299
0.418208 0.248597 0.010561
0.447502 0.248348 0.010823
0.476795 0.248099 0.011085
0.506088 0.247850 0.011347
0.535381 0.247601 0.011609
0.564675 0.247351 0.011871
0.593968 0.247102 0.012133
0.623261 0.246853 0.012395
0.652554 0.246604 0.012657
0.681848 0.246355 0.012919
0.710431 0.246112 0.013175
0.736173 0.245893 0.013405
0.761916 0.245674 0.013635
0.787658 0.245455 0.013865
0.813401 0.245236 0.014096
0.839144 0.245017 0.014326
0.864886 0.244798 0.014556
0.890629 0.244579 0.014786
0.916371 0.244360 0.015016
0.942114 0.244141 0.015247
0.967856 0.243922 0.015477
0.993599 0.243703 0.015707
0.076407 0.280403 0.008399
0.107476 0.280139 0.008677
0.138544 0.279875 0.008955
0.169613 0.279610 0.009233
0.200682 0.279346 0.009511
0.231750 0.279082 0.009788
0.262819 0.278818 0.010066
0.293887 0.278553 0.010344
0.324956 0.278289 0.010622
0.356025 0.278025 0.010900
0.386383 0.277767 0.011171
0.415676 0.277517 0.011433
0.444970 0.277268 0.011695
0.474263 0.277019 0.011957
0.503556 0.276770 0.012219
0.532849 0.276521 0.012481
0.562143 0.276272 0.012743
0.591436 0.276022 0.013005
0.620729 0.275773 0.013267
0.650022 0.275524 0.013529
0.679316 0.275275 0.013791
0.707899 0.275032 0.014047
0.733641 0.274813 0.014277
0.759384 0.274594 0.014508
0.785127 0.274375 0.014738
0.810869 0.274156 0.014968
0.836612 0.273937 0.015198
0.862354 0.273718 0.015428
0.888097 0.273499 0.015659
0.913839 0.273280 0.015889
0.939582 0.273061 0.016119
0.965325 0.272842 0.016349
0.991067 0.272623 0.016580
0.073875 0.309323 0.009272
0.104944 0.309059 0.009549
0.136012 0.308795 0.009827
0.167081 0.308531 0.010105
0.198150 0.308266 0.010383
0.229218 0.308002 0.010661
0.260287 0.307738 0.010939
0.291356 0.307474 0.011217
0.322424 0.307209 0.011495
0.353493 0.306945 0.011772
0.383851 0.306687 0.012044
0.413144 0.306438 0.012306
0.442438 0.306189 0.012568
0.471731 0.305939 0.012830
0.501024 0.305690 0.013092
0.530318 0.305441 0.013354
0.559611 0.305192 0.013616
0.588904 0.304943 0.013878
0.618197 0.304694 0.014140
0.647491 0.304444 0.014402
0.676784 0.304195 0.014664
0.705367 0.303952 0.014920
0.731110 0.303733 0.015150
0.756852 0.303514 0.015380
0.782595 0.303295 0.015610
0.808337 0.303076 0.015840
0.834080 0.302857 0.016071
0.859822 0.302638 0.016301
0.885565 0.302419 0.016531
0.911308 0.302201 0.016761
0.937050 0.301982 0.016992
0.962793 0.301763 0.017222
0.988535 0.301544 0.017452
0.071364 0.338008 0.010137
0.102433 0.337743 0.010415
0.133501 0.337479 0.010693
0.164570 0.337215 0.010971
0.195638 0.336951 0.011248
0.226707 0.336686 0.011526
0.257776 0.336422 0.011804
0.288844 0.336158 0.012082
0.319913 0.335894 0.012360
0.350982 0.335629 0.012638
0.381340 0.335371 0.012909
0.410633 0.335122 0.013171
0.439927 0.334873 0.013433
0.469220 0.334624 0.013695
0.498513 0.334374 0.013957
0.527806 0.334125 0.014219
0.557100 0.333876 0.014481
0.586393 0.333627 0.014743
0.615686 0.333378 0.015005
0.644979 0.333129 0.015267
0.674273 0.332879 0.015529
0.702856 0.332636 0.015785
0.728598 0.332417 0.016015
0.754341 0.332198 0.016245
0.780083 0.331980 0.016476
0.805826 0.331761 0.016706
0.831569 0.331542 0.016936
0.857311 0.331323 0.017166
0.883054 0.331104 0.017397
0.908796 0.330885 0.017627
0.934539 0.330666 0.017857
0.960281 0.330447 0.018087
0.986024 0.330228 0.018317
0.068884 0.366338 0.010992
0.099952 0.366073 0.011269
0.131021 0.365809 0.011547
0.162090 0.365545 0.011825
0.193158 0.365281 0.012103
0.224227 0.365016 0.012381
0.255295 0.364752 0.012659
0.286364 0.364488 0.012937
0.317433 0.364224 0.013215
0.348501 0.363959 0.013492
0.378860 0.363701 0.013764
0.408153 0.363452 0.014026
0.437446 0.363203 0.014288
0.466740 0.362954 0.014550
0.496033 0.362705 0.014812
0.525326 0.362455 0.015074
0.554619 0.362206 0.015336
0.583913 0.361957 0.015598
0.613206 0.361708 0.015860
0.642499 0.361459 0.016122
0.671792 0.361210 0.016384
0.700376 0.360966 0.016639
0.726118 0.360747 0.016870
0.751861 0.360529 0.017100
0.777603 0.360310 0.017330
0.803346 0.360091 0.017560
0.829088 0.359872 0.017791
0.854831 0.359653 0.018021
0.880573 0.359434 0.018251
0.906316 0.359215 0.018481
0.932059 0.358996 0.018712
0.957801 0.358777 0.018942
0.983544 0.358558 0.019172
0.066404 0.394668 0.011846
0.097472 0.394403 0.012124
0.128541 0.394139 0.012402
0.159609 0.393875 0.012680
0.190678 0.393611 0.012958
0.221747 0.393346 0.013236
0.252815 0.393082 0.013513
0.283884 0.392818 0.013791
0.314952 0.392554 0.014069
0.346021 0.392289 0.014347
0.376380 0.392031 0.014619
0.405673 0.391782 0.014881
0.434966 0.391533 0.015143
0.464259 0.391284 0.015405
0.493553 0.391035 0.015667
0.522846 0.390785 0.015929
0.552139 0.390536 0.016191
0.581432 0.390287 0.016453
0.610726 0.390038 0.016715
0.640019 0.389789 0.016977
0.669312 0.389540 0.017239
0.697895 0.389297 0.017494
0.723638 0.389078 0.017724
0.749380 0.388859 0.017955
0.775123 0.388640 0.018185
0.800866 0.388421 0.018415
0.826608 0.388202 0.018645
0.852351 0.387983 0.018876
0.878093 0.387764 0.019106
0.903836 0.387545 0.019336
0.929578 0.387326 0.019566
0.955321 0.387107 0.019797
0.981064 0.386888 0.020027
0.063923 0.422998 0.012701
0.094992 0.422734 0.012979
0.126061 0.422469 0.013257
0.157129 0.422205 0.013534
0.188198 0.421941 0.013812
0.219266 0.421677 0.014090
0.250335 0.421412 0.014368
0.281404 0.421148 0.014646
0.312472 0.420884 0.014924
0.343541 0.420620 0.015202
0.373899 0.420361 0.015473
0.403193 0.420112 0.015735
0.432486 0.419863 0.015997
0.461779 0.419614 0.016259
0.491072 0.419365 0.016521
0.520366 0.419116 0.016783
0.549659 0.418866 0.017045
0.578952 0.418617 0.017307
0.608245 0.418368 0.017569
0.637539 0.418119 0.017831
0.666832 0.417870 0.018093
0.695415 0.417627 0.018349
0.721158 0.417408 0.018579
0.746900 0.417189 0.018809
0.772643 0.416970 0.019040
0.798385 0.416751 0.019270
0.824128 0.416532 0.019500
0.849870 0.416313 0.019730
0.875613 0.416094 0.019960
0.901356 0.415875 0.020191
0.927098 0.415656 0.020421
0.953015 0.415461 0.020550
0.979539 0.415350 0.020327
0.061443 0.451328 0.013556
0.092512 0.451064 0.013833
0.123580 0.450799 0.014111
0.154649 0.450535 0.014389
0.185718 0.450271 0.014667
0.216786 0.450007 0.014945
0.247855 0.449742 0.015223
0.278923 0.449478 0.015501
0.309992 0.449214 0.015778
0.341061 0.448950 0.016056
0.371419 0.448691 0.016328
0.400712 0.448442 0.016590
0.430006 0.448193 0.016852
0.459299 0.447944 0.017114
0.488592 0.447695 0.017376
0.517885 0.447446 0.017638
0.547179 0.447196 0.017900
0.576472 0.446947 0.018162
0.605765 0.446698 0.018424
0.635059 0.446449 0.018686
0.664352 0.446200 0.018948
0.692935 0.445957 0.019203
0.718677 0.445738 0.019434
0.744420 0.445519 0.019664
0.770163 0.445300 0.019894
0.795905 0.445081 0.020124
0.821648 0.444862 0.020355
0.847390 0.444643 0.020585
0.873863 0.444525 0.020391
0.900388 0.444414 0.020168
0.926912 0.444303 0.019945
0.953437 0.444192 0.019722
0.979961 0.444081 0.019499
0.058963 0.479658 0.014410
0.090032 0.479394 0.014688
0.121100 0.479129 0.014966
0.152169 0.478865 0.015244
0.183237 0.478601 0.015522
0.214306 0.478337 0.015800
0.245375 0.478072 0.016077
0.276443 0.477808 0.016355
0.307512 0.477544 0.016633
0.338580 0.477280 0.016911
0.368939 0.477021 0.017183
0.398232 0.476772 0.017445
0.427525 0.476523 0.017707
0.456819 0.476274 0.017969
0.486112 0.476025 0.018231
0.515405 0.475776 0.018493
0.544698 0.475526 0.018755
0.573992 0.475277 0.019016
0.603285 0.475028 0.019278
0.632578 0.474779 0.019540
0.661872 0.474530 0.019802
0.690455 0.474287 0.020058
0.716197 0.474068 0.020288
0.741940 0.473849 0.020519
0.768188 0.473700 0.020456
0.794712 0.473589 0.020233
0.821237 0.473478 0.020009
0.847761 0.473367 0.019786
0.874286 0.473256 0.019563
0.900810 0.473145 0.019340
0.927334 0.473035 0.019117
0.953859 0.472924 0.018894
0.980383 0.472813 0.018670
0.056483 0.507988 0.015265
0.087551 0.507724 0.015543
0.118620 0.507460 0.015821
0.149689 0.507195 0.016098
0.180757 0.506931 0.016376
0.211826 0.506667 0.016654
0.242894 0.506403 0.016932
0.273963 0.506138 0.017210
0.305032 0.505874 0.017488
0.336100 0.505610 0.017766
0.366459 0.505352 0.018037
0.395752 0.505102 0.018299
0.425045 0.504853 0.018561
0.454338 0.504604 0.018823
0.483632 0.504355 0.019085
0.512925 0.504106 0.019347
0.542218 0.503857 0.019609
0.571512 0.503607 0.019871
0.600805 0.503358 0.020133
0.630098 0.503109 0.020395
0.659585 0.502887 0.020545
0.689037 0.502764 0.020297
0.715561 0.502653 0.020074
0.742086 0.502542 0.019850
0.768610 0.502431 0.019627
0.795134 0.502320 0.019404
0.821659 0.502209 0.019181
0.848183 0.502098 0.018958
0.874708 0.501988 0.018735
0.901232 0.501877 0.018511
0.927757 0.501766 0.018288
0.954281 0.501655 0.018065
0.980805 0.501544 0.017842
0.054002 0.536318 0.016119
0.085071 0.536054 0.016397
0.116140 0.535790 0.016675
0.147208 0.535525 0.016953
0.178277 0.535261 0.017231
0.209346 0.534997 0.017509
0.240414 0.534733 0.017787
0.271483 0.534468 0.018065
0.302551 0.534204 0.018342
0.333620 0.533940 0.018620
0.363978 0.533682 0.018892
0.393272 0.533432 0.019154
0.422565 0.533183 0.019416
0.451858 0.532934 0.019678
0.481152 0.532685 0.019940
0.510445 0.532436 0.020202
0.539738 0.532187 0.020464
0.569459 0.531997 0.020478
0.599642 0.531870 0.020224
0.629825 0.531744 0.019970
0.660008 0.531618 0.019716
0.689459 0.531495 0.019468
0.715983 0.531384 0.019245
0.742508 0.531273 0.019022
0.769032 0.531162 0.018799
0.795557 0.531051 0.018576
0.822081 0.530941 0.018353
0.848605 0.530830 0.018129
0.875130 0.530719 0.017906
0.901654 0.530608 0.017683
0.928179 0.530497 0.017460
0.954703 0.530386 0.017237
0.981228 0.530275 0.017013
0.051522 0.564648 0.016974
0.082591 0.564384 0.017252
0.113659 0.564120 0.017530
0.144728 0.563855 0.017808
0.175797 0.563591 0.018086
0.206865 0.563327 0.018364
0.237934 0.563063 0.018641
0.269003 0.562798 0.018919
0.300071 0.562534 0.019197
0.331140 0.562270 0.019475
0.361498 0.562012 0.019747
0.390792 0.561763 0.020009
0.420085 0.561513 0.020270
0.449378 0.561264 0.020532
0.479332 0.561106 0.020411
0.509515 0.560980 0.020158
0.539698 0.560854 0.019904
0.569881 0.560728 0.019650
0.600064 0.560602 0.019396
0.630247 0.560476 0.019142
0.660430 0.560349 0.018888
0.689881 0.560226 0.018640
0.716405 0.560115 0.018417
0.742930 0.560004 0.018194
0.769454 0.559894 0.017970
0.795979 0.559783 0.017747
0.822503 0.559672 0.017524
0.849028 0.559561 0.017301
0.875552 0.559450 0.017078
0.902076 0.559339 0.016855
0.928601 0.559228 0.016631
0.955125 0.559117 0.016408
0.981650 0.559007 0.016185
0.049042 0.592978 0.017829
0.080111 0.592714 0.018107
0.111179 0.592450 0.018385
0.142248 0.592186 0.018662
0.173317 0.591921 0.018940
0.204385 0.591657 0.019218
0.235454 0.591393 0.019496
0.266522 0.591128 0.019774
0.297591 0.590864 0.020052
0.328660 0.590600 0.020330
0.359022 0.590342 0.020599
0.389205 0.590216 0.020345
0.419388 0.590090 0.020091
0.449571 0.589964 0.019837
0.479754 0.589838 0.019583
0.509937 0.589711 0.019329
0.540120 0.589585 0.019075
0.570303 0.589459 0.018821
0.600486 0.589333 0.018567
0.630669 0.589207 0.018313
0.660852 0.589081 0.018059
0.690303 0.588958 0.017812
0.716828 0.588847 0.017588
0.743352 0.588736 0.017365
0.769876 0.588625 0.017142
0.796401 0.588514 0.016919
0.822925 0.588403 0.016696
0.849450 0.588292 0.016472
0.875974 0.588181 0.016249
0.902499 0.588071 0.016026
0.929023 0.587960 0.015803
0.955547 0.587849 0.015580
0.982072 0.587738 0.015357
0.046562 0.621308 0.018683
0.077630 0.621044 0.018961
0.108699 0.620780 0.019239
0.139768 0.620516 0.019517
0.170836 0.620251 0.019795
0.201905 0.619987 0.020073
0.232974 0.619723 0.020351
0.264139 0.619472 0.020572
0.296151 0.619338 0.020303
0.328164 0.619204 0.020034
0.359444 0.619074 0.019770
0.389627 0.618947 0.019516
0.419810 0.618821 0.019263
0.449993 0.618695 0.019009
0.480176 0.618569 0.018755
0.510359 0.618443 0.018501
0.540542 0.618317 0.018247
0.570725 0.618190 0.017993
0.600908 0.618064 0.017739
0.631091 0.617938 0.017485
0.661274 0.617812 0.017231
0.690725 0.617689 0.016983
0.717250 0.617578 0.016760
0.743774 0.617467 0.016537
0.770299 0.617356 0.016314
0.796823 0.617245 0.016090
0.823347 0.617134 0.015867
0.849872 0.617024 0.015644
0.876396 0.616913 0.015421
0.902921 0.616802 0.015198
0.929445 0.616691 0.014975
0.955970 0.616580 0.014751
0.982494 0.616469 0.014528
0.044097 0.649461 0.019533
0.075166 0.649197 0.019811
0.106234 0.648933 0.020089
0.137303 0.648669 0.020366
0.168522 0.648425 0.020557
0.200534 0.648291 0.020288
0.232546 0.648157 0.020018
0.264559 0.648024 0.019749
0.296571 0.647890 0.019480
0.328583 0.647756 0.019210
0.359864 0.647625 0.018947
0.390047 0.647499 0.018693
0.420230 0.647373 0.018439
0.450413 0.647247 0.018185
0.480596 0.647121 0.017931
0.510779 0.646994 0.017677
0.540962 0.646868 0.017423
0.571145 0.646742 0.017170
0.601328 0.646616 0.016916
0.631510 0.646490 0.016662
0.661693 0.646364 0.016408
0.691145 0.646241 0.016160
0.717669 0.646130 0.015937
0.744194 0.646019 0.015713
0.770718 0.645908 0.015490
0.797242 0.645797 0.015267
0.823767 0.645686 0.015044
0.850291 0.645575 0.014821
0.876816 0.645464 0.014598
0.903340 0.645354 0.014374
0.929865 0.645243 0.014151
0.956389 0.645132 0.013928
0.982914 0.645021 0.013705
0.041694 0.676906 0.020361
0.072894 0.676660 0.020563
0.104906 0.676526 0.020293
0.136919 0.676392 0.020024
0.168931 0.676259 0.019755
0.200943 0.676125 0.019485
0.232955 0.675991 0.019216
0.264968 0.675857 0.018947
0.296980 0.675723 0.018677
0.328992 0.675589 0.018408
0.360273 0.675459 0.018145
0.390456 0.675333 0.017891
0.420639 0.675206 0.017637
0.450822 0.675080 0.017383
0.481005 0.674954 0.017129
0.511188 0.674828 0.016875
0.541371 0.674702 0.016621
0.571553 0.674576 0.016367
0.601736 0.674449 0.016113
0.631919 0.674323 0.015859
0.662102 0.674197 0.015605
0.691554 0.674074 0.015357
0.718078 0.673963 0.015134
0.744603 0.673852 0.014911
0.771127 0.673741 0.014688
0.797651 0.673630 0.014465
0.824176 0.673520 0.014241
0.850700 0.673409 0.014018
0.877225 0.673298 0.013795
0.903749 0.673187 0.013572
0.930274 0.673076 0.013349
0.956798 0.672965 0.013126
0.983323 0.672854 0.012902
0.041291 0.704627 0.020029
0.073303 0.704493 0.019760
0.105315 0.704360 0.019491
0.137328 0.704226 0.019221
0.169340 0.704092 0.018952
0.201352 0.703958 0.018683
0.233364 0.703824 0.018413
0.265377 0.703691 0.018144
0.297389 0.703557 0.017875
0.329401 0.703423 0.017605
0.360682 0.703292 0.017342
0.390865 0.703166 0.017088
0.421048 0.703040 0.016834
0.451231 0.702914 0.016580
0.481413 0.702787 0.016326
0.511596 0.702661 0.016072
0.541779 0.702535 0.015818
0.571962 0.702409 0.015564
0.602145 0.702283 0.015310
0.632328 0.702157 0.015057
0.662511 0.702030 0.014803
0.691963 0.701907 0.014555
0.718487 0.701797 0.014332
0.745012 0.701686 0.014108
0.771536 0.701575 0.013885
0.798060 0.701464 0.013662
0.824585 0.701353 0.013439
0.851109 0.701242 0.013216
0.877634 0.701131 0.012993
0.904158 0.701020 0.012769
0.930683 0.700910 0.012546
0.957207 0.700799 0.012323
0.983731 0.700688 0.012100
0.041700 0.732461 0.019227
0.073712 0.732327 0.018958
0.105724 0.732193 0.018688
0.137736 0.732059 0.018419
0.169749 0.731925 0.018149
0.201761 0.731792 0.017880
0.233773 0.731658 0.017611
0.265785 0.731524 0.017341
0.297798 0.731390 0.017072
0.329810 0.731256 0.016803
0.361091 0.731126 0.016540
0.391274 0.730999 0.016286
0.421456 0.730873 0.016032
0.451639 0.730747 0.015778
0.481822 0.730621 0.015524
0.512005 0.730495 0.015270
0.542188 0.730369 0.015016
0.572371 0.730242 0.014762
0.602554 0.730116 0.014508
0.632737 0.729990 0.014254
0.662920 0.729864 0.014000
0.692372 0.729741 0.013752
0.718896 0.729630 0.013529
0.745420 0.729519 0.013306
0.771945 0.729408 0.013083
0.798469 0.729297 0.012860
0.824994 0.729186 0.012636
0.851518 0.729076 0.012413
0.878043 0.728965 0.012190
0.904567 0.728854 0.011967
0.931092 0.728743 0.011744
0.957616 0.728632 0.011520
0.984140 0.728521 0.011297
0.042109 0.760294 0.018424
0.074121 0.760160 0.018155
0.106133 0.760026 0.017886
0.138145 0.759893 0.017616
0.170158 0.759759 0.017347
0.202170 0.759625 0.017078
0.234182 0.759491 0.016808
0.266194 0.759357 0.016539
0.298207 0.759224 0.016270
0.330219 0.759090 0.016000
0.361499 0.758959 0.015737
0.391682 0.758833 0.015483
0.421865 0.758707 0.015229
0.452048 0.758581 0.014975
0.482231 0.758454 0.014721
0.512414 0.758328 0.014467
0.542597 0.758202 0.014213
0.572780 0.758076 0.013959
0.602963 0.757950 0.013705
0.633146 0.757824 0.013451
0.663329 0.757697 0.013197
0.692781 0.757574 0.012950
0.719305 0.757463 0.012727
0.745829 0.757353 0.012503
0.772354 0.757242 0.012280
0.798878 0.757131 0.012057
0.825403 0.757020 0.011834
0.851927 0.756909 0.011611
0.878452 0.756798 0.011387
0.904976 0.756687 0.011164
0.931500 0.756576 0.010941
0.958025 0.756466 0.010718
0.984549 0.756355 0.010495
0.042518 0.788128 0.017622
0.074530 0.787994 0.017352
0.106542 0.787860 0.017083
0.138554 0.787726 0.016814
0.170567 0.787592 0.016544
0.202579 0.787458 0.016275
0.234591 0.787325 0.016006
0.266603 0.787191 0.015736
0.298616 0.787057 0.015467
0.330628 0.786923 0.015198
0.361908 0.786792 0.014934
0.392091 0.786666 0.014681
0.422274 0.786540 0.014427
0.452457 0.786414 0.014173
0.482640 0.786288 0.013919
0.512823 0.786162 0.013665
0.543006 0.786035 0.013411
0.573189 0.785909 0.013157
0.603372 0.785783 0.012903
0.633555 0.785657 0.012649
0.663738 0.785531 0.012395
0.693190 0.785408 0.012147
0.719714 0.785297 0.011924
0.746238 0.785186 0.011701
0.772763 0.785075 0.011478
0.799287 0.784964 0.011254
0.825812 0.784853 0.011031
0.852336 0.784742 0.010808
0.878861 0.784632 0.010585
