luts/natural_portrait_160.cube
TITLE "Kodak Portra 160"
LUT_3D_SIZE 5
0.077488 0.039372 0.001256
0.315044 0.038344 0.003311
0.553537 0.037313 0.005375
0.781029 0.036329 0.007343
0.991670 0.035418 0.009165
0.064137 0.269368 0.007931
0.301694 0.268340 0.009986
0.540186 0.267308 0.012050
0.767679 0.266324 0.014018
0.978320 0.265413 0.015840
0.050678 0.501241 0.014661
0.288234 0.500213 0.016716
0.526727 0.499182 0.018779
0.756088 0.498571 0.020000
0.971285 0.498571 0.020000
0.040620 0.728571 0.020000
0.283315 0.728571 0.020000
0.526965 0.728571 0.020000
0.759378 0.728571 0.020000
0.974575 0.728571 0.020000
0.043788 0.950000 0.020000
0.286482 0.950000 0.020000
0.530133 0.950000 0.020000
0.762545 0.950000 0.020000
0.977742 0.950000 0.020000
0.076188 0.039047 0.226906
0.313744 0.038019 0.228961
0.552237 0.036988 0.231024
0.779729 0.036004 0.232992
0.990371 0.035093 0.234815
0.062838 0.269043 0.233581
0.300394 0.268015 0.235636
0.538887 0.266984 0.237700
0.766379 0.266000 0.239668
0.977020 0.265088 0.241490
0.049378 0.500916 0.240311
0.286935 0.499888 0.242366
0.525427 0.498857 0.244429
0.756413 0.498571 0.245000
0.971610 0.498571 0.245000
0.040945 0.728571 0.245000
0.283640 0.728571 0.245000
0.527290 0.728571 0.245000
0.759703 0.728571 0.245000
0.974900 0.728571 0.245000
0.044113 0.950000 0.245000
0.286807 0.950000 0.245000
0.530458 0.950000 0.245000
0.762870 0.950000 0.245000
0.978067 0.950000 0.245000
0.074872 0.038718 0.455421
0.312428 0.037690 0.457476
0.550921 0.036659 0.459540
0.778413 0.035675 0.461508
0.989055 0.034764 0.463330
0.061522 0.268714 0.462096
0.299078 0.267686 0.464151
0.537571 0.266655 0.466215
0.765063 0.265671 0.468183
0.975704 0.264759 0.470005
0.048062 0.500587 0.468826
0.285619 0.499559 0.470881
0.524329 0.498571 0.472857
0.756742 0.498571 0.472857
0.971939 0.498571 0.472857
0.041274 0.728571 0.472857
0.283969 0.728571 0.472857
0.527619 0.728571 0.472857
0.760032 0.728571 0.472857
0.975229 0.728571 0.472857
0.044442 0.950000 0.472857
0.287136 0.950000 0.472857
0.530787 0.950000 0.472857
0.763199 0.950000 0.472857
0.978396 0.950000 0.472857
0.073568 0.038392 0.681787
0.311125 0.037364 0.683842
0.549617 0.036333 0.685906
0.777110 0.035349 0.687874
0.987751 0.034438 0.689696
0.060218 0.268388 0.688463
0.297774 0.267360 0.690518
0.536267 0.266329 0.692581
0.763759 0.265345 0.694549
0.974400 0.264433 0.696371
0.046758 0.500261 0.695192
0.284315 0.499233 0.697247
0.524655 0.498571 0.698571
0.757068 0.498571 0.698571
0.972265 0.498571 0.698571
0.041600 0.728571 0.698571
0.284295 0.728571 0.698571
0.527945 0.728571 0.698571
0.760358 0.728571 0.698571
0.975555 0.728571 0.698571
0.044768 0.950000 0.698571
0.287462 0.950000 0.698571
0.531113 0.950000 0.698571
0.763525 0.950000 0.698571
0.978722 0.950000 0.698571
0.072289 0.038072 0.903855
0.309846 0.037045 0.905910
0.548338 0.036013 0.907974
0.775831 0.035029 0.909942
0.986472 0.034118 0.911764
0.058939 0.268068 0.910531
0.296495 0.267040 0.912586
0.534988 0.266009 0.914649
0.762480 0.265025 0.916617
0.973121 0.264114 0.918439
0.045479 0.499941 0.917260
0.283036 0.498914 0.919315
0.524975 0.498571 0.920000
0.757388 0.498571 0.920000
0.972584 0.498571 0.920000
0.041920 0.728571 0.920000
0.284614 0.728571 0.920000
0.528265 0.728571 0.920000
0.760678 0.728571 0.920000
0.975874 0.728571 0.920000
0.045087 0.950000 0.920000
0.287782 0.950000 0.920000
0.531432 0.950000 0.920000
0.763845 0.950000 0.920000
0.979042 0.950000 0.920000
