luts/natural_portrait_160.cube
TITLE "Kodak Portra 160"
LUT_3D_SIZE 9
0.077488 0.039372 0.001256
0.196266 0.038858 0.002284
0.315044 0.038344 0.003311
0.434173 0.037829 0.004342
0.553537 0.037313 0.005375
0.672900 0.036796 0.006407
0.781029 0.036329 0.007343
0.886350 0.035873 0.008254
0.991670 0.035418 0.009165
0.070812 0.154370 0.004594
0.189591 0.153856 0.005621
0.308369 0.153342 0.006649
0.427498 0.152827 0.007679
0.546861 0.152311 0.008712
0.666225 0.151794 0.009745
0.774354 0.151327 0.010680
0.879674 0.150871 0.011591
0.984995 0.150415 0.012502
0.064137 0.269368 0.007931
0.182915 0.268854 0.008959
0.301694 0.268340 0.009986
0.420823 0.267825 0.011017
0.540186 0.267308 0.012050
0.659550 0.266792 0.013082
0.767679 0.266324 0.014018
0.872999 0.265869 0.014929
0.978320 0.265413 0.015840
0.057421 0.385070 0.011289
0.176199 0.384556 0.012317
0.294978 0.384042 0.013345
0.414107 0.383527 0.014375
0.533470 0.383010 0.015408
0.652834 0.382494 0.016440
0.760963 0.382026 0.017376
0.866283 0.381571 0.018287
0.971604 0.381115 0.019198
0.050678 0.501241 0.014661
0.169456 0.500727 0.015689
0.288234 0.500213 0.016716
0.407364 0.499698 0.017747
0.526727 0.499182 0.018779
0.646090 0.498665 0.019812
0.756088 0.498571 0.020000
0.863686 0.498571 0.020000
0.971285 0.498571 0.020000
0.043935 0.617412 0.018033
0.162713 0.616898 0.019060
0.281711 0.616429 0.020000
0.403416 0.616429 0.020000
0.525361 0.616429 0.020000
0.647306 0.616429 0.020000
0.757774 0.616429 0.020000
0.865372 0.616429 0.020000
0.972971 0.616429 0.020000
0.040620 0.728571 0.020000
0.161968 0.728571 0.020000
0.283315 0.728571 0.020000
0.405020 0.728571 0.020000
0.526965 0.728571 0.020000
0.648910 0.728571 0.020000
0.759378 0.728571 0.020000
0.866976 0.728571 0.020000
0.974575 0.728571 0.020000
0.042204 0.839286 0.020000
0.163551 0.839286 0.020000
0.284898 0.839286 0.020000
0.406604 0.839286 0.020000
0.528549 0.839286 0.020000
0.650494 0.839286 0.020000
0.760962 0.839286 0.020000
0.868560 0.839286 0.020000
0.976158 0.839286 0.020000
0.043788 0.950000 0.020000
0.165135 0.950000 0.020000
0.286482 0.950000 0.020000
0.408188 0.950000 0.020000
0.530133 0.950000 0.020000
0.652078 0.950000 0.020000
0.762545 0.950000 0.020000
0.870144 0.950000 0.020000
0.977742 0.950000 0.020000
0.076838 0.039209 0.114081
0.195616 0.038696 0.115109
0.314394 0.038182 0.116136
0.433524 0.037667 0.117167
0.552887 0.037150 0.118199
0.672250 0.036634 0.119232
0.780379 0.036166 0.120167
0.885700 0.035711 0.121079
0.991020 0.035255 0.121990
0.070163 0.154207 0.117419
0.188941 0.153694 0.118446
0.307719 0.153180 0.119474
0.426848 0.152664 0.120504
0.546212 0.152148 0.121537
0.665575 0.151632 0.122570
0.773704 0.151164 0.123505
0.879025 0.150709 0.124416
0.984345 0.150253 0.125327
0.063487 0.269205 0.120756
0.182266 0.268691 0.121784
0.301044 0.268178 0.122811
0.420173 0.267662 0.123842
0.539536 0.267146 0.124875
0.658900 0.266630 0.125907
0.767029 0.266162 0.126843
0.872349 0.265706 0.127754
0.977670 0.265251 0.128665
0.056771 0.384907 0.124114
0.175550 0.384393 0.125142
0.294328 0.383880 0.126169
0.413457 0.383364 0.127200
0.532820 0.382848 0.128233
0.652184 0.382332 0.129265
0.760313 0.381864 0.130201
0.865633 0.381408 0.131112
0.970954 0.380953 0.132023
0.050028 0.501078 0.127486
0.168806 0.500565 0.128514
0.287584 0.500051 0.129541
0.406714 0.499536 0.130572
0.526077 0.499019 0.131604
0.645783 0.498571 0.132500
0.756250 0.498571 0.132500
0.863849 0.498571 0.132500
0.971447 0.498571 0.132500
0.043285 0.617250 0.130858
0.162063 0.616736 0.131885
0.281873 0.616429 0.132500
0.403579 0.616429 0.132500
0.525524 0.616429 0.132500
0.647469 0.616429 0.132500
0.757936 0.616429 0.132500
0.865535 0.616429 0.132500
0.973133 0.616429 0.132500
0.040783 0.728571 0.132500
0.162130 0.728571 0.132500
0.283477 0.728571 0.132500
0.405183 0.728571 0.132500
0.527128 0.728571 0.132500
0.649073 0.728571 0.132500
0.759540 0.728571 0.132500
0.867139 0.728571 0.132500
0.974737 0.728571 0.132500
0.042367 0.839286 0.132500
0.163714 0.839286 0.132500
0.285061 0.839286 0.132500
0.406767 0.839286 0.132500
0.528711 0.839286 0.132500
0.650656 0.839286 0.132500
0.761124 0.839286 0.132500
0.868722 0.839286 0.132500
0.976321 0.839286 0.132500
0.043950 0.950000 0.132500
0.165297 0.950000 0.132500
0.286644 0.950000 0.132500
0.408350 0.950000 0.132500
0.530295 0.950000 0.132500
0.652240 0.950000 0.132500
0.762708 0.950000 0.132500
0.870306 0.950000 0.132500
0.977905 0.950000 0.132500
0.076188 0.039047 0.226906
0.194966 0.038533 0.227934
0.313744 0.038019 0.228961
0.432874 0.037504 0.229992
0.552237 0.036988 0.231024
0.671600 0.036472 0.232057
0.779729 0.036004 0.232992
0.885050 0.035548 0.233904
0.990371 0.035093 0.234815
0.069513 0.154045 0.230244
0.188291 0.153531 0.231271
0.307069 0.153017 0.232299
0.426199 0.152502 0.233329
0.545562 0.151986 0.234362
0.664925 0.151469 0.235395
0.773054 0.151002 0.236330
0.878375 0.150546 0.237241
0.983695 0.150091 0.238152
0.062838 0.269043 0.233581
0.181616 0.268529 0.234609
0.300394 0.268015 0.235636
0.419523 0.267500 0.236667
0.538887 0.266984 0.237700
0.658250 0.266467 0.238732
0.766379 0.266000 0.239668
0.871700 0.265544 0.240579
0.977020 0.265088 0.241490
0.056122 0.384745 0.236939
0.174900 0.384231 0.237967
0.293678 0.383717 0.238994
0.412807 0.383202 0.240025
0.532171 0.382686 0.241058
0.651534 0.382169 0.242090
0.759663 0.381701 0.243026
0.864984 0.381246 0.243937
0.970304 0.380790 0.244848
0.049378 0.500916 0.240311
0.168156 0.500402 0.241338
0.286935 0.499888 0.242366
0.406064 0.499373 0.243397
0.525427 0.498857 0.244429
0.645945 0.498571 0.245000
0.756413 0.498571 0.245000
0.864011 0.498571 0.245000
0.971610 0.498571 0.245000
0.042635 0.617087 0.243683
0.161413 0.616574 0.244710
0.282035 0.616429 0.245000
0.403741 0.616429 0.245000
0.525686 0.616429 0.245000
0.647631 0.616429 0.245000
0.758099 0.616429 0.245000
0.865697 0.616429 0.245000
0.973296 0.616429 0.245000
0.040945 0.728571 0.245000
0.162292 0.728571 0.245000
0.283640 0.728571 0.245000
0.405345 0.728571 0.245000
0.527290 0.728571 0.245000
0.649235 0.728571 0.245000
0.759703 0.728571 0.245000
0.867301 0.728571 0.245000
0.974900 0.728571 0.245000
0.042529 0.839286 0.245000
0.163876 0.839286 0.245000
0.285223 0.839286 0.245000
0.406929 0.839286 0.245000
0.528874 0.839286 0.245000
0.650819 0.839286 0.245000
0.761287 0.839286 0.245000
0.868885 0.839286 0.245000
0.976483 0.839286 0.245000
0.044113 0.950000 0.245000
0.165460 0.950000 0.245000
0.286807 0.950000 0.245000
0.408513 0.950000 0.245000
0.530458 0.950000 0.245000
0.652402 0.950000 0.245000
0.762870 0.950000 0.245000
0.870469 0.950000 0.245000
0.978067 0.950000 0.245000
0.075532 0.038883 0.340805
0.194310 0.038369 0.341833
0.313088 0.037855 0.342861
0.432218 0.037340 0.343891
0.551581 0.036824 0.344924
0.670944 0.036308 0.345956
0.779074 0.035840 0.346892
0.884394 0.035384 0.347803
0.989715 0.034929 0.348714
0.068857 0.153881 0.344143
0.187635 0.153367 0.345171
0.306413 0.152853 0.346198
0.425543 0.152338 0.347229
0.544906 0.151822 0.348261
0.664269 0.151305 0.349294
0.772398 0.150838 0.350229
0.877719 0.150382 0.351141
0.983039 0.149927 0.352052
0.062182 0.268879 0.347481
0.180960 0.268365 0.348508
0.299738 0.267851 0.349536
0.418867 0.267336 0.350566
0.538231 0.266820 0.351599
0.657594 0.266303 0.352632
0.765723 0.265836 0.353567
0.871044 0.265380 0.354478
0.976364 0.264924 0.355389
0.055466 0.384581 0.350839
0.174244 0.384067 0.351866
0.293022 0.383553 0.352894
0.412151 0.383038 0.353924
0.531515 0.382522 0.354957
0.650878 0.382005 0.355990
0.759007 0.381537 0.356925
0.864328 0.381082 0.357836
0.970088 0.380714 0.358571
0.048722 0.500752 0.354210
0.167501 0.500238 0.355238
0.286279 0.499724 0.356265
0.405408 0.499209 0.357296
0.524771 0.498693 0.358329
0.646109 0.498571 0.358571
0.756577 0.498571 0.358571
0.864175 0.498571 0.358571
0.971774 0.498571 0.358571
0.041979 0.616923 0.357582
0.160852 0.616429 0.358571
0.282199 0.616429 0.358571
0.403905 0.616429 0.358571
0.525850 0.616429 0.358571
0.647795 0.616429 0.358571
0.758263 0.616429 0.358571
0.865861 0.616429 0.358571
0.973460 0.616429 0.358571
0.041109 0.728571 0.358571
0.162456 0.728571 0.358571
0.283804 0.728571 0.358571
0.405509 0.728571 0.358571
0.527454 0.728571 0.358571
0.649399 0.728571 0.358571
0.759867 0.728571 0.358571
0.867465 0.728571 0.358571
0.975064 0.728571 0.358571
0.042693 0.839286 0.358571
0.164040 0.839286 0.358571
0.285387 0.839286 0.358571
0.407093 0.839286 0.358571
0.529038 0.839286 0.358571
0.650983 0.839286 0.358571
0.761451 0.839286 0.358571
0.869049 0.839286 0.358571
0.976647 0.839286 0.358571
0.044277 0.950000 0.358571
0.165624 0.950000 0.358571
0.286971 0.950000 0.358571
0.408677 0.950000 0.358571
0.530622 0.950000 0.358571
0.652566 0.950000 0.358571
0.763034 0.950000 0.358571
0.870633 0.950000 0.358571
0.978231 0.950000 0.358571
0.074872 0.038718 0.455421
0.193650 0.038204 0.456449
0.312428 0.037690 0.457476
0.431558 0.037175 0.458507
0.550921 0.036659 0.459540
0.670284 0.036142 0.460572
0.778413 0.035675 0.461508
0.883734 0.035219 0.462419
0.989055 0.034764 0.463330
0.068197 0.153716 0.458759
0.186975 0.153202 0.459786
0.305753 0.152688 0.460814
0.424882 0.152173 0.461844
0.544246 0.151657 0.462877
0.663609 0.151140 0.463910
0.771738 0.150673 0.464845
0.877059 0.150217 0.465756
0.982379 0.149762 0.466667
0.061522 0.268714 0.462096
0.180300 0.268200 0.463124
0.299078 0.267686 0.464151
0.418207 0.267171 0.465182
0.537571 0.266655 0.466215
0.656934 0.266138 0.467247
0.765063 0.265671 0.468183
0.870384 0.265215 0.469094
0.975704 0.264759 0.470005
0.054806 0.384416 0.465454
0.173584 0.383902 0.466482
0.292362 0.383388 0.467510
0.411491 0.382873 0.468540
0.530854 0.382356 0.469573
0.650218 0.381840 0.470605
0.758347 0.381372 0.471541
0.863667 0.380917 0.472452
0.970253 0.380714 0.472857
0.048062 0.500587 0.468826
0.166840 0.500073 0.469854
0.285619 0.499559 0.470881
0.404748 0.499044 0.471912
0.524329 0.498571 0.472857
0.646274 0.498571 0.472857
0.756742 0.498571 0.472857
0.864340 0.498571 0.472857
0.971939 0.498571 0.472857
0.041319 0.616758 0.472198
0.161017 0.616429 0.472857
0.282365 0.616429 0.472857
0.404070 0.616429 0.472857
0.526015 0.616429 0.472857
0.647960 0.616429 0.472857
0.758428 0.616429 0.472857
0.866026 0.616429 0.472857
0.973625 0.616429 0.472857
0.041274 0.728571 0.472857
0.162621 0.728571 0.472857
0.283969 0.728571 0.472857
0.405674 0.728571 0.472857
0.527619 0.728571 0.472857
0.649564 0.728571 0.472857
0.760032 0.728571 0.472857
0.867630 0.728571 0.472857
0.975229 0.728571 0.472857
0.042858 0.839286 0.472857
0.164205 0.839286 0.472857
0.285552 0.839286 0.472857
0.407258 0.839286 0.472857
0.529203 0.839286 0.472857
0.651148 0.839286 0.472857
0.761616 0.839286 0.472857
0.869214 0.839286 0.472857
0.976812 0.839286 0.472857
0.044442 0.950000 0.472857
0.165789 0.950000 0.472857
0.287136 0.950000 0.472857
0.408842 0.950000 0.472857
0.530787 0.950000 0.472857
0.652731 0.950000 0.472857
0.763199 0.950000 0.472857
0.870798 0.950000 0.472857
0.978396 0.950000 0.472857
0.074212 0.038553 0.570037
0.192990 0.038039 0.571064
0.311768 0.037525 0.572092
0.430898 0.037010 0.573123
0.550261 0.036494 0.574155
0.669624 0.035977 0.575188
0.777753 0.035510 0.576123
0.883074 0.035054 0.577035
0.988394 0.034599 0.577946
0.067537 0.153551 0.573375
0.186315 0.153037 0.574402
0.305093 0.152523 0.575430
0.424222 0.152008 0.576460
0.543586 0.151492 0.577493
0.662949 0.150975 0.578526
0.771078 0.150508 0.579461
0.876399 0.150052 0.580372
0.981719 0.149596 0.581283
0.060861 0.268549 0.576712
0.179640 0.268035 0.577740
0.298418 0.267521 0.578767
0.417547 0.267006 0.579798
0.536910 0.266490 0.580830
0.656274 0.265973 0.581863
0.764403 0.265505 0.582799
0.869723 0.265050 0.583710
0.975044 0.264594 0.584621
0.054145 0.384251 0.580070
0.172924 0.383737 0.581098
0.291702 0.383223 0.582125
0.410831 0.382708 0.583156
0.530194 0.382191 0.584189
0.649558 0.381675 0.585221
0.757687 0.381207 0.586157
0.863007 0.380752 0.587068
0.970418 0.380714 0.587143
0.047402 0.500422 0.583442
0.166180 0.499908 0.584469
0.284958 0.499394 0.585497
0.404088 0.498879 0.586528
0.524494 0.498571 0.587143
0.646439 0.498571 0.587143
0.756907 0.498571 0.587143
0.864505 0.498571 0.587143
0.972104 0.498571 0.587143
0.040659 0.616593 0.586813
0.161182 0.616429 0.587143
0.282530 0.616429 0.587143
0.404235 0.616429 0.587143
0.526180 0.616429 0.587143
0.648125 0.616429 0.587143
0.758593 0.616429 0.587143
0.866191 0.616429 0.587143
0.973790 0.616429 0.587143
0.041439 0.728571 0.587143
0.162787 0.728571 0.587143
0.284134 0.728571 0.587143
0.405839 0.728571 0.587143
0.527784 0.728571 0.587143
0.649729 0.728571 0.587143
0.760197 0.728571 0.587143
0.867795 0.728571 0.587143
0.975394 0.728571 0.587143
0.043023 0.839286 0.587143
0.164370 0.839286 0.587143
0.285717 0.839286 0.587143
0.407423 0.839286 0.587143
0.529368 0.839286 0.587143
0.651313 0.839286 0.587143
0.761781 0.839286 0.587143
0.869379 0.839286 0.587143
0.976977 0.839286 0.587143
0.044607 0.950000 0.587143
0.165954 0.950000 0.587143
0.287301 0.950000 0.587143
0.409007 0.950000 0.587143
0.530952 0.950000 0.587143
0.652896 0.950000 0.587143
0.763364 0.950000 0.587143
0.870963 0.950000 0.587143
0.978561 0.950000 0.587143
0.073568 0.038392 0.681787
0.192346 0.037878 0.682815
0.311125 0.037364 0.683842
0.430254 0.036849 0.684873
0.549617 0.036333 0.685906
0.668981 0.035817 0.686938
0.777110 0.035349 0.687874
0.882430 0.034893 0.688785
0.987751 0.034438 0.689696
0.066893 0.153390 0.685125
0.185671 0.152876 0.686152
0.304449 0.152362 0.687180
0.423579 0.151847 0.688211
0.542942 0.151331 0.689243
0.662305 0.150814 0.690276
0.770434 0.150347 0.691211
0.875755 0.149891 0.692122
0.981076 0.149436 0.693034
0.060218 0.268388 0.688463
0.178996 0.267874 0.689490
0.297774 0.267360 0.690518
0.416904 0.266845 0.691548
0.536267 0.266329 0.692581
0.655630 0.265812 0.693613
0.763759 0.265345 0.694549
0.869080 0.264889 0.695460
0.974400 0.264433 0.696371
0.053502 0.384090 0.691821
0.172280 0.383576 0.692848
0.291058 0.383062 0.693876
0.410187 0.382547 0.694906
0.529551 0.382031 0.695939
0.648914 0.381514 0.696972
0.757043 0.381047 0.697907
0.862980 0.380714 0.698571
0.970579 0.380714 0.698571
0.046758 0.500261 0.695192
0.165537 0.499747 0.696220
0.284315 0.499233 0.697247
0.403444 0.498718 0.698278
0.524655 0.498571 0.698571
0.646600 0.498571 0.698571
0.757068 0.498571 0.698571
0.864666 0.498571 0.698571
0.972265 0.498571 0.698571
0.040015 0.616432 0.698564
0.161343 0.616429 0.698571
0.282690 0.616429 0.698571
0.404396 0.616429 0.698571
0.526341 0.616429 0.698571
0.648286 0.616429 0.698571
0.758754 0.616429 0.698571
0.866352 0.616429 0.698571
0.973951 0.616429 0.698571
0.041600 0.728571 0.698571
0.162947 0.728571 0.698571
0.284295 0.728571 0.698571
0.406000 0.728571 0.698571
0.527945 0.728571 0.698571
0.649890 0.728571 0.698571
0.760358 0.728571 0.698571
0.867956 0.728571 0.698571
0.975555 0.728571 0.698571
0.043184 0.839286 0.698571
0.164531 0.839286 0.698571
0.285878 0.839286 0.698571
0.407584 0.839286 0.698571
0.529529 0.839286 0.698571
0.651474 0.839286 0.698571
0.761941 0.839286 0.698571
0.869540 0.839286 0.698571
0.977138 0.839286 0.698571
0.044768 0.950000 0.698571
0.166115 0.950000 0.698571
0.287462 0.950000 0.698571
0.409168 0.950000 0.698571
0.531113 0.950000 0.698571
0.653057 0.950000 0.698571
0.763525 0.950000 0.698571
0.871124 0.950000 0.698571
0.978722 0.950000 0.698571
0.072929 0.038232 0.792821
0.191707 0.037718 0.793849
0.310485 0.037205 0.794876
0.429614 0.036689 0.795907
0.548978 0.036173 0.796940
0.668341 0.035657 0.797972
0.776470 0.035189 0.798908
0.881791 0.034733 0.799819
0.987111 0.034278 0.800730
0.066254 0.153230 0.796159
0.185032 0.152716 0.797186
0.303810 0.152202 0.798214
0.422939 0.151687 0.799245
0.542303 0.151171 0.800277
0.661666 0.150655 0.801310
0.769795 0.150187 0.802245
0.875116 0.149731 0.803157
0.980436 0.149276 0.804068
0.059578 0.268228 0.799497
0.178357 0.267714 0.800524
0.297135 0.267200 0.801552
0.416264 0.266685 0.802582
0.535627 0.266169 0.803615
0.654991 0.265652 0.804648
0.763120 0.265185 0.805583
0.868440 0.264729 0.806494
0.973761 0.264274 0.807405
0.052862 0.383930 0.802855
0.171640 0.383416 0.803882
0.290419 0.382902 0.804910
0.409548 0.382387 0.805940
0.528911 0.381871 0.806973
0.648275 0.381354 0.808006
0.756404 0.380887 0.808941
0.863140 0.380714 0.809286
0.970739 0.380714 0.809286
0.046119 0.500101 0.806226
0.164897 0.499587 0.807254
0.283675 0.499074 0.808281
0.402870 0.498571 0.809286
0.524815 0.498571 0.809286
0.646760 0.498571 0.809286
0.757228 0.498571 0.809286
0.864826 0.498571 0.809286
0.972425 0.498571 0.809286
0.040156 0.616429 0.809286
0.161503 0.616429 0.809286
0.282850 0.616429 0.809286
0.404556 0.616429 0.809286
0.526501 0.616429 0.809286
0.648446 0.616429 0.809286
0.758914 0.616429 0.809286
0.866512 0.616429 0.809286
0.974110 0.616429 0.809286
0.041760 0.728571 0.809286
0.163107 0.728571 0.809286
0.284454 0.728571 0.809286
0.406160 0.728571 0.809286
0.528105 0.728571 0.809286
0.650050 0.728571 0.809286
0.760518 0.728571 0.809286
0.868116 0.728571 0.809286
0.975715 0.728571 0.809286
0.043344 0.839286 0.809286
0.164691 0.839286 0.809286
0.286038 0.839286 0.809286
0.407744 0.839286 0.809286
0.529689 0.839286 0.809286
0.651634 0.839286 0.809286
0.762101 0.839286 0.809286
0.869700 0.839286 0.809286
0.977298 0.839286 0.809286
0.044927 0.950000 0.809286
0.166275 0.950000 0.809286
0.287622 0.950000 0.809286
0.409328 0.950000 0.809286
0.531272 0.950000 0.809286
0.653217 0.950000 0.809286
0.763685 0.950000 0.809286
0.871283 0.950000 0.809286
0.978882 0.950000 0.809286
0.072289 0.038072 0.903855
0.191067 0.037559 0.904883
0.309846 0.037045 0.905910
0.428975 0.036529 0.906941
0.548338 0.036013 0.907974
0.667702 0.035497 0.909006
0.775831 0.035029 0.909942
0.881151 0.034574 0.910853
0.986472 0.034118 0.911764
0.065614 0.153070 0.907193
0.184392 0.152556 0.908221
0.303170 0.152043 0.909248
0.422300 0.151527 0.910279
0.541663 0.151011 0.911311
0.661026 0.150495 0.912344
0.769155 0.150027 0.913279
0.874476 0.149571 0.914191
0.979797 0.149116 0.915102
0.058939 0.268068 0.910531
0.177717 0.267554 0.911558
0.296495 0.267040 0.912586
0.415625 0.266525 0.913616
0.534988 0.266009 0.914649
0.654351 0.265493 0.915682
0.762480 0.265025 0.916617
0.867801 0.264569 0.917528
0.973121 0.264114 0.918439
0.052223 0.383770 0.913889
0.171001 0.383256 0.914916
0.289779 0.382742 0.915944
0.408908 0.382227 0.916974
0.528272 0.381711 0.918007
0.647635 0.381194 0.919040
0.755764 0.380727 0.919975
0.863300 0.380714 0.920000
0.970899 0.380714 0.920000
0.045479 0.499941 0.917260
0.164258 0.499428 0.918288
0.283036 0.498914 0.919315
0.403030 0.498571 0.920000
0.524975 0.498571 0.920000
0.646920 0.498571 0.920000
0.757388 0.498571 0.920000
0.864986 0.498571 0.920000
0.972584 0.498571 0.920000
0.040316 0.616429 0.920000
0.161663 0.616429 0.920000
0.283010 0.616429 0.920000
0.404716 0.616429 0.920000
0.526661 0.616429 0.920000
0.648606 0.616429 0.920000
0.759073 0.616429 0.920000
0.866672 0.616429 0.920000
0.974270 0.616429 0.920000
0.041920 0.728571 0.920000
0.163267 0.728571 0.920000
0.284614 0.728571 0.920000
0.406320 0.728571 0.920000
0.528265 0.728571 0.920000
0.650210 0.728571 0.920000
0.760678 0.728571 0.920000
0.868276 0.728571 0.920000
0.975874 0.728571 0.920000
0.043504 0.839286 0.920000
0.164851 0.839286 0.920000
0.286198 0.839286 0.920000
0.407904 0.839286 0.920000
0.529849 0.839286 0.920000
0.651793 0.839286 0.920000
0.762261 0.839286 0.920000
0.869860 0.839286 0.920000
0.977458 0.839286 0.920000
0.045087 0.950000 0.920000
0.166434 0.950000 0.920000
0.287782 0.950000 0.920000
0.409487 0.950000 0.920000
0.531432 0.950000 0.920000
0.653377 0.950000 0.920000
0.763845 0.950000 0.920000
0.871443 0.950000 0.920000
0.979042 0.950000 0.920000
