luts/neon_future.cube
TITLE "Cinema Fifth Element"
LUT_3D_SIZE 5
0.020000 0.020000 0.020000
0.375473 0.020000 0.020000
0.803633 0.020000 0.020000
1.000000 0.020000 0.020000
1.000000 0.020000 0.020000
0.020000 0.269998 0.020000
0.278157 0.239659 0.020000
0.706317 0.209414 0.020000
1.000000 0.180815 0.020000
1.000000 0.158237 0.020000
0.020000 0.612235 0.020000
0.180524 0.581896 0.020000
0.608684 0.551651 0.020000
1.000000 0.523052 0.020000
1.000000 0.500474 0.020000
0.020000 0.942824 0.020000
0.086214 0.912484 0.020000
0.514374 0.882239 0.020000
0.919228 0.853640 0.020000
1.000000 0.831062 0.020000
0.020000 1.000000 0.020000
0.020000 1.000000 0.020000
0.435255 1.000000 0.020000
0.840109 1.000000 0.020000
1.000000 1.000000 0.020000
0.020000 0.020000 0.315674
0.366607 0.020000 0.285335
0.794767 0.020000 0.255090
1.000000 0.020000 0.226491
1.000000 0.020000 0.203912
0.020000 0.261133 0.218358
0.269291 0.230793 0.188018
0.697451 0.200548 0.157773
1.000000 0.171949 0.129174
1.000000 0.149371 0.106596
0.020000 0.603370 0.120725
0.171658 0.573030 0.090386
0.599818 0.542785 0.060140
1.000000 0.514186 0.031541
1.000000 0.491608 0.020000
0.020000 0.933958 0.026415
0.077348 0.903619 0.020000
0.505508 0.873373 0.020000
0.910363 0.844774 0.020000
1.000000 0.822196 0.020000
0.020000 1.000000 0.020000
0.020000 1.000000 0.020000
0.426389 1.000000 0.020000
0.831244 1.000000 0.020000
1.000000 1.000000 0.020000
0.020000 0.020000 0.692720
0.357965 0.020000 0.662381
0.786125 0.020000 0.632135
1.000000 0.020000 0.603536
1.000000 0.020000 0.580958
0.020000 0.252491 0.595404
0.260649 0.222151 0.565064
0.688809 0.191906 0.534819
1.000000 0.163307 0.506220
1.000000 0.140729 0.483642
0.020000 0.594727 0.497771
0.163016 0.564388 0.467431
0.591176 0.534143 0.437186
0.996031 0.505544 0.408587
1.000000 0.482966 0.386009
0.020000 0.925316 0.403461
0.068706 0.894977 0.373122
0.496866 0.864731 0.342876
0.901721 0.836132 0.314277
1.000000 0.813554 0.291699
0.020000 1.000000 0.324342
0.020000 1.000000 0.294003
0.417747 1.000000 0.263757
0.822602 1.000000 0.235158
1.000000 1.000000 0.212580
0.020000 0.020000 1.000000
0.349786 0.020000 1.000000
0.777947 0.020000 0.988970
1.000000 0.020000 0.960371
1.000000 0.020000 0.937793
0.020000 0.244312 0.952238
0.252470 0.213973 0.921899
0.680630 0.183727 0.891654
1.000000 0.155128 0.863055
1.000000 0.132550 0.840476
0.020000 0.586549 0.854605
0.154837 0.556209 0.824266
0.582997 0.525964 0.794021
0.987852 0.497365 0.765422
1.000000 0.474787 0.742844
0.020000 0.917137 0.760295
0.060527 0.886798 0.729956
0.488687 0.856552 0.699711
0.893542 0.827954 0.671112
1.000000 0.805375 0.648534
0.020000 1.000000 0.681176
0.020000 1.000000 0.650837
0.409568 1.000000 0.620592
0.814423 1.000000 0.591993
1.000000 1.000000 0.569415
0.020000 0.020000 1.000000
0.342119 0.020000 1.000000
0.770279 0.020000 1.000000
1.000000 0.020000 1.000000
1.000000 0.020000 1.000000
0.020000 0.236644 1.000000
0.244802 0.206305 1.000000
0.672963 0.176060 1.000000
1.000000 0.147461 1.000000
1.000000 0.124883 1.000000
0.020000 0.578881 1.000000
0.147170 0.548542 1.000000
0.575330 0.518296 1.000000
0.980184 0.489697 1.000000
1.000000 0.467119 1.000000
0.020000 0.909469 1.000000
0.052860 0.879130 1.000000
0.481020 0.848885 1.000000
0.885874 0.820286 1.000000
1.000000 0.797708 0.983066
0.020000 1.000000 1.000000
0.020000 1.000000 0.985369
0.401901 1.000000 0.955124
0.806755 1.000000 0.926525
1.000000 1.000000 0.903947
