luts/neon_future.cube
TITLE "Cinema Fifth Element"
LUT_3D_SIZE 9
0.020000 0.020000 0.020000
0.160727 0.020000 0.020000
0.375473 0.020000 0.020000
0.590219 0.020000 0.020000
0.803633 0.020000 0.020000
1.000000 0.020000 0.020000
1.000000 0.020000 0.020000
1.000000 0.020000 0.020000
1.000000 0.020000 0.020000
0.020000 0.099435 0.020000
0.112069 0.084265 0.020000
0.326815 0.069095 0.020000
0.541561 0.053926 0.020000
0.754975 0.038850 0.020000
0.968056 0.023798 0.020000
1.000000 0.020000 0.020000
1.000000 0.020000 0.020000
1.000000 0.020000 0.020000
0.020000 0.269998 0.020000
0.063411 0.254829 0.020000
0.278157 0.239659 0.020000
0.492903 0.224489 0.020000
0.706317 0.209414 0.020000
0.919398 0.194362 0.020000
1.000000 0.180815 0.020000
1.000000 0.169526 0.020000
1.000000 0.158237 0.020000
0.020000 0.440562 0.020000
0.020000 0.425392 0.020000
0.229498 0.410223 0.020000
0.444244 0.395053 0.020000
0.657659 0.379978 0.020000
0.870740 0.364925 0.020000
1.000000 0.351379 0.020000
1.000000 0.340090 0.020000
1.000000 0.328800 0.020000
0.020000 0.612235 0.020000
0.020000 0.597066 0.020000
0.180524 0.581896 0.020000
0.395270 0.566726 0.020000
0.608684 0.551651 0.020000
0.821765 0.536599 0.020000
1.000000 0.523052 0.020000
1.000000 0.511763 0.020000
1.000000 0.500474 0.020000
0.020000 0.784186 0.020000
0.020000 0.769016 0.020000
0.131470 0.753846 0.020000
0.346216 0.738677 0.020000
0.559630 0.723601 0.020000
0.772711 0.708549 0.020000
0.964485 0.695002 0.020000
1.000000 0.683713 0.020000
1.000000 0.672424 0.020000
0.020000 0.942824 0.020000
0.020000 0.927654 0.020000
0.086214 0.912484 0.020000
0.300960 0.897315 0.020000
0.514374 0.882239 0.020000
0.727455 0.867187 0.020000
0.919228 0.853640 0.020000
1.000000 0.842351 0.020000
1.000000 0.831062 0.020000
0.020000 1.000000 0.020000
0.020000 1.000000 0.020000
0.046654 1.000000 0.020000
0.261400 1.000000 0.020000
0.474815 1.000000 0.020000
0.687896 1.000000 0.020000
0.879669 0.992310 0.020000
1.000000 0.981021 0.020000
1.000000 0.969732 0.020000
0.020000 1.000000 0.020000
0.020000 1.000000 0.020000
0.020000 1.000000 0.020000
0.221841 1.000000 0.020000
0.435255 1.000000 0.020000
0.648336 1.000000 0.020000
0.840109 1.000000 0.020000
0.999920 1.000000 0.020000
1.000000 1.000000 0.020000
0.020000 0.020000 0.122273
0.156294 0.020000 0.107103
0.371040 0.020000 0.091933
0.585786 0.020000 0.076764
0.799200 0.020000 0.061688
1.000000 0.020000 0.046636
1.000000 0.020000 0.033089
1.000000 0.020000 0.021800
1.000000 0.020000 0.020000
0.020000 0.095002 0.073614
0.107636 0.079832 0.058445
0.322382 0.064663 0.043275
0.537128 0.049493 0.028105
0.750542 0.034417 0.020000
0.963623 0.020000 0.020000
1.000000 0.020000 0.020000
1.000000 0.020000 0.020000
1.000000 0.020000 0.020000
0.020000 0.265566 0.024956
0.058978 0.250396 0.020000
0.273724 0.235226 0.020000
0.488470 0.220057 0.020000
0.701884 0.204981 0.020000
0.914965 0.189929 0.020000
1.000000 0.176382 0.020000
1.000000 0.165093 0.020000
1.000000 0.153804 0.020000
0.020000 0.436129 0.020000
0.020000 0.420960 0.020000
0.225066 0.405790 0.020000
0.439812 0.390620 0.020000
0.653226 0.375545 0.020000
0.866307 0.360493 0.020000
1.000000 0.346946 0.020000
1.000000 0.335657 0.020000
1.000000 0.324368 0.020000
0.020000 0.607802 0.020000
0.020000 0.592633 0.020000
0.176091 0.577463 0.020000
0.390837 0.562293 0.020000
0.604251 0.547218 0.020000
0.817332 0.532166 0.020000
1.000000 0.518619 0.020000
1.000000 0.507330 0.020000
1.000000 0.496041 0.020000
0.020000 0.779753 0.020000
0.020000 0.764583 0.020000
0.127037 0.749413 0.020000
0.341783 0.734244 0.020000
0.555197 0.719168 0.020000
0.768279 0.704116 0.020000
0.960052 0.690569 0.020000
1.000000 0.679280 0.020000
1.000000 0.667991 0.020000
0.020000 0.938391 0.020000
0.020000 0.923221 0.020000
0.081781 0.908051 0.020000
0.296527 0.892882 0.020000
0.509941 0.877806 0.020000
0.723022 0.862754 0.020000
0.914796 0.849207 0.020000
1.000000 0.837918 0.020000
1.000000 0.826629 0.020000
0.020000 1.000000 0.020000
0.020000 1.000000 0.020000
0.042222 1.000000 0.020000
0.256968 1.000000 0.020000
0.470382 1.000000 0.020000
0.683463 1.000000 0.020000
0.875236 0.987877 0.020000
1.000000 0.976588 0.020000
1.000000 0.965299 0.020000
0.020000 1.000000 0.020000
0.020000 1.000000 0.020000
0.020000 1.000000 0.020000
0.217408 1.000000 0.020000
0.430822 1.000000 0.020000
0.643903 1.000000 0.020000
0.835677 1.000000 0.020000
0.995488 1.000000 0.020000
1.000000 1.000000 0.020000
0.020000 0.020000 0.315674
0.151861 0.020000 0.300504
0.366607 0.020000 0.285335
0.581353 0.020000 0.270165
0.794767 0.020000 0.255090
1.000000 0.020000 0.240037
1.000000 0.020000 0.226491
1.000000 0.020000 0.215202
1.000000 0.020000 0.203912
0.020000 0.090569 0.267016
0.103203 0.075399 0.251846
0.317949 0.060230 0.236677
0.532695 0.045060 0.221507
0.746109 0.029984 0.206431
0.959190 0.020000 0.191379
1.000000 0.020000 0.177832
1.000000 0.020000 0.166543
1.000000 0.020000 0.155254
0.020000 0.261133 0.218358
0.054545 0.245963 0.203188
0.269291 0.230793 0.188018
0.484037 0.215624 0.172849
0.697451 0.200548 0.157773
0.910532 0.185496 0.142721
1.000000 0.171949 0.129174
1.000000 0.160660 0.117885
1.000000 0.149371 0.106596
0.020000 0.431696 0.169700
0.020000 0.416527 0.154530
0.220633 0.401357 0.139360
0.435379 0.386187 0.124191
0.648793 0.371112 0.109115
0.861874 0.356060 0.094063
1.000000 0.342513 0.080516
1.000000 0.331224 0.069227
1.000000 0.319935 0.057938
0.020000 0.603370 0.120725
0.020000 0.588200 0.105555
0.171658 0.573030 0.090386
0.386404 0.557860 0.075216
0.599818 0.542785 0.060140
0.812899 0.527733 0.045088
1.000000 0.514186 0.031541
1.000000 0.502897 0.020252
1.000000 0.491608 0.020000
0.020000 0.775320 0.071671
0.020000 0.760150 0.056501
0.122604 0.744981 0.041332
0.337350 0.729811 0.026162
0.550764 0.714735 0.020000
0.763846 0.699683 0.020000
0.955619 0.686136 0.020000
1.000000 0.674847 0.020000
1.000000 0.663558 0.020000
0.020000 0.933958 0.026415
0.020000 0.918788 0.020000
0.077348 0.903619 0.020000
0.292094 0.888449 0.020000
0.505508 0.873373 0.020000
0.718590 0.858321 0.020000
0.910363 0.844774 0.020000
1.000000 0.833485 0.020000
1.000000 0.822196 0.020000
0.020000 1.000000 0.020000
0.020000 1.000000 0.020000
0.037789 1.000000 0.020000
0.252535 1.000000 0.020000
0.465949 1.000000 0.020000
0.679030 0.996991 0.020000
0.870803 0.983444 0.020000
1.000000 0.972155 0.020000
1.000000 0.960866 0.020000
0.020000 1.000000 0.020000
0.020000 1.000000 0.020000
0.020000 1.000000 0.020000
0.212975 1.000000 0.020000
0.426389 1.000000 0.020000
0.639471 1.000000 0.020000
0.831244 1.000000 0.020000
0.991055 1.000000 0.020000
1.000000 1.000000 0.020000
0.020000 0.020000 0.509076
0.147428 0.020000 0.493906
0.362174 0.020000 0.478736
0.576920 0.020000 0.463567
0.790335 0.020000 0.448491
1.000000 0.020000 0.433439
1.000000 0.020000 0.419892
1.000000 0.020000 0.408603
1.000000 0.020000 0.397314
0.020000 0.086136 0.460417
0.098770 0.070967 0.445248
0.313516 0.055797 0.430078
0.528262 0.040627 0.414908
0.741676 0.025552 0.399833
0.954758 0.020000 0.384781
1.000000 0.020000 0.371234
1.000000 0.020000 0.359945
1.000000 0.020000 0.348656
0.020000 0.256700 0.411759
0.050112 0.241530 0.396590
0.264858 0.226361 0.381420
0.479604 0.211191 0.366250
0.693018 0.196115 0.351175
0.906099 0.181063 0.336123
1.000000 0.167516 0.322576
1.000000 0.156227 0.311287
1.000000 0.144938 0.299998
0.020000 0.427264 0.363101
0.020000 0.412094 0.347931
0.216200 0.396924 0.332762
0.430946 0.381755 0.317592
0.644360 0.366679 0.302516
0.857441 0.351627 0.287464
1.000000 0.338080 0.273918
1.000000 0.326791 0.262628
1.000000 0.315502 0.251339
0.020000 0.598937 0.314126
0.020000 0.583767 0.298957
0.167225 0.568597 0.283787
0.381971 0.553428 0.268617
0.595385 0.538352 0.253542
0.808467 0.523300 0.238490
1.000000 0.509753 0.224943
1.000000 0.498464 0.213654
1.000000 0.487175 0.202365
0.020000 0.770887 0.265073
0.020000 0.755717 0.249903
0.118171 0.740548 0.234733
0.332917 0.725378 0.219564
0.546332 0.710302 0.204488
0.759413 0.695250 0.189436
0.951186 0.681703 0.175889
1.000000 0.670414 0.164600
1.000000 0.659125 0.153311
0.020000 0.929525 0.219817
0.020000 0.914355 0.204647
0.072915 0.899186 0.189477
0.287661 0.884016 0.174308
0.501076 0.868941 0.159232
0.714157 0.853888 0.144180
0.905930 0.840342 0.130633
1.000000 0.829052 0.119344
1.000000 0.817763 0.108055
0.020000 1.000000 0.180257
0.020000 1.000000 0.165087
0.033356 1.000000 0.149918
0.248102 1.000000 0.134748
0.461516 1.000000 0.119672
0.674597 0.992558 0.104620
0.866370 0.979011 0.091074
1.000000 0.967722 0.079784
1.000000 0.956433 0.068495
0.020000 1.000000 0.140698
0.020000 1.000000 0.125528
0.020000 1.000000 0.110358
0.208542 1.000000 0.095189
0.421957 1.000000 0.080113
0.635038 1.000000 0.065061
0.826811 1.000000 0.051514
0.986622 1.000000 0.040225
1.000000 1.000000 0.028936
0.020000 0.020000 0.692720
0.143219 0.020000 0.677550
0.357965 0.020000 0.662381
0.572711 0.020000 0.647211
0.786125 0.020000 0.632135
0.999207 0.020000 0.617083
1.000000 0.020000 0.603536
1.000000 0.020000 0.592247
1.000000 0.020000 0.580958
0.020000 0.081927 0.644062
0.094561 0.066757 0.628892
0.309307 0.051588 0.613722
0.524053 0.036418 0.598553
0.737467 0.021342 0.583477
0.950548 0.020000 0.568425
1.000000 0.020000 0.554878
1.000000 0.020000 0.543589
1.000000 0.020000 0.532300
0.020000 0.252491 0.595404
0.045903 0.237321 0.580234
0.260649 0.222151 0.565064
0.475395 0.206982 0.549895
0.688809 0.191906 0.534819
0.901890 0.176854 0.519767
1.000000 0.163307 0.506220
1.000000 0.152018 0.494931
1.000000 0.140729 0.483642
0.020000 0.423054 0.546745
0.020000 0.407885 0.531576
0.211991 0.392715 0.516406
0.426737 0.377545 0.501236
0.640151 0.362470 0.486161
0.853232 0.347418 0.471109
1.000000 0.333871 0.457562
1.000000 0.322582 0.446273
1.000000 0.311293 0.434984
0.020000 0.594727 0.497771
0.020000 0.579558 0.482601
0.163016 0.564388 0.467431
0.377762 0.549218 0.452262
0.591176 0.534143 0.437186
0.804257 0.519091 0.422134
0.996031 0.505544 0.408587
1.000000 0.494255 0.397298
1.000000 0.482966 0.386009
0.020000 0.766678 0.448717
0.020000 0.751508 0.433547
0.113962 0.736338 0.418378
0.328708 0.721169 0.403208
0.542122 0.706093 0.388132
0.755204 0.691041 0.373080
0.946977 0.677494 0.359533
1.000000 0.666205 0.348244
1.000000 0.654916 0.336955
0.020000 0.925316 0.403461
0.020000 0.910146 0.388291
0.068706 0.894977 0.373122
0.283452 0.879807 0.357952
0.496866 0.864731 0.342876
0.709948 0.849679 0.327824
0.901721 0.836132 0.314277
1.000000 0.824843 0.302988
1.000000 0.813554 0.291699
0.020000 1.000000 0.363901
0.020000 1.000000 0.348732
0.029147 1.000000 0.333562
0.243893 1.000000 0.318392
0.457307 1.000000 0.303317
0.670388 0.988349 0.288265
0.862161 0.974802 0.274718
1.000000 0.963513 0.263429
1.000000 0.952224 0.252140
0.020000 1.000000 0.324342
0.020000 1.000000 0.309172
0.020000 1.000000 0.294003
0.204333 1.000000 0.278833
0.417747 1.000000 0.263757
0.630829 1.000000 0.248705
0.822602 1.000000 0.235158
0.982413 1.000000 0.223869
1.000000 1.000000 0.212580
0.020000 0.020000 0.873925
0.139066 0.020000 0.858755
0.353812 0.020000 0.843586
0.568558 0.020000 0.828416
0.781972 0.020000 0.813340
0.995053 0.020000 0.798288
1.000000 0.020000 0.784741
1.000000 0.020000 0.773452
1.000000 0.020000 0.762163
0.020000 0.077774 0.825267
0.090408 0.062604 0.810097
0.305154 0.047434 0.794927
0.519900 0.032265 0.779758
0.733314 0.020000 0.764682
0.946395 0.020000 0.749630
1.000000 0.020000 0.736083
1.000000 0.020000 0.724794
1.000000 0.020000 0.713505
0.020000 0.248337 0.776609
0.041750 0.233168 0.761439
0.256496 0.217998 0.746269
0.471241 0.202828 0.731100
0.684656 0.187753 0.716024
0.897737 0.172701 0.700972
1.000000 0.159154 0.687425
1.000000 0.147865 0.676136
1.000000 0.136576 0.664847
0.020000 0.418901 0.727950
0.020000 0.403731 0.712781
0.207837 0.388562 0.697611
0.422583 0.373392 0.682441
0.635998 0.358316 0.667366
0.849079 0.343264 0.652314
1.000000 0.329718 0.638767
1.000000 0.318428 0.627478
1.000000 0.307139 0.616189
0.020000 0.590574 0.678976
0.020000 0.575404 0.663806
0.158863 0.560235 0.648636
0.373609 0.545065 0.633467
0.587023 0.529990 0.618391
0.800104 0.514937 0.603339
0.991877 0.501391 0.589792
1.000000 0.490101 0.578503
1.000000 0.478812 0.567214
0.020000 0.762525 0.629922
0.020000 0.747355 0.614752
0.109809 0.732185 0.599583
0.324555 0.717015 0.584413
0.537969 0.701940 0.569337
0.751050 0.686888 0.554285
0.942823 0.673341 0.540738
1.000000 0.662052 0.529449
1.000000 0.650763 0.518160
0.020000 0.921163 0.584666
0.020000 0.905993 0.569496
0.064553 0.890823 0.554327
0.279299 0.875654 0.539157
0.492713 0.860578 0.524081
0.705794 0.845526 0.509029
0.897567 0.831979 0.495482
1.000000 0.820690 0.484193
1.000000 0.809401 0.472904
0.020000 1.000000 0.545106
0.020000 1.000000 0.529937
0.024993 1.000000 0.514767
0.239739 1.000000 0.499597
0.453153 0.999248 0.484522
0.666235 0.984196 0.469470
0.858008 0.970649 0.455923
1.000000 0.959360 0.444634
1.000000 0.948071 0.433345
0.020000 1.000000 0.505547
0.020000 1.000000 0.490377
0.020000 1.000000 0.475208
0.200180 1.000000 0.460038
0.413594 1.000000 0.444962
0.626675 1.000000 0.429910
0.818448 1.000000 0.416363
0.978259 1.000000 0.405074
1.000000 1.000000 0.393785
0.020000 0.020000 1.000000
0.135040 0.020000 1.000000
0.349786 0.020000 1.000000
0.564532 0.020000 1.000000
0.777947 0.020000 0.988970
0.991028 0.020000 0.973918
1.000000 0.020000 0.960371
1.000000 0.020000 0.949082
1.000000 0.020000 0.937793
0.020000 0.073748 1.000000
0.086382 0.058579 0.985727
0.301128 0.043409 0.970557
0.515874 0.028239 0.955387
0.729288 0.020000 0.940312
0.942370 0.020000 0.925260
1.000000 0.020000 0.911713
1.000000 0.020000 0.900424
1.000000 0.020000 0.889135
0.020000 0.244312 0.952238
0.037724 0.229142 0.937068
0.252470 0.213973 0.921899
0.467216 0.198803 0.906729
0.680630 0.183727 0.891654
0.893711 0.168675 0.876601
1.000000 0.155128 0.863055
1.000000 0.143839 0.851765
1.000000 0.132550 0.840476
0.020000 0.414876 0.903580
0.020000 0.399706 0.888410
0.203812 0.384536 0.873241
0.418558 0.369367 0.858071
0.631972 0.354291 0.842995
0.845053 0.339239 0.827943
1.000000 0.325692 0.814396
1.000000 0.314403 0.803107
1.000000 0.303114 0.791818
0.020000 0.586549 0.854605
0.020000 0.571379 0.839436
0.154837 0.556209 0.824266
0.369583 0.541040 0.809096
0.582997 0.525964 0.794021
0.796079 0.510912 0.778969
0.987852 0.497365 0.765422
1.000000 0.486076 0.754133
1.000000 0.474787 0.742844
0.020000 0.758499 0.805552
0.020000 0.743329 0.790382
0.105783 0.728160 0.775212
0.320529 0.712990 0.760042
0.533944 0.697914 0.744967
0.747025 0.682862 0.729915
0.938798 0.669315 0.716368
1.000000 0.658026 0.705079
1.000000 0.646737 0.693790
0.020000 0.917137 0.760295
0.020000 0.901967 0.745126
0.060527 0.886798 0.729956
0.275273 0.871628 0.714786
0.488687 0.856552 0.699711
0.701769 0.841500 0.684659
0.893542 0.827954 0.671112
1.000000 0.816664 0.659823
1.000000 0.805375 0.648534
0.020000 1.000000 0.720736
0.020000 1.000000 0.705566
0.020968 1.000000 0.690397
0.235714 1.000000 0.675227
0.449128 0.995222 0.660151
0.662209 0.980170 0.645099
0.853982 0.966623 0.631552
1.000000 0.955334 0.620263
1.000000 0.944045 0.608974
0.020000 1.000000 0.681176
0.020000 1.000000 0.666007
0.020000 1.000000 0.650837
0.196154 1.000000 0.635667
0.409568 1.000000 0.620592
0.622650 1.000000 0.605540
0.814423 1.000000 0.591993
0.974234 1.000000 0.580704
1.000000 1.000000 0.569415
0.020000 0.020000 1.000000
0.131207 0.020000 1.000000
0.345953 0.020000 1.000000
0.560699 0.020000 1.000000
0.774113 0.020000 1.000000
0.987194 0.020000 1.000000
1.000000 0.020000 1.000000
1.000000 0.020000 1.000000
1.000000 0.020000 1.000000
0.020000 0.069914 1.000000
0.082548 0.054745 1.000000
0.297294 0.039575 1.000000
0.512040 0.024405 1.000000
0.725455 0.020000 1.000000
0.938536 0.020000 1.000000
1.000000 0.020000 1.000000
1.000000 0.020000 1.000000
1.000000 0.020000 1.000000
0.020000 0.240478 1.000000
0.033890 0.225308 1.000000
0.248636 0.210139 1.000000
0.463382 0.194969 1.000000
0.676796 0.179893 1.000000
0.889878 0.164841 1.000000
1.000000 0.151294 1.000000
1.000000 0.140005 1.000000
1.000000 0.128716 1.000000
0.020000 0.411042 1.000000
0.020000 0.395872 1.000000
0.199978 0.380702 1.000000
0.414724 0.365533 1.000000
0.628138 0.350457 1.000000
0.841219 0.335405 0.995209
1.000000 0.321858 0.981663
1.000000 0.310569 0.970373
1.000000 0.299280 0.959084
0.020000 0.582715 1.000000
0.020000 0.567545 1.000000
0.151003 0.552375 0.991532
0.365749 0.537206 0.976362
0.579164 0.522130 0.961287
0.792245 0.507078 0.946235
0.984018 0.493531 0.932688
1.000000 0.482242 0.921399
1.000000 0.470953 0.910110
0.020000 0.754665 0.972818
0.020000 0.739496 0.957648
0.101950 0.724326 0.942478
0.316696 0.709156 0.927309
0.530110 0.694081 0.912233
0.743191 0.679028 0.897181
0.934964 0.665482 0.883634
1.000000 0.654193 0.872345
1.000000 0.642903 0.861056
0.020000 0.913303 0.927562
0.020000 0.898134 0.912392
0.056694 0.882964 0.897222
0.271439 0.867794 0.882053
0.484854 0.852719 0.866977
0.697935 0.837667 0.851925
0.889708 0.824120 0.838378
1.000000 0.812831 0.827089
1.000000 0.801542 0.815800
0.020000 1.000000 0.888002
0.020000 1.000000 0.872832
0.020000 1.000000 0.857663
0.231880 1.000000 0.842493
0.445294 0.991388 0.827417
0.658375 0.976336 0.812365
0.850149 0.962789 0.798819
1.000000 0.951500 0.787529
1.000000 0.940211 0.776240
0.020000 1.000000 0.848443
0.020000 1.000000 0.833273
0.020000 1.000000 0.818103
0.192320 1.000000 0.802934
0.405735 1.000000 0.787858
0.618816 1.000000 0.772806
0.810589 1.000000 0.759259
0.970400 1.000000 0.747970
1.000000 1.000000 0.736681
0.020000 0.020000 1.000000
0.127373 0.020000 1.000000
0.342119 0.020000 1.000000
0.556865 0.020000 1.000000
0.770279 0.020000 1.000000
0.983360 0.020000 1.000000
1.000000 0.020000 1.000000
1.000000 0.020000 1.000000
1.000000 0.020000 1.000000
0.020000 0.066081 1.000000
0.078715 0.050911 1.000000
0.293461 0.035741 1.000000
0.508207 0.020572 1.000000
0.721621 0.020000 1.000000
0.934702 0.020000 1.000000
1.000000 0.020000 1.000000
1.000000 0.020000 1.000000
1.000000 0.020000 1.000000
0.020000 0.236644 1.000000
0.030056 0.221475 1.000000
0.244802 0.206305 1.000000
0.459548 0.191135 1.000000
0.672963 0.176060 1.000000
0.886044 0.161008 1.000000
1.000000 0.147461 1.000000
1.000000 0.136172 1.000000
1.000000 0.124883 1.000000
0.020000 0.407208 1.000000
0.020000 0.392038 1.000000
0.196144 0.376869 1.000000
0.410890 0.361699 1.000000
0.624304 0.346623 1.000000
0.837386 0.331571 1.000000
1.000000 0.318024 1.000000
1.000000 0.306735 1.000000
1.000000 0.295446 1.000000
0.020000 0.578881 1.000000
0.020000 0.563711 1.000000
0.147170 0.548542 1.000000
0.361915 0.533372 1.000000
0.575330 0.518296 1.000000
0.788411 0.503244 1.000000
0.980184 0.489697 1.000000
1.000000 0.478408 1.000000
1.000000 0.467119 1.000000
0.020000 0.750831 1.000000
0.020000 0.735662 1.000000
0.098116 0.720492 1.000000
0.312862 0.705322 1.000000
0.526276 0.690247 1.000000
0.739357 0.675195 1.000000
0.931130 0.661648 1.000000
1.000000 0.650359 1.000000
1.000000 0.639070 1.000000
0.020000 0.909469 1.000000
0.020000 0.894300 1.000000
0.052860 0.879130 1.000000
0.267606 0.863960 1.000000
0.481020 0.848885 1.000000
0.694101 0.833833 1.000000
0.885874 0.820286 1.000000
1.000000 0.808997 0.994355
1.000000 0.797708 0.983066
0.020000 1.000000 1.000000
0.020000 1.000000 1.000000
0.020000 1.000000 1.000000
0.228046 1.000000 1.000000
0.441460 0.987555 0.994684
0.654542 0.972502 0.979632
0.846315 0.958956 0.966085
1.000000 0.947666 0.954796
1.000000 0.936377 0.943507
0.020000 1.000000 1.000000
0.020000 1.000000 1.000000
0.020000 1.000000 0.985369
0.188487 1.000000 0.970200
0.401901 1.000000 0.955124
0.614982 1.000000 0.940072
0.806755 1.000000 0.926525
0.966566 1.000000 0.915236
1.000000 1.000000 0.903947
