luts/neon_future.cube
TITLE "Cinema Fifth Element"
LUT_3D_SIZE 33
0.020000 0.020000 0.020000
0.020000 0.020000 0.020000
0.053354 0.020000 0.020000
0.107041 0.020000 0.020000
0.160727 0.020000 0.020000
0.214414 0.020000 0.020000
0.268100 0.020000 0.020000
0.321787 0.020000 0.020000
0.375473 0.020000 0.020000
0.429159 0.020000 0.020000
0.482846 0.020000 0.020000
0.536532 0.020000 0.020000
0.590219 0.020000 0.020000
0.643822 0.020000 0.020000
0.697093 0.020000 0.020000
0.750363 0.020000 0.020000
0.803633 0.020000 0.020000
0.856903 0.020000 0.020000
0.910174 0.020000 0.020000
0.963444 0.020000 0.020000
1.000000 0.020000 0.020000
1.000000 0.020000 0.020000
1.000000 0.020000 0.020000
1.000000 0.020000 0.020000
1.000000 0.020000 0.020000
1.000000 0.020000 0.020000
1.000000 0.020000 0.020000
1.000000 0.020000 0.020000
1.000000 0.020000 0.020000
1.000000 0.020000 0.020000
1.000000 0.020000 0.020000
1.000000 0.020000 0.020000
1.000000 0.020000 0.020000
0.020000 0.020000 0.020000
0.020000 0.020000 0.020000
0.041190 0.020000 0.020000
0.094876 0.020000 0.020000
0.148562 0.020000 0.020000
0.202249 0.020000 0.020000
0.255935 0.020000 0.020000
0.309622 0.020000 0.020000
0.363308 0.020000 0.020000
0.416995 0.020000 0.020000
0.470681 0.020000 0.020000
0.524368 0.020000 0.020000
0.578054 0.020000 0.020000
0.631658 0.020000 0.020000
0.684928 0.020000 0.020000
0.738198 0.020000 0.020000
0.791469 0.020000 0.020000
0.844739 0.020000 0.020000
0.898009 0.020000 0.020000
0.951280 0.020000 0.020000
1.000000 0.020000 0.020000
1.000000 0.020000 0.020000
1.000000 0.020000 0.020000
1.000000 0.020000 0.020000
1.000000 0.020000 0.020000
1.000000 0.020000 0.020000
1.000000 0.020000 0.020000
1.000000 0.020000 0.020000
1.000000 0.020000 0.020000
1.000000 0.020000 0.020000
1.000000 0.020000 0.020000
1.000000 0.020000 0.020000
1.000000 0.020000 0.020000
0.020000 0.020000 0.020000
0.020000 0.020000 0.020000
0.029025 0.020000 0.020000
0.082711 0.020000 0.020000
0.136398 0.020000 0.020000
0.190084 0.020000 0.020000
0.243771 0.020000 0.020000
0.297457 0.020000 0.020000
0.351144 0.020000 0.020000
0.404830 0.020000 0.020000
0.458517 0.020000 0.020000
0.512203 0.020000 0.020000
0.565890 0.020000 0.020000
0.619493 0.020000 0.020000
0.672763 0.020000 0.020000
0.726034 0.020000 0.020000
0.779304 0.020000 0.020000
0.832574 0.020000 0.020000
0.885845 0.020000 0.020000
0.939115 0.020000 0.020000
0.992385 0.020000 0.020000
1.000000 0.020000 0.020000
1.000000 0.020000 0.020000
1.000000 0.020000 0.020000
1.000000 0.020000 0.020000
1.000000 0.020000 0.020000
1.000000 0.020000 0.020000
1.000000 0.020000 0.020000
1.000000 0.020000 0.020000
1.000000 0.020000 0.020000
1.000000 0.020000 0.020000
1.000000 0.020000 0.020000
1.000000 0.020000 0.020000
0.020000 0.056794 0.020000
0.020000 0.053001 0.020000
0.020000 0.049209 0.020000
0.070547 0.045417 0.020000
0.124233 0.041624 0.020000
0.177920 0.037832 0.020000
0.231606 0.034039 0.020000
0.285293 0.030247 0.020000
0.338979 0.026455 0.020000
0.392666 0.022662 0.020000
0.446352 0.020000 0.020000
0.500039 0.020000 0.020000
0.553725 0.020000 0.020000
0.607329 0.020000 0.020000
0.660599 0.020000 0.020000
0.713869 0.020000 0.020000
0.767139 0.020000 0.020000
0.820410 0.020000 0.020000
0.873680 0.020000 0.020000
0.926950 0.020000 0.020000
0.980221 0.020000 0.020000
1.000000 0.020000 0.020000
1.000000 0.020000 0.020000
1.000000 0.020000 0.020000
1.000000 0.020000 0.020000
1.000000 0.020000 0.020000
1.000000 0.020000 0.020000
1.000000 0.020000 0.020000
1.000000 0.020000 0.020000
1.000000 0.020000 0.020000
1.000000 0.020000 0.020000
1.000000 0.020000 0.020000
1.000000 0.020000 0.020000
0.020000 0.099435 0.020000
0.020000 0.095642 0.020000
0.020000 0.091850 0.020000
0.058382 0.088058 0.020000
0.112069 0.084265 0.020000
0.165755 0.080473 0.020000
0.219442 0.076680 0.020000
0.273128 0.072888 0.020000
0.326815 0.069095 0.020000
0.380501 0.065303 0.020000
0.434188 0.061511 0.020000
0.487874 0.057718 0.020000
0.541561 0.053926 0.020000
0.595164 0.050139 0.020000
0.648434 0.046376 0.020000
0.701705 0.042613 0.020000
0.754975 0.038850 0.020000
0.808245 0.035087 0.020000
0.861516 0.031324 0.020000
0.914786 0.027561 0.020000
0.968056 0.023798 0.020000
1.000000 0.020035 0.020000
1.000000 0.020000 0.020000
1.000000 0.020000 0.020000
1.000000 0.020000 0.020000
1.000000 0.020000 0.020000
1.000000 0.020000 0.020000
1.000000 0.020000 0.020000
1.000000 0.020000 0.020000
1.000000 0.020000 0.020000
1.000000 0.020000 0.020000
1.000000 0.020000 0.020000
1.000000 0.020000 0.020000
0.020000 0.142076 0.020000
0.020000 0.138283 0.020000
0.020000 0.134491 0.020000
0.046218 0.130698 0.020000
0.099904 0.126906 0.020000
0.153591 0.123114 0.020000
0.207277 0.119321 0.020000
0.260964 0.115529 0.020000
0.314650 0.111736 0.020000
0.368337 0.107944 0.020000
0.422023 0.104152 0.020000
0.475710 0.100359 0.020000
0.529396 0.096567 0.020000
0.582999 0.092780 0.020000
0.636270 0.089017 0.020000
0.689540 0.085254 0.020000
0.742810 0.081491 0.020000
0.796081 0.077728 0.020000
0.849351 0.073965 0.020000
0.902621 0.070202 0.020000
0.955892 0.066439 0.020000
1.000000 0.062676 0.020000
1.000000 0.058913 0.020000
1.000000 0.055714 0.020000
1.000000 0.052892 0.020000
1.000000 0.050070 0.020000
1.000000 0.047248 0.020000
1.000000 0.044425 0.020000
1.000000 0.041603 0.020000
1.000000 0.038781 0.020000
1.000000 0.035959 0.020000
1.000000 0.033136 0.020000
1.000000 0.030314 0.020000
0.020000 0.184717 0.020000
0.020000 0.180924 0.020000
0.020000 0.177132 0.020000
0.034053 0.173339 0.020000
0.087740 0.169547 0.020000
0.141426 0.165755 0.020000
0.195113 0.161962 0.020000
0.248799 0.158170 0.020000
0.302486 0.154377 0.020000
0.356172 0.150585 0.020000
0.409859 0.146792 0.020000
0.463545 0.143000 0.020000
0.517232 0.139208 0.020000
0.570835 0.135421 0.020000
0.624105 0.131658 0.020000
0.677376 0.127895 0.020000
0.730646 0.124132 0.020000
0.783916 0.120369 0.020000
0.837186 0.116606 0.020000
0.890457 0.112843 0.020000
0.943727 0.109080 0.020000
0.996997 0.105317 0.020000
1.000000 0.101554 0.020000
1.000000 0.098355 0.020000
1.000000 0.095533 0.020000
1.000000 0.092711 0.020000
1.000000 0.089889 0.020000
1.000000 0.087066 0.020000
1.000000 0.084244 0.020000
1.000000 0.081422 0.020000
1.000000 0.078599 0.020000
1.000000 0.075777 0.020000
1.000000 0.072955 0.020000
0.020000 0.227358 0.020000
0.020000 0.223565 0.020000
0.020000 0.219773 0.020000
0.021889 0.215980 0.020000
0.075575 0.212188 0.020000
0.129262 0.208395 0.020000
0.182948 0.204603 0.020000
0.236635 0.200811 0.020000
0.290321 0.197018 0.020000
0.344008 0.193226 0.020000
0.397694 0.189433 0.020000
0.451381 0.185641 0.020000
0.505067 0.181849 0.020000
0.558670 0.178062 0.020000
0.611941 0.174299 0.020000
0.665211 0.170536 0.020000
0.718481 0.166773 0.020000
0.771752 0.163010 0.020000
0.825022 0.159247 0.020000
0.878292 0.155484 0.020000
0.931563 0.151721 0.020000
0.984833 0.147958 0.020000
1.000000 0.144195 0.020000
1.000000 0.140996 0.020000
1.000000 0.138174 0.020000
1.000000 0.135352 0.020000
1.000000 0.132529 0.020000
1.000000 0.129707 0.020000
1.000000 0.126885 0.020000
1.000000 0.124063 0.020000
1.000000 0.121240 0.020000
1.000000 0.118418 0.020000
1.000000 0.115596 0.020000
0.020000 0.269998 0.020000
0.020000 0.266206 0.020000
0.020000 0.262414 0.020000
0.020000 0.258621 0.020000
0.063411 0.254829 0.020000
0.117097 0.251036 0.020000
0.170784 0.247244 0.020000
0.224470 0.243452 0.020000
0.278157 0.239659 0.020000
0.331843 0.235867 0.020000
0.385530 0.232074 0.020000
0.439216 0.228282 0.020000
0.492903 0.224489 0.020000
0.546506 0.220703 0.020000
0.599776 0.216940 0.020000
0.653046 0.213177 0.020000
0.706317 0.209414 0.020000
0.759587 0.205651 0.020000
0.812857 0.201888 0.020000
0.866128 0.198125 0.020000
0.919398 0.194362 0.020000
0.972668 0.190599 0.020000
1.000000 0.186836 0.020000
1.000000 0.183637 0.020000
1.000000 0.180815 0.020000
1.000000 0.177993 0.020000
1.000000 0.175170 0.020000
1.000000 0.172348 0.020000
1.000000 0.169526 0.020000
1.000000 0.166704 0.020000
1.000000 0.163881 0.020000
1.000000 0.161059 0.020000
1.000000 0.158237 0.020000
0.020000 0.312639 0.020000
0.020000 0.308847 0.020000
0.020000 0.305055 0.020000
0.020000 0.301262 0.020000
0.051246 0.297470 0.020000
0.104933 0.293677 0.020000
0.158619 0.289885 0.020000
0.212306 0.286092 0.020000
0.265992 0.282300 0.020000
0.319679 0.278508 0.020000
0.373365 0.274715 0.020000
0.427052 0.270923 0.020000
0.480738 0.267130 0.020000
0.534341 0.263344 0.020000
0.587612 0.259581 0.020000
0.640882 0.255818 0.020000
0.694152 0.252055 0.020000
0.747423 0.248292 0.020000
0.800693 0.244529 0.020000
0.853963 0.240766 0.020000
0.907233 0.237003 0.020000
0.960504 0.233240 0.020000
1.000000 0.229477 0.020000
1.000000 0.226278 0.020000
1.000000 0.223456 0.020000
1.000000 0.220634 0.020000
1.000000 0.217811 0.020000
1.000000 0.214989 0.020000
1.000000 0.212167 0.020000
1.000000 0.209344 0.020000
1.000000 0.206522 0.020000
1.000000 0.203700 0.020000
1.000000 0.200878 0.020000
0.020000 0.355280 0.020000
0.020000 0.351488 0.020000
0.020000 0.347695 0.020000
0.020000 0.343903 0.020000
0.039082 0.340111 0.020000
0.092768 0.336318 0.020000
0.146455 0.332526 0.020000
0.200141 0.328733 0.020000
0.253828 0.324941 0.020000
0.307514 0.321149 0.020000
0.361201 0.317356 0.020000
0.414887 0.313564 0.020000
0.468573 0.309771 0.020000
0.522177 0.305985 0.020000
0.575447 0.302222 0.020000
0.628717 0.298459 0.020000
0.681988 0.294696 0.020000
0.735258 0.290933 0.020000
0.788528 0.287170 0.020000
0.841799 0.283407 0.020000
0.895069 0.279644 0.020000
0.948339 0.275881 0.020000
1.000000 0.272118 0.020000
1.000000 0.268919 0.020000
1.000000 0.266097 0.020000
1.000000 0.263274 0.020000
1.000000 0.260452 0.020000
1.000000 0.257630 0.020000
1.000000 0.254808 0.020000
1.000000 0.251985 0.020000
1.000000 0.249163 0.020000
1.000000 0.246341 0.020000
1.000000 0.243519 0.020000
0.020000 0.397921 0.020000
0.020000 0.394129 0.020000
0.020000 0.390336 0.020000
0.020000 0.386544 0.020000
0.026917 0.382752 0.020000
0.080604 0.378959 0.020000
0.134290 0.375167 0.020000
0.187976 0.371374 0.020000
0.241663 0.367582 0.020000
0.295349 0.363789 0.020000
0.349036 0.359997 0.020000
0.402722 0.356205 0.020000
0.456409 0.352412 0.020000
0.510012 0.348626 0.020000
0.563283 0.344863 0.020000
0.616553 0.341100 0.020000
0.669823 0.337337 0.020000
0.723093 0.333574 0.020000
0.776364 0.329811 0.020000
0.829634 0.326048 0.020000
0.882904 0.322285 0.020000
0.936175 0.318522 0.020000
0.989445 0.314758 0.020000
1.000000 0.311560 0.020000
1.000000 0.308738 0.020000
1.000000 0.305915 0.020000
1.000000 0.303093 0.020000
1.000000 0.300271 0.020000
1.000000 0.297449 0.020000
1.000000 0.294626 0.020000
1.000000 0.291804 0.020000
1.000000 0.288982 0.020000
1.000000 0.286160 0.020000
0.020000 0.440562 0.020000
0.020000 0.436770 0.020000
0.020000 0.432977 0.020000
0.020000 0.429185 0.020000
0.020000 0.425392 0.020000
0.068439 0.421600 0.020000
0.122125 0.417808 0.020000
0.175812 0.414015 0.020000
0.229498 0.410223 0.020000
0.283185 0.406430 0.020000
0.336871 0.402638 0.020000
0.390558 0.398846 0.020000
0.444244 0.395053 0.020000
0.497848 0.391267 0.020000
0.551118 0.387504 0.020000
0.604388 0.383741 0.020000
0.657659 0.379978 0.020000
0.710929 0.376215 0.020000
0.764199 0.372452 0.020000
0.817470 0.368688 0.020000
0.870740 0.364925 0.020000
0.924010 0.361162 0.020000
0.977280 0.357399 0.020000
1.000000 0.354201 0.020000
1.000000 0.351379 0.020000
1.000000 0.348556 0.020000
1.000000 0.345734 0.020000
1.000000 0.342912 0.020000
1.000000 0.340090 0.020000
1.000000 0.337267 0.020000
1.000000 0.334445 0.020000
1.000000 0.331623 0.020000
1.000000 0.328800 0.020000
0.020000 0.483272 0.020000
0.020000 0.479480 0.020000
0.020000 0.475688 0.020000
0.020000 0.471895 0.020000
0.020000 0.468103 0.020000
0.056255 0.464310 0.020000
0.109941 0.460518 0.020000
0.163628 0.456725 0.020000
0.217314 0.452933 0.020000
0.271001 0.449141 0.020000
0.324687 0.445348 0.020000
0.378374 0.441556 0.020000
0.432060 0.437763 0.020000
0.485663 0.433977 0.020000
0.538934 0.430214 0.020000
0.592204 0.426451 0.020000
0.645474 0.422688 0.020000
0.698745 0.418925 0.020000
0.752015 0.415162 0.020000
0.805285 0.411399 0.020000
0.858556 0.407636 0.020000
0.911826 0.403873 0.020000
0.965096 0.400110 0.020000
1.000000 0.396911 0.020000
1.000000 0.394089 0.020000
1.000000 0.391267 0.020000
1.000000 0.388444 0.020000
1.000000 0.385622 0.020000
1.000000 0.382800 0.020000
1.000000 0.379978 0.020000
1.000000 0.377155 0.020000
1.000000 0.374333 0.020000
1.000000 0.371511 0.020000
0.020000 0.526260 0.020000
0.020000 0.522468 0.020000
0.020000 0.518675 0.020000
0.020000 0.514883 0.020000
0.020000 0.511090 0.020000
0.043991 0.507298 0.020000
0.097678 0.503506 0.020000
0.151364 0.499713 0.020000
0.205051 0.495921 0.020000
0.258737 0.492128 0.020000
0.312424 0.488336 0.020000
0.366110 0.484543 0.020000
0.419797 0.480751 0.020000
0.473400 0.476964 0.020000
0.526670 0.473201 0.020000
0.579940 0.469438 0.020000
0.633211 0.465675 0.020000
0.686481 0.461912 0.020000
0.739751 0.458149 0.020000
0.793022 0.454386 0.020000
0.846292 0.450623 0.020000
0.899562 0.446860 0.020000
0.952833 0.443097 0.020000
0.998112 0.439899 0.020000
1.000000 0.437076 0.020000
1.000000 0.434254 0.020000
1.000000 0.431432 0.020000
1.000000 0.428610 0.020000
1.000000 0.425787 0.020000
1.000000 0.422965 0.020000
1.000000 0.420143 0.020000
1.000000 0.417321 0.020000
1.000000 0.414498 0.020000
0.020000 0.569248 0.020000
0.020000 0.565455 0.020000
0.020000 0.561663 0.020000
0.020000 0.557870 0.020000
0.020000 0.554078 0.020000
0.031728 0.550286 0.020000
0.085414 0.546493 0.020000
0.139101 0.542701 0.020000
0.192787 0.538908 0.020000
0.246474 0.535116 0.020000
0.300160 0.531323 0.020000
0.353847 0.527531 0.020000
0.407533 0.523739 0.020000
0.461136 0.519952 0.020000
0.514407 0.516189 0.020000
0.567677 0.512426 0.020000
0.620947 0.508663 0.020000
0.674218 0.504900 0.020000
0.727488 0.501137 0.020000
0.780758 0.497374 0.020000
0.834029 0.493611 0.020000
0.887299 0.489848 0.020000
0.940569 0.486085 0.020000
0.985849 0.482886 0.020000
1.000000 0.480064 0.020000
1.000000 0.477242 0.020000
1.000000 0.474420 0.020000
1.000000 0.471597 0.020000
1.000000 0.468775 0.020000
1.000000 0.465953 0.020000
1.000000 0.463130 0.020000
1.000000 0.460308 0.020000
1.000000 0.457486 0.020000
0.020000 0.612235 0.020000
0.020000 0.608443 0.020000
0.020000 0.604650 0.020000
0.020000 0.600858 0.020000
0.020000 0.597066 0.020000
0.020000 0.593273 0.020000
0.073151 0.589481 0.020000
0.126837 0.585688 0.020000
0.180524 0.581896 0.020000
0.234210 0.578103 0.020000
0.287897 0.574311 0.020000
0.341583 0.570519 0.020000
0.395270 0.566726 0.020000
0.448873 0.562940 0.020000
0.502143 0.559177 0.020000
0.555414 0.555414 0.020000
0.608684 0.551651 0.020000
0.661954 0.547888 0.020000
0.715225 0.544125 0.020000
0.768495 0.540362 0.020000
0.821765 0.536599 0.020000
0.875035 0.532835 0.020000
0.928306 0.529072 0.020000
0.973586 0.525874 0.020000
1.000000 0.523052 0.020000
1.000000 0.520229 0.020000
1.000000 0.517407 0.020000
1.000000 0.514585 0.020000
1.000000 0.511763 0.020000
1.000000 0.508940 0.020000
1.000000 0.506118 0.020000
1.000000 0.503296 0.020000
1.000000 0.500474 0.020000
0.020000 0.655223 0.020000
0.020000 0.651430 0.020000
0.020000 0.647638 0.020000
0.020000 0.643846 0.020000
0.020000 0.640053 0.020000
0.020000 0.636261 0.020000
0.060887 0.632468 0.020000
0.114574 0.628676 0.020000
0.168260 0.624883 0.020000
0.221947 0.621091 0.020000
0.275633 0.617299 0.020000
0.329320 0.613506 0.020000
0.383006 0.609714 0.020000
0.436610 0.605927 0.020000
0.489880 0.602164 0.020000
0.543150 0.598401 0.020000
0.596420 0.594638 0.020000
0.649691 0.590875 0.020000
0.702961 0.587112 0.020000
0.756231 0.583349 0.020000
0.809502 0.579586 0.020000
0.862772 0.575823 0.020000
0.916042 0.572060 0.020000
0.961322 0.568861 0.020000
1.000000 0.566039 0.020000
1.000000 0.563217 0.020000
1.000000 0.560395 0.020000
1.000000 0.557572 0.020000
1.000000 0.554750 0.020000
1.000000 0.551928 0.020000
1.000000 0.549106 0.020000
1.000000 0.546283 0.020000
1.000000 0.543461 0.020000
0.020000 0.698210 0.020000
0.020000 0.694418 0.020000
0.020000 0.690626 0.020000
0.020000 0.686833 0.020000
0.020000 0.683041 0.020000
0.020000 0.679248 0.020000
0.048624 0.675456 0.020000
0.102310 0.671663 0.020000
0.155997 0.667871 0.020000
0.209683 0.664079 0.020000
0.263370 0.660286 0.020000
0.317056 0.656494 0.020000
0.370743 0.652701 0.020000
0.424346 0.648915 0.020000
0.477616 0.645152 0.020000
0.530887 0.641389 0.020000
0.584157 0.637626 0.020000
0.637427 0.633863 0.020000
0.690698 0.630100 0.020000
0.743968 0.626337 0.020000
0.797238 0.622574 0.020000
0.850509 0.618811 0.020000
0.903779 0.615048 0.020000
0.949059 0.611849 0.020000
0.989011 0.609027 0.020000
1.000000 0.606205 0.020000
1.000000 0.603382 0.020000
1.000000 0.600560 0.020000
1.000000 0.597738 0.020000
1.000000 0.594916 0.020000
1.000000 0.592093 0.020000
1.000000 0.589271 0.020000
1.000000 0.586449 0.020000
0.020000 0.741198 0.020000
0.020000 0.737406 0.020000
0.020000 0.733613 0.020000
0.020000 0.729821 0.020000
0.020000 0.726028 0.020000
0.020000 0.722236 0.020000
0.036360 0.718443 0.020000
0.090047 0.714651 0.020000
0.143733 0.710859 0.020000
0.197420 0.707066 0.020000
0.251106 0.703274 0.020000
0.304793 0.699481 0.020000
0.358479 0.695689 0.020000
0.412083 0.691902 0.020000
0.465353 0.688139 0.020000
0.518623 0.684376 0.020000
0.571894 0.680613 0.020000
0.625164 0.676850 0.020000
0.678434 0.673087 0.020000
0.731705 0.669324 0.020000
0.784975 0.665561 0.020000
0.838245 0.661798 0.020000
0.891515 0.658035 0.020000
0.936795 0.654837 0.020000
0.976748 0.652014 0.020000
1.000000 0.649192 0.020000
1.000000 0.646370 0.020000
1.000000 0.643548 0.020000
1.000000 0.640725 0.020000
1.000000 0.637903 0.020000
1.000000 0.635081 0.020000
1.000000 0.632259 0.020000
1.000000 0.629436 0.020000
0.020000 0.784186 0.020000
0.020000 0.780393 0.020000
0.020000 0.776601 0.020000
0.020000 0.772808 0.020000
0.020000 0.769016 0.020000
0.020000 0.765224 0.020000
0.024097 0.761431 0.020000
0.077784 0.757639 0.020000
0.131470 0.753846 0.020000
0.185156 0.750054 0.020000
0.238843 0.746261 0.020000
0.292529 0.742469 0.020000
0.346216 0.738677 0.020000
0.399819 0.734890 0.020000
0.453090 0.731127 0.020000
0.506360 0.727364 0.020000
0.559630 0.723601 0.020000
0.612900 0.719838 0.020000
0.666171 0.716075 0.020000
0.719441 0.712312 0.020000
0.772711 0.708549 0.020000
0.825982 0.704786 0.020000
0.879252 0.701023 0.020000
0.924532 0.697824 0.020000
0.964485 0.695002 0.020000
1.000000 0.692180 0.020000
1.000000 0.689357 0.020000
1.000000 0.686535 0.020000
1.000000 0.683713 0.020000
1.000000 0.680891 0.020000
1.000000 0.678068 0.020000
1.000000 0.675246 0.020000
1.000000 0.672424 0.020000
0.020000 0.827173 0.020000
0.020000 0.823381 0.020000
0.020000 0.819588 0.020000
0.020000 0.815796 0.020000
0.020000 0.812004 0.020000
0.020000 0.808211 0.020000
0.020000 0.804419 0.020000
0.065520 0.800626 0.020000
0.119207 0.796834 0.020000
0.172893 0.793041 0.020000
0.226580 0.789249 0.020000
0.280266 0.785457 0.020000
0.333953 0.781664 0.020000
0.387556 0.777878 0.020000
0.440826 0.774115 0.020000
0.494096 0.770352 0.020000
0.547367 0.766589 0.020000
0.600637 0.762826 0.020000
0.653907 0.759063 0.020000
0.707178 0.755300 0.020000
0.760448 0.751536 0.020000
0.813718 0.747773 0.020000
0.866989 0.744010 0.020000
0.912268 0.740812 0.020000
0.952221 0.737990 0.020000
0.992174 0.735167 0.020000
1.000000 0.732345 0.020000
1.000000 0.729523 0.020000
1.000000 0.726701 0.020000
1.000000 0.723878 0.020000
1.000000 0.721056 0.020000
1.000000 0.718234 0.020000
1.000000 0.715412 0.020000
0.020000 0.870161 0.020000
0.020000 0.866368 0.020000
0.020000 0.862576 0.020000
0.020000 0.858784 0.020000
0.020000 0.854991 0.020000
0.020000 0.851199 0.020000
0.020000 0.847406 0.020000
0.053257 0.843614 0.020000
0.106943 0.839821 0.020000
0.160630 0.836029 0.020000
0.214316 0.832237 0.020000
0.268003 0.828444 0.020000
0.321689 0.824652 0.020000
0.375292 0.820865 0.020000
0.428563 0.817102 0.020000
0.481833 0.813339 0.020000
0.535103 0.809576 0.020000
0.588374 0.805813 0.020000
0.641644 0.802050 0.020000
0.694914 0.798287 0.020000
0.748185 0.794524 0.020000
0.801455 0.790761 0.020000
0.854725 0.786998 0.020000
0.900005 0.783799 0.020000
0.939958 0.780977 0.020000
0.979910 0.778155 0.020000
1.000000 0.775333 0.020000
1.000000 0.772510 0.020000
1.000000 0.769688 0.020000
1.000000 0.766866 0.020000
1.000000 0.764044 0.020000
1.000000 0.761221 0.020000
1.000000 0.758399 0.020000
0.020000 0.908156 0.020000
0.020000 0.904364 0.020000
0.020000 0.900571 0.020000
0.020000 0.896779 0.020000
0.020000 0.892987 0.020000
0.020000 0.889194 0.020000
0.020000 0.885402 0.020000
0.042417 0.881609 0.020000
0.096104 0.877817 0.020000
0.149790 0.874025 0.020000
0.203477 0.870232 0.020000
0.257163 0.866440 0.020000
0.310850 0.862647 0.020000
0.364453 0.858861 0.020000
0.417723 0.855098 0.020000
0.470994 0.851335 0.020000
0.524264 0.847572 0.020000
0.577534 0.843809 0.020000
0.630805 0.840046 0.020000
0.684075 0.836283 0.020000
0.737345 0.832520 0.020000
0.790616 0.828757 0.020000
0.843886 0.824994 0.020000
0.889166 0.821795 0.020000
0.929118 0.818973 0.020000
0.969071 0.816150 0.020000
1.000000 0.813328 0.020000
1.000000 0.810506 0.020000
1.000000 0.807684 0.020000
1.000000 0.804861 0.020000
1.000000 0.802039 0.020000
1.000000 0.799217 0.020000
1.000000 0.796395 0.020000
0.020000 0.942824 0.020000
0.020000 0.939031 0.020000
0.020000 0.935239 0.020000
0.020000 0.931446 0.020000
0.020000 0.927654 0.020000
0.020000 0.923862 0.020000
0.020000 0.920069 0.020000
0.032527 0.916277 0.020000
0.086214 0.912484 0.020000
0.139900 0.908692 0.020000
0.193587 0.904900 0.020000
0.247273 0.901107 0.020000
0.300960 0.897315 0.020000
0.354563 0.893528 0.020000
0.407833 0.889765 0.020000
0.461104 0.886002 0.020000
0.514374 0.882239 0.020000
0.567644 0.878476 0.020000
0.620915 0.874713 0.020000
0.674185 0.870950 0.020000
0.727455 0.867187 0.020000
0.780726 0.863424 0.020000
0.833996 0.859661 0.020000
0.879276 0.856462 0.020000
0.919228 0.853640 0.020000
0.959181 0.850818 0.020000
0.999134 0.847996 0.020000
1.000000 0.845173 0.020000
1.000000 0.842351 0.020000
1.000000 0.839529 0.020000
1.000000 0.836707 0.020000
1.000000 0.833884 0.020000
1.000000 0.831062 0.020000
0.020000 0.977491 0.020000
0.020000 0.973699 0.020000
0.020000 0.969906 0.020000
0.020000 0.966114 0.020000
0.020000 0.962321 0.020000
0.020000 0.958529 0.020000
0.020000 0.954737 0.020000
0.022638 0.950944 0.020000
0.076324 0.947152 0.020000
0.130011 0.943359 0.020000
0.183697 0.939567 0.020000
0.237384 0.935775 0.020000
0.291070 0.931982 0.020000
0.344673 0.928196 0.020000
0.397944 0.924433 0.020000
0.451214 0.920670 0.020000
0.504484 0.916906 0.020000
0.557755 0.913143 0.020000
0.611025 0.909380 0.020000
0.664295 0.905617 0.020000
0.717565 0.901854 0.020000
0.770836 0.898091 0.020000
0.824106 0.894328 0.020000
0.869386 0.891130 0.020000
0.909339 0.888308 0.020000
0.949291 0.885485 0.020000
0.989244 0.882663 0.020000
1.000000 0.879841 0.020000
1.000000 0.877018 0.020000
1.000000 0.874196 0.020000
1.000000 0.871374 0.020000
1.000000 0.868552 0.020000
1.000000 0.865729 0.020000
0.020000 1.000000 0.020000
0.020000 1.000000 0.020000
0.020000 1.000000 0.020000
0.020000 1.000000 0.020000
0.020000 0.996989 0.020000
0.020000 0.993196 0.020000
0.020000 0.989404 0.020000
0.020000 0.985612 0.020000
0.066434 0.981819 0.020000
0.120121 0.978027 0.020000
0.173807 0.974234 0.020000
0.227494 0.970442 0.020000
0.281180 0.966650 0.020000
0.334783 0.962863 0.020000
0.388054 0.959100 0.020000
0.441324 0.955337 0.020000
0.494594 0.951574 0.020000
0.547865 0.947811 0.020000
0.601135 0.944048 0.020000
0.654405 0.940285 0.020000
0.707676 0.936522 0.020000
0.760946 0.932759 0.020000
0.814216 0.928996 0.020000
0.859496 0.925797 0.020000
0.899449 0.922975 0.020000
0.939401 0.920153 0.020000
0.979354 0.917330 0.020000
1.000000 0.914508 0.020000
1.000000 0.911686 0.020000
