luts/neutral_slide_100.cube
TITLE "Fuji Provia 100F"
LUT_3D_SIZE 5
0.010064 0.010064 0.038748
0.254154 0.011654 0.038276
0.492665 0.013208 0.037814
0.729781 0.014752 0.037355
0.966896 0.016296 0.036897
0.015413 0.257913 0.037159
0.259502 0.259502 0.036687
0.498013 0.261056 0.036225
0.735129 0.262600 0.035766
0.972245 0.264145 0.035308
0.020639 0.500096 0.035606
0.264729 0.501686 0.035134
0.503239 0.503239 0.034673
0.740359 0.504788 0.035843
0.977484 0.506341 0.039400
0.025841 0.740870 0.037013
0.269940 0.742469 0.040674
0.508460 0.744031 0.044252
0.745585 0.745585 0.047808
0.982710 0.747138 0.051365
0.031067 0.981667 0.048978
0.275166 0.983266 0.052639
0.513686 0.984829 0.056217
0.750811 0.986382 0.059773
0.987935 0.987935 0.063330
0.010622 0.010622 0.289166
0.254712 0.012212 0.288693
0.493223 0.013765 0.288232
0.730338 0.015310 0.287773
0.967454 0.016854 0.287314
0.015970 0.258470 0.287577
0.260060 0.260060 0.287104
0.498571 0.261614 0.286643
0.735687 0.263158 0.286184
0.972803 0.264703 0.285725
0.021197 0.500654 0.286024
0.265287 0.502244 0.285552
0.503797 0.503797 0.285090
0.740920 0.505349 0.287711
0.978045 0.506902 0.291268
0.026402 0.741431 0.288881
0.270501 0.743030 0.292542
0.509021 0.744592 0.296120
0.746146 0.746146 0.299676
0.983271 0.747699 0.303233
0.031628 0.982228 0.300846
0.275727 0.983827 0.304507
0.514247 0.985390 0.308085
0.751372 0.986943 0.311642
0.988497 0.988497 0.315198
0.011153 0.011153 0.527582
0.255243 0.012743 0.527109
0.493754 0.014297 0.526648
0.730870 0.015841 0.526189
0.967986 0.017386 0.525730
0.016502 0.259002 0.525993
0.260592 0.260592 0.525520
0.499102 0.262145 0.525059
0.736218 0.263690 0.524600
0.973334 0.265234 0.524141
0.021728 0.501185 0.524440
0.265818 0.502775 0.523968
0.504330 0.504330 0.523952
0.741454 0.505883 0.527509
0.978579 0.507436 0.531065
0.026937 0.741965 0.528678
0.271036 0.743564 0.532339
0.509555 0.745127 0.535917
0.746680 0.746680 0.539474
0.983805 0.748234 0.543030
0.032162 0.982762 0.540643
0.276261 0.984361 0.544304
0.514781 0.985924 0.547882
0.751906 0.987477 0.551439
0.989031 0.989031 0.554995
0.011672 0.011672 0.760228
0.255761 0.013261 0.759755
0.494272 0.014815 0.759294
0.731388 0.016359 0.758835
0.968504 0.017904 0.758376
0.017020 0.259520 0.758639
0.261110 0.261110 0.758166
0.499621 0.262663 0.757705
0.736737 0.264208 0.757246
0.973852 0.265752 0.756787
0.022246 0.501703 0.757086
0.266336 0.503293 0.756614
0.504851 0.504851 0.757946
0.741976 0.506404 0.761502
0.979101 0.507958 0.765059
0.027458 0.742486 0.762672
0.271557 0.744086 0.766333
0.510077 0.745648 0.769911
0.747202 0.747202 0.773467
0.984326 0.748755 0.777024
0.032684 0.983284 0.774637
0.276783 0.984883 0.778298
0.515302 0.986445 0.781876
0.752427 0.987999 0.785432
0.989552 0.989552 0.788989
0.012144 0.012144 0.972444
0.256239 0.013739 0.974039
0.494754 0.015297 0.975597
0.731874 0.016846 0.977146
0.968995 0.018395 0.978695
0.017508 0.260008 0.977808
0.261603 0.261603 0.979403
0.500118 0.263161 0.980961
0.737238 0.264710 0.982510
0.974359 0.266259 0.984059
0.022750 0.502207 0.983050
0.266844 0.503801 0.984644
0.505359 0.505359 0.986202
0.742480 0.506908 0.987751
0.979600 0.508457 0.989300
0.027960 0.742989 0.988260
0.272055 0.744584 0.989855
0.510570 0.746142 0.991413
0.747691 0.747691 0.992962
0.984811 0.749239 0.994511
0.033171 0.983771 0.993471
0.277266 0.985366 0.995066
0.515781 0.986924 0.996624
0.752901 0.988473 0.998173
0.990022 0.990022 0.999722
