luts/neutral_slide_100.cube
TITLE "Fuji Provia 100F"
LUT_3D_SIZE 9
0.010064 0.010064 0.038748
0.132109 0.010859 0.038512
0.254154 0.011654 0.038276
0.374107 0.012435 0.038044
0.492665 0.013208 0.037814
0.611223 0.013980 0.037585
0.729781 0.014752 0.037355
0.848338 0.015524 0.037126
0.966896 0.016296 0.036897
0.012738 0.133988 0.037954
0.134783 0.134783 0.037717
0.256828 0.135578 0.037481
0.376781 0.136360 0.037249
0.495339 0.137132 0.037020
0.613897 0.137904 0.036790
0.732455 0.138676 0.036561
0.851013 0.139448 0.036331
0.969571 0.140221 0.036102
0.015413 0.257913 0.037159
0.137458 0.258708 0.036923
0.259502 0.259502 0.036687
0.379455 0.260284 0.036455
0.498013 0.261056 0.036225
0.616571 0.261828 0.035996
0.735129 0.262600 0.035766
0.853687 0.263373 0.035537
0.972245 0.264145 0.035308
0.018041 0.379712 0.036378
0.140086 0.380507 0.036142
0.262131 0.381302 0.035906
0.382084 0.382084 0.035674
0.500642 0.382856 0.035444
0.619200 0.383628 0.035215
0.737757 0.384400 0.034986
0.856315 0.385173 0.034756
0.974873 0.385945 0.034527
0.020639 0.500096 0.035606
0.142684 0.500891 0.035370
0.264729 0.501686 0.035134
0.384681 0.502467 0.034902
0.503239 0.503239 0.034673
0.621797 0.504012 0.034443
0.740359 0.504788 0.035843
0.858921 0.505564 0.037622
0.977484 0.506341 0.039400
0.023237 0.620480 0.034835
0.145282 0.621274 0.034599
0.267327 0.622070 0.034691
0.387285 0.622856 0.036491
0.505847 0.623633 0.038269
0.624409 0.624409 0.040047
0.742972 0.625186 0.041826
0.861534 0.625963 0.043604
0.980097 0.626740 0.045383
0.025841 0.740870 0.037013
0.147891 0.741669 0.038843
0.269940 0.742469 0.040674
0.389897 0.743255 0.042473
0.508460 0.744031 0.044252
0.627022 0.744808 0.046030
0.745585 0.745585 0.047808
0.864147 0.746361 0.049587
0.982710 0.747138 0.051365
0.028454 0.861268 0.042995
0.150504 0.862068 0.044826
0.272553 0.862867 0.046656
0.392510 0.863653 0.048456
0.511073 0.864430 0.050234
0.629635 0.865207 0.052012
0.748198 0.865983 0.053791
0.866760 0.866760 0.055569
0.985322 0.867537 0.057348
0.031067 0.981667 0.048978
0.153116 0.982466 0.050808
0.275166 0.983266 0.052639
0.395123 0.984052 0.054438
0.513686 0.984829 0.056217
0.632248 0.985605 0.057995
0.750811 0.986382 0.059773
0.869373 0.987159 0.061552
0.987935 0.987935 0.063330
0.010343 0.010343 0.163957
0.132388 0.011138 0.163721
0.254433 0.011933 0.163485
0.374386 0.012714 0.163252
0.492944 0.013486 0.163023
0.611502 0.014259 0.162794
0.730060 0.015031 0.162564
0.848617 0.015803 0.162335
0.967175 0.016575 0.162105
0.013017 0.134267 0.163162
0.135062 0.135062 0.162926
0.257107 0.135857 0.162690
0.377060 0.136638 0.162458
0.495618 0.137411 0.162229
0.614176 0.138183 0.161999
0.732734 0.138955 0.161770
0.851292 0.139727 0.161540
0.969850 0.140500 0.161311
0.015692 0.258192 0.162368
0.137736 0.258986 0.162132
0.259781 0.259781 0.161896
0.379734 0.260563 0.161663
0.498292 0.261335 0.161434
0.616850 0.262107 0.161205
0.735408 0.262879 0.160975
0.853966 0.263652 0.160746
0.972524 0.264424 0.160516
0.018320 0.379991 0.161587
0.140365 0.380786 0.161351
0.262410 0.381581 0.161115
0.382363 0.382363 0.160883
0.500921 0.383135 0.160653
0.619478 0.383907 0.160424
0.738036 0.384679 0.160194
0.856594 0.385452 0.159965
0.975152 0.386224 0.159736
0.020918 0.500375 0.160815
0.142963 0.501170 0.160579
0.265008 0.501965 0.160343
0.384960 0.502746 0.160111
0.503518 0.503518 0.159881
0.622077 0.504291 0.159999
0.740640 0.505068 0.161777
0.859202 0.505845 0.163556
0.977764 0.506622 0.165334
0.023516 0.620758 0.160044
0.145561 0.621553 0.159807
0.267608 0.622351 0.160626
0.387565 0.623137 0.162425
0.506128 0.623913 0.164203
0.624690 0.624690 0.165982
0.743252 0.625467 0.167760
0.861815 0.626243 0.169538
0.980377 0.627020 0.171317
0.026122 0.741150 0.162947
0.148171 0.741950 0.164777
0.270221 0.742749 0.166608
0.390178 0.743535 0.168407
0.508740 0.744312 0.170186
0.627303 0.745089 0.171964
0.745865 0.745865 0.173742
0.864428 0.746642 0.175521
0.982990 0.747419 0.177299
0.028735 0.861549 0.168929
0.150784 0.862348 0.170760
0.272834 0.863148 0.172591
0.392791 0.863934 0.174390
0.511353 0.864711 0.176168
0.629916 0.865487 0.177947
0.748478 0.866264 0.179725
0.867041 0.867041 0.181503
0.985603 0.867817 0.183282
0.031347 0.981947 0.174912
0.153397 0.982747 0.176742
0.275447 0.983547 0.178573
0.395404 0.984332 0.180372
0.513966 0.985109 0.182151
0.632529 0.985886 0.183929
0.751091 0.986663 0.185707
0.869654 0.987439 0.187486
0.988216 0.988216 0.189264
0.010622 0.010622 0.289166
0.132667 0.011417 0.288929
0.254712 0.012212 0.288693
0.374665 0.012993 0.288461
0.493223 0.013765 0.288232
0.611781 0.014538 0.288002
0.730338 0.015310 0.287773
0.848896 0.016082 0.287544
0.967454 0.016854 0.287314
0.013296 0.134546 0.288371
0.135341 0.135341 0.288135
0.257386 0.136136 0.287899
0.377339 0.136917 0.287667
0.495897 0.137690 0.287437
0.614455 0.138462 0.287208
0.733013 0.139234 0.286978
0.851571 0.140006 0.286749
0.970129 0.140779 0.286520
0.015970 0.258470 0.287577
0.138015 0.259265 0.287341
0.260060 0.260060 0.287104
0.380013 0.260842 0.286872
0.498571 0.261614 0.286643
0.617129 0.262386 0.286413
0.735687 0.263158 0.286184
0.854245 0.263931 0.285955
0.972803 0.264703 0.285725
0.018599 0.380270 0.286796
0.140644 0.381065 0.286560
0.262689 0.381860 0.286324
0.382642 0.382642 0.286091
0.501199 0.383414 0.285862
0.619757 0.384186 0.285633
0.738315 0.384958 0.285403
0.856873 0.385730 0.285174
0.975432 0.386503 0.285286
0.021197 0.500654 0.286024
0.143242 0.501449 0.285788
0.265287 0.502244 0.285552
0.385239 0.503025 0.285320
0.503797 0.503797 0.285090
0.622358 0.504572 0.285933
0.740920 0.505349 0.287711
0.859483 0.506125 0.289490
0.978045 0.506902 0.291268
0.023795 0.621037 0.285252
0.145840 0.621832 0.285016
0.267888 0.622631 0.286560
0.387846 0.623417 0.288359
0.506408 0.624194 0.290137
0.624971 0.624971 0.291916
0.743533 0.625747 0.293694
0.862095 0.626524 0.295472
0.980658 0.627301 0.297251
0.026402 0.741431 0.288881
0.148452 0.742230 0.290711
0.270501 0.743030 0.292542
0.390459 0.743816 0.294341
0.509021 0.744592 0.296120
0.627583 0.745369 0.297898
0.746146 0.746146 0.299676
0.864708 0.746923 0.301455
0.983271 0.747699 0.303233
0.029015 0.861829 0.294863
0.151065 0.862629 0.296694
0.273114 0.863429 0.298525
0.393072 0.864214 0.300324
0.511634 0.864991 0.302102
0.630196 0.865768 0.303881
0.748759 0.866545 0.305659
0.867321 0.867321 0.307437
0.985884 0.868098 0.309216
0.031628 0.982228 0.300846
0.153678 0.983028 0.302676
0.275727 0.983827 0.304507
0.395684 0.984613 0.306306
0.514247 0.985390 0.308085
0.632809 0.986166 0.309863
0.751372 0.986943 0.311642
0.869934 0.987720 0.313420
0.988497 0.988497 0.315198
0.010891 0.010891 0.409874
0.132936 0.011686 0.409638
0.254981 0.012481 0.409401
0.374934 0.013262 0.409169
0.493492 0.014034 0.408940
0.612049 0.014807 0.408711
0.730607 0.015579 0.408481
0.849165 0.016351 0.408252
0.967723 0.017123 0.408022
0.013565 0.134815 0.409079
0.135610 0.135610 0.408843
0.257655 0.136405 0.408607
0.377608 0.137186 0.408375
0.496166 0.137959 0.408145
0.614724 0.138731 0.407916
0.733282 0.139503 0.407687
0.851840 0.140275 0.407457
0.970398 0.141048 0.407228
0.016239 0.258739 0.408285
0.138284 0.259534 0.408049
0.260329 0.260329 0.407813
0.380282 0.261111 0.407580
0.498840 0.261883 0.407351
0.617398 0.262655 0.407122
0.735956 0.263427 0.406892
0.854514 0.264200 0.406663
0.973072 0.264972 0.406433
0.018868 0.380539 0.407504
0.140913 0.381334 0.407268
0.262958 0.382129 0.407032
0.382910 0.382910 0.406800
0.501468 0.383683 0.406570
0.620026 0.384455 0.406341
0.738584 0.385227 0.406111
0.857142 0.385999 0.405882
0.975703 0.386774 0.406693
0.021466 0.500923 0.406732
0.143511 0.501718 0.406496
0.265556 0.502513 0.406260
0.385508 0.503294 0.406028
0.504066 0.504066 0.405798
0.622628 0.504842 0.407341
0.741191 0.505619 0.409119
0.859753 0.506396 0.410897
0.978315 0.507173 0.412676
0.024064 0.621306 0.405961
0.146109 0.622102 0.406136
0.268159 0.622902 0.407967
0.388116 0.623688 0.409766
0.506679 0.624464 0.411545
0.625241 0.625241 0.413323
0.743803 0.626018 0.415101
0.862366 0.626794 0.416880
0.980928 0.627571 0.418658
0.026673 0.741701 0.410288
0.148722 0.742501 0.412119
0.270772 0.743300 0.413950
0.390729 0.744086 0.415749
0.509292 0.744863 0.417527
0.627854 0.745640 0.419306
0.746416 0.746416 0.421084
0.864979 0.747193 0.422862
0.983541 0.747970 0.424641
0.029286 0.862100 0.416271
0.151335 0.862899 0.418101
0.273385 0.863699 0.419932
0.393342 0.864485 0.421731
0.511904 0.865262 0.423510
0.630467 0.866038 0.425288
0.749029 0.866815 0.427066
0.867592 0.867592 0.428845
0.986154 0.868368 0.430623
0.031899 0.982499 0.422253
0.153948 0.983298 0.424084
0.275998 0.984098 0.425915
0.395955 0.984883 0.427714
0.514517 0.985660 0.429492
0.633080 0.986437 0.431271
0.751642 0.987214 0.433049
0.870205 0.987990 0.434827
0.988767 0.988767 0.436606
0.011153 0.011153 0.527582
0.133198 0.011948 0.527345
0.255243 0.012743 0.527109
0.375196 0.013524 0.526877
0.493754 0.014297 0.526648
0.612312 0.015069 0.526418
0.730870 0.015841 0.526189
0.849428 0.016613 0.525960
0.967986 0.017386 0.525730
0.013827 0.135077 0.526787
0.135872 0.135872 0.526551
0.257917 0.136667 0.526315
0.377870 0.137449 0.526083
0.496428 0.138221 0.525853
0.614986 0.138993 0.525624
0.733544 0.139765 0.525394
0.852102 0.140538 0.525165
0.970660 0.141310 0.524936
0.016502 0.259002 0.525993
0.138547 0.259797 0.525757
0.260592 0.260592 0.525520
0.380544 0.261373 0.525288
0.499102 0.262145 0.525059
0.617660 0.262917 0.524829
0.736218 0.263690 0.524600
0.854776 0.264462 0.524371
0.973334 0.265234 0.524141
0.019130 0.380802 0.525212
0.141175 0.381596 0.524976
0.263220 0.382391 0.524740
0.383173 0.383173 0.524507
0.501731 0.383945 0.524278
0.620289 0.384717 0.524049
0.738847 0.385489 0.523819
0.857405 0.386262 0.523590
0.975966 0.387038 0.525083
0.021728 0.501185 0.524440
0.143773 0.501980 0.524204
0.265818 0.502775 0.523968
0.385771 0.503556 0.523736
0.504330 0.504330 0.523952
0.622892 0.505106 0.525730
0.741454 0.505883 0.527509
0.860017 0.506660 0.529287
0.978579 0.507436 0.531065
0.024326 0.621569 0.523668
0.146373 0.622366 0.524526
0.268423 0.623166 0.526357
0.388380 0.623951 0.528156
0.506942 0.624728 0.529934
0.625505 0.625505 0.531713
0.744067 0.626282 0.533491
0.862630 0.627058 0.535269
0.981192 0.627835 0.537048
0.026937 0.741965 0.528678
0.148986 0.742765 0.530509
0.271036 0.743564 0.532339
0.390993 0.744350 0.534139
0.509555 0.745127 0.535917
0.628118 0.745903 0.537695
0.746680 0.746680 0.539474
0.865243 0.747457 0.541252
0.983805 0.748234 0.543030
0.029549 0.862364 0.534660
0.151599 0.863163 0.536491
0.273649 0.863963 0.538322
0.393606 0.864749 0.540121
0.512168 0.865525 0.541899
0.630731 0.866302 0.543678
0.749293 0.867079 0.545456
0.867855 0.867855 0.547234
0.986418 0.868632 0.549013
0.032162 0.982762 0.540643
0.154212 0.983562 0.542474
0.276261 0.984361 0.544304
0.396219 0.985147 0.546104
0.514781 0.985924 0.547882
0.633344 0.986701 0.549660
0.751906 0.987477 0.551439
0.870468 0.988254 0.553217
0.989031 0.989031 0.554995
0.011415 0.011415 0.645289
0.133460 0.012210 0.645053
0.255505 0.013005 0.644817
0.375458 0.013787 0.644585
0.494016 0.014559 0.644356
0.612574 0.015331 0.644126
0.731132 0.016103 0.643897
0.849690 0.016876 0.643667
0.968248 0.017648 0.643438
0.014090 0.135340 0.644495
0.136135 0.136135 0.644259
0.258180 0.136930 0.644023
0.378132 0.137711 0.643791
0.496690 0.138483 0.643561
0.615248 0.139255 0.643332
0.733806 0.140028 0.643102
0.852364 0.140800 0.642873
0.970922 0.141572 0.642643
0.016764 0.259264 0.643700
0.138809 0.260059 0.643464
0.260854 0.260854 0.643228
0.380807 0.261635 0.642996
0.499365 0.262407 0.642767
0.617922 0.263180 0.642537
0.736480 0.263952 0.642308
0.855038 0.264724 0.642078
0.973596 0.265496 0.641849
0.019392 0.381064 0.642920
0.141437 0.381859 0.642683
0.263482 0.382654 0.642447
0.383435 0.383435 0.642215
0.501993 0.384207 0.641986
0.620551 0.384979 0.641756
0.739109 0.385752 0.641527
0.857668 0.386525 0.641694
0.976230 0.387302 0.643472
0.021990 0.501447 0.642148
0.144035 0.502242 0.641912
0.266080 0.503037 0.641676
0.386033 0.503819 0.641443
0.504593 0.504593 0.642341
0.623156 0.505370 0.644120
0.741718 0.506147 0.645898
0.860281 0.506923 0.647677
0.978843 0.507700 0.649455
0.024588 0.621831 0.641376
0.146637 0.622630 0.642916
0.268687 0.623429 0.644746
0.388644 0.624215 0.646546
0.507206 0.624992 0.648324
0.625769 0.625769 0.650102
0.744331 0.626545 0.651881
0.862893 0.627322 0.653659
0.981456 0.628099 0.655437
0.027200 0.742229 0.647068
0.149250 0.743028 0.648898
0.271299 0.743828 0.650729
0.391257 0.744614 0.652528
0.509819 0.745391 0.654307
0.628382 0.746167 0.656085
0.746944 0.746944 0.657863
0.865506 0.747721 0.659642
0.984069 0.748497 0.661420
0.029813 0.862627 0.653050
0.151863 0.863427 0.654881
0.273912 0.864227 0.656711
0.393870 0.865012 0.658511
0.512432 0.865789 0.660289
0.630994 0.866566 0.662067
0.749557 0.867343 0.663846
0.868119 0.868119 0.665624
0.986682 0.868896 0.667402
0.032426 0.983026 0.659033
0.154476 0.983826 0.660863
0.276525 0.984625 0.662694
0.396482 0.985411 0.664493
0.515045 0.986188 0.666272
0.633607 0.986964 0.668050
0.752170 0.987741 0.669828
0.870732 0.988518 0.671607
0.989295 0.989295 0.673385
0.011672 0.011672 0.760228
0.133716 0.012466 0.759991
0.255761 0.013261 0.759755
0.375714 0.014043 0.759523
0.494272 0.014815 0.759294
0.612830 0.015587 0.759064
0.731388 0.016359 0.758835
0.849946 0.017132 0.758606
0.968504 0.017904 0.758376
0.014346 0.135596 0.759433
0.136391 0.136391 0.759197
0.258436 0.137186 0.758961
0.378388 0.137967 0.758729
0.496946 0.138739 0.758499
0.615504 0.139511 0.758270
0.734062 0.140284 0.758040
0.852620 0.141056 0.757811
0.971178 0.141828 0.757582
0.017020 0.259520 0.758639
0.139065 0.260315 0.758403
0.261110 0.261110 0.758166
0.381063 0.261891 0.757934
0.499621 0.262663 0.757705
0.618179 0.263436 0.757475
0.736737 0.264208 0.757246
0.855294 0.264980 0.757017
0.973852 0.265752 0.756787
0.019648 0.381320 0.757858
0.141693 0.382115 0.757622
0.263738 0.382910 0.757386
0.383691 0.383691 0.757153
0.502249 0.384463 0.756924
0.620807 0.385236 0.756695
0.739365 0.386008 0.756465
0.857925 0.386782 0.757298
0.976488 0.387559 0.759076
0.022246 0.501703 0.757086
0.144291 0.502498 0.756850
0.266336 0.503293 0.756614
0.386289 0.504075 0.756382
0.504851 0.504851 0.757946
0.623413 0.505628 0.759724
0.741976 0.506404 0.761502
0.860538 0.507181 0.763281
0.979101 0.507958 0.765059
0.024845 0.622088 0.756689
0.146895 0.622887 0.758520
0.268944 0.623687 0.760350
0.388901 0.624473 0.762150
0.507464 0.625249 0.763928
0.626026 0.626026 0.765706
0.744589 0.626803 0.767485
0.863151 0.627580 0.769263
0.981713 0.628356 0.771041
0.027458 0.742486 0.762672
0.149507 0.743286 0.764502
0.271557 0.744086 0.766333
0.391514 0.744871 0.768132
0.510077 0.745648 0.769911
0.628639 0.746425 0.771689
0.747202 0.747202 0.773467
0.865764 0.747978 0.775246
0.984326 0.748755 0.777024
0.030071 0.862885 0.768654
0.152120 0.863685 0.770485
0.274170 0.864484 0.772315
0.394127 0.865270 0.774115
0.512690 0.866047 0.775893
0.631252 0.866823 0.777671
0.749814 0.867600 0.779450
0.868377 0.868377 0.781228
0.986939 0.869154 0.783006
0.032684 0.983284 0.774637
0.154733 0.984083 0.776467
0.276783 0.984883 0.778298
0.396740 0.985669 0.780097
0.515302 0.986445 0.781876
0.633865 0.987222 0.783654
0.752427 0.987999 0.785432
0.870990 0.988775 0.787211
0.989552 0.989552 0.788989
0.011926 0.011926 0.874473
0.133971 0.012721 0.874237
0.256016 0.013516 0.874001
0.375969 0.014297 0.873769
0.494527 0.015070 0.873540
0.613085 0.015842 0.873310
0.731643 0.016614 0.873081
0.850200 0.017386 0.872851
0.968758 0.018158 0.872622
0.014600 0.135850 0.873679
0.136645 0.136645 0.873443
0.258690 0.137440 0.873207
0.378643 0.138222 0.872975
0.497201 0.138994 0.872745
0.615759 0.139766 0.872516
0.734317 0.140538 0.872286
0.852875 0.141310 0.872057
0.971433 0.142083 0.871827
0.017275 0.259775 0.872885
0.139320 0.260570 0.872648
0.261364 0.261364 0.872412
0.381317 0.262146 0.872180
0.499875 0.262918 0.871951
0.618433 0.263690 0.871721
0.736991 0.264462 0.871492
0.855549 0.265235 0.871262
0.974107 0.266007 0.871033
0.019903 0.381574 0.872104
0.141948 0.382369 0.871868
0.263993 0.383164 0.871631
0.383946 0.383946 0.871399
0.502504 0.384718 0.871170
0.621062 0.385490 0.870940
0.739619 0.386262 0.870711
0.858181 0.387038 0.872206
0.976744 0.387815 0.873984
0.022501 0.501958 0.871332
0.144546 0.502753 0.871096
0.266591 0.503548 0.870860
0.386544 0.504330 0.871075
0.505107 0.505107 0.872853
0.623669 0.505884 0.874631
0.742232 0.506660 0.876410
0.860794 0.507437 0.878188
0.979357 0.508214 0.879967
0.025101 0.622344 0.871597
0.147151 0.623143 0.873427
0.269200 0.623943 0.875258
0.389157 0.624729 0.877057
0.507720 0.625505 0.878836
0.626282 0.626282 0.880614
0.744845 0.627059 0.882392
0.863407 0.627836 0.884171
0.981969 0.628612 0.885949
0.027714 0.742742 0.877579
0.149763 0.743542 0.879410
0.271813 0.744342 0.881240
0.391770 0.745127 0.883040
0.510333 0.745904 0.884818
0.628895 0.746681 0.886596
0.747458 0.747458 0.888375
0.866020 0.748234 0.890153
0.984582 0.749011 0.891932
0.030327 0.863141 0.883562
0.152376 0.863941 0.885392
0.274426 0.864740 0.887223
0.394383 0.865526 0.889022
0.512946 0.866303 0.890801
0.631508 0.867079 0.892579
0.750070 0.867856 0.894357
0.868633 0.868633 0.896136
0.987195 0.869410 0.897914
0.032940 0.983540 0.889544
0.154989 0.984339 0.891375
0.277039 0.985139 0.893206
0.396996 0.985925 0.895005
0.515558 0.986701 0.896783
0.634121 0.987478 0.898562
0.752683 0.988255 0.900340
0.871246 0.989031 0.902118
0.989808 0.989808 0.903897
0.012144 0.012144 0.972444
0.134192 0.012942 0.973242
0.256239 0.013739 0.974039
0.376194 0.014522 0.974822
0.494754 0.015297 0.975597
0.613314 0.016071 0.976371
0.731874 0.016846 0.977146
0.850435 0.017620 0.977920
0.968995 0.018395 0.978695
0.014826 0.136076 0.975126
0.136874 0.136874 0.975924
0.258921 0.137671 0.976721
0.378876 0.138454 0.977504
0.497436 0.139229 0.978279
0.615996 0.140003 0.979053
0.734556 0.140778 0.979828
0.853117 0.141552 0.980602
0.971677 0.142327 0.981377
0.017508 0.260008 0.977808
0.139556 0.260806 0.978606
0.261603 0.261603 0.979403
0.381558 0.262386 0.980186
0.500118 0.263161 0.980961
0.618678 0.263935 0.981735
0.737238 0.264710 0.982510
0.855799 0.265484 0.983284
0.974359 0.266259 0.984059
0.020144 0.381816 0.980444
0.142192 0.382613 0.981242
0.264239 0.383410 0.982039
0.384194 0.384194 0.982822
0.502754 0.384968 0.983597
0.621314 0.385743 0.984371
0.739874 0.386517 0.985146
0.858435 0.387292 0.985920
0.976995 0.388066 0.986695
0.022750 0.502207 0.983050
0.144797 0.503004 0.983847
0.266844 0.503801 0.984644
0.386799 0.504585 0.985428
0.505359 0.505359 0.986202
0.623920 0.506134 0.986977
0.742480 0.506908 0.987751
0.861040 0.507683 0.988526
0.979600 0.508457 0.989300
0.025355 0.622598 0.985655
0.147402 0.623395 0.986452
0.269450 0.624192 0.987250
0.389405 0.624976 0.988033
0.507965 0.625751 0.988808
0.626525 0.626525 0.989582
0.745085 0.627299 0.990357
0.863645 0.628074 0.991131
0.982206 0.628848 0.991906
0.027960 0.742989 0.988260
0.150008 0.743786 0.989058
0.272055 0.744584 0.989855
0.392010 0.745367 0.990639
0.510570 0.746142 0.991413
0.629130 0.746916 0.992188
0.747691 0.747691 0.992962
0.866251 0.748465 0.993736
0.984811 0.749239 0.994511
0.030566 0.863380 0.990866
0.152613 0.864177 0.991663
0.274660 0.864975 0.992460
0.394615 0.865758 0.993244
0.513176 0.866533 0.994018
0.631736 0.867307 0.994793
0.750296 0.868082 0.995567
0.868856 0.868856 0.996342
0.987416 0.869631 0.997116
0.033171 0.983771 0.993471
0.155218 0.984568 0.994268
0.277266 0.985366 0.995066
0.397221 0.986149 0.995849
0.515781 0.986924 0.996624
0.634341 0.987698 0.997398
0.752901 0.988473 0.998173
0.871461 0.989247 0.998947
0.990022 0.990022 0.999722
