luts/neutral_slide_100.cube
TITLE "Fuji Provia 100F"
LUT_3D_SIZE 33
0.010064 0.010064 0.038748
0.040575 0.010263 0.038689
0.071087 0.010462 0.038630
0.101598 0.010660 0.038571
0.132109 0.010859 0.038512
0.162620 0.011058 0.038453
0.193131 0.011256 0.038394
0.223643 0.011455 0.038335
0.254154 0.011654 0.038276
0.284665 0.011853 0.038217
0.314828 0.012049 0.038158
0.344467 0.012242 0.038101
0.374107 0.012435 0.038044
0.403746 0.012628 0.037986
0.433386 0.012821 0.037929
0.463025 0.013014 0.037872
0.492665 0.013208 0.037814
0.522304 0.013401 0.037757
0.551944 0.013594 0.037699
0.581583 0.013787 0.037642
0.611223 0.013980 0.037585
0.640862 0.014173 0.037527
0.670502 0.014366 0.037470
0.700141 0.014559 0.037413
0.729781 0.014752 0.037355
0.759420 0.014945 0.037298
0.789060 0.015138 0.037241
0.818699 0.015331 0.037183
0.848338 0.015524 0.037126
0.877978 0.015717 0.037069
0.907617 0.015910 0.037011
0.937257 0.016103 0.036954
0.966896 0.016296 0.036897
0.010733 0.041045 0.038549
0.041244 0.041244 0.038490
0.071755 0.041443 0.038431
0.102266 0.041641 0.038372
0.132778 0.041840 0.038313
0.163289 0.042039 0.038254
0.193800 0.042238 0.038195
0.224311 0.042436 0.038136
0.254823 0.042635 0.038077
0.285334 0.042834 0.038018
0.315496 0.043030 0.037960
0.345136 0.043223 0.037902
0.374775 0.043416 0.037845
0.404415 0.043609 0.037788
0.434054 0.043802 0.037730
0.463694 0.043996 0.037673
0.493333 0.044189 0.037616
0.522973 0.044382 0.037558
0.552612 0.044575 0.037501
0.582252 0.044768 0.037444
0.611891 0.044961 0.037386
0.641531 0.045154 0.037329
0.671170 0.045347 0.037271
0.700810 0.045540 0.037214
0.730449 0.045733 0.037157
0.760089 0.045926 0.037099
0.789728 0.046119 0.037042
0.819368 0.046312 0.036985
0.849007 0.046505 0.036927
0.878647 0.046698 0.036870
0.908286 0.046891 0.036813
0.937926 0.047084 0.036755
0.967565 0.047278 0.036698
0.011401 0.072026 0.038351
0.041912 0.072225 0.038292
0.072424 0.072424 0.038233
0.102935 0.072622 0.038174
0.133446 0.072821 0.038115
0.163957 0.073020 0.038056
0.194469 0.073219 0.037997
0.224980 0.073417 0.037938
0.255491 0.073616 0.037878
0.286002 0.073815 0.037819
0.316165 0.074011 0.037761
0.345804 0.074204 0.037704
0.375444 0.074397 0.037646
0.405083 0.074590 0.037589
0.434723 0.074784 0.037532
0.464362 0.074977 0.037474
0.494002 0.075170 0.037417
0.523641 0.075363 0.037360
0.553281 0.075556 0.037302
0.582920 0.075749 0.037245
0.612560 0.075942 0.037188
0.642199 0.076135 0.037130
0.671839 0.076328 0.037073
0.701478 0.076521 0.037015
0.731118 0.076714 0.036958
0.760757 0.076907 0.036901
0.790397 0.077100 0.036843
0.820036 0.077293 0.036786
0.849676 0.077486 0.036729
0.879315 0.077679 0.036671
0.908955 0.077872 0.036614
0.938594 0.078066 0.036557
0.968234 0.078259 0.036499
0.012070 0.103007 0.038152
0.042581 0.103206 0.038093
0.073092 0.103405 0.038034
0.103603 0.103603 0.037975
0.134115 0.103802 0.037916
0.164626 0.104001 0.037857
0.195137 0.104200 0.037798
0.225648 0.104398 0.037739
0.256160 0.104597 0.037680
0.286671 0.104796 0.037621
0.316833 0.104992 0.037562
0.346473 0.105185 0.037505
0.376112 0.105378 0.037448
0.405752 0.105572 0.037390
0.435391 0.105765 0.037333
0.465031 0.105958 0.037276
0.494670 0.106151 0.037218
0.524310 0.106344 0.037161
0.553949 0.106537 0.037104
0.583589 0.106730 0.037046
0.613228 0.106923 0.036989
0.642868 0.107116 0.036932
0.672507 0.107309 0.036874
0.702147 0.107502 0.036817
0.731786 0.107695 0.036760
0.761426 0.107888 0.036702
0.791065 0.108081 0.036645
0.820705 0.108274 0.036587
0.850344 0.108467 0.036530
0.879984 0.108660 0.036473
0.909623 0.108854 0.036415
0.939263 0.109047 0.036358
0.968902 0.109240 0.036301
0.012738 0.133988 0.037954
0.043250 0.134187 0.037895
0.073761 0.134386 0.037835
0.104272 0.134585 0.037776
0.134783 0.134783 0.037717
0.165294 0.134982 0.037658
0.195806 0.135181 0.037599
0.226317 0.135379 0.037540
0.256828 0.135578 0.037481
0.287339 0.135777 0.037422
0.317502 0.135973 0.037364
0.347141 0.136166 0.037306
0.376781 0.136360 0.037249
0.406420 0.136553 0.037192
0.436060 0.136746 0.037134
0.465699 0.136939 0.037077
0.495339 0.137132 0.037020
0.524978 0.137325 0.036962
0.554618 0.137518 0.036905
0.584257 0.137711 0.036848
0.613897 0.137904 0.036790
0.643536 0.138097 0.036733
0.673176 0.138290 0.036676
0.702815 0.138483 0.036618
0.732455 0.138676 0.036561
0.762094 0.138869 0.036504
0.791734 0.139062 0.036446
0.821373 0.139255 0.036389
0.851013 0.139448 0.036331
0.880652 0.139642 0.036274
0.910292 0.139835 0.036217
0.939931 0.140028 0.036159
0.969571 0.140221 0.036102
0.013407 0.164969 0.037755
0.043918 0.165168 0.037696
0.074429 0.165367 0.037637
0.104941 0.165566 0.037578
0.135452 0.165764 0.037519
0.165963 0.165963 0.037460
0.196474 0.166162 0.037401
0.226986 0.166361 0.037342
0.257497 0.166559 0.037283
0.288008 0.166758 0.037224
0.318171 0.166954 0.037165
0.347810 0.167148 0.037108
0.377450 0.167341 0.037051
0.407089 0.167534 0.036993
0.436728 0.167727 0.036936
0.466368 0.167920 0.036878
0.496007 0.168113 0.036821
0.525647 0.168306 0.036764
0.555286 0.168499 0.036706
0.584926 0.168692 0.036649
0.614565 0.168885 0.036592
0.644205 0.169078 0.036534
0.673844 0.169271 0.036477
0.703484 0.169464 0.036420
0.733123 0.169657 0.036362
0.762763 0.169850 0.036305
0.792402 0.170043 0.036248
0.822042 0.170236 0.036190
0.851681 0.170430 0.036133
0.881321 0.170623 0.036076
0.910960 0.170816 0.036018
0.940600 0.171009 0.035961
0.970239 0.171202 0.035903
0.014075 0.195950 0.037556
0.044587 0.196149 0.037497
0.075098 0.196348 0.037438
0.105609 0.196547 0.037379
0.136120 0.196745 0.037320
0.166632 0.196944 0.037261
0.197143 0.197143 0.037202
0.227654 0.197342 0.037143
0.258165 0.197540 0.037084
0.288677 0.197739 0.037025
0.318839 0.197936 0.036967
0.348479 0.198129 0.036909
0.378118 0.198322 0.036852
0.407758 0.198515 0.036795
0.437397 0.198708 0.036737
0.467037 0.198901 0.036680
0.496676 0.199094 0.036622
0.526316 0.199287 0.036565
0.555955 0.199480 0.036508
0.585594 0.199673 0.036450
0.615234 0.199866 0.036393
0.644873 0.200059 0.036336
0.674513 0.200252 0.036278
0.704152 0.200445 0.036221
0.733792 0.200638 0.036164
0.763431 0.200831 0.036106
0.793071 0.201024 0.036049
0.822710 0.201218 0.035992
0.852350 0.201411 0.035934
0.881989 0.201604 0.035877
0.911629 0.201797 0.035820
0.941268 0.201990 0.035762
0.970908 0.202183 0.035705
0.014744 0.226931 0.037358
0.045255 0.227130 0.037299
0.075766 0.227329 0.037240
0.106278 0.227528 0.037181
0.136789 0.227726 0.037122
0.167300 0.227925 0.037063
0.197811 0.228124 0.037003
0.228323 0.228323 0.036944
0.258834 0.228521 0.036885
0.289345 0.228720 0.036826
0.319508 0.228917 0.036768
0.349147 0.229110 0.036711
0.378787 0.229303 0.036653
0.408426 0.229496 0.036596
0.438066 0.229689 0.036539
0.467705 0.229882 0.036481
0.497345 0.230075 0.036424
0.526984 0.230268 0.036367
0.556624 0.230461 0.036309
0.586263 0.230654 0.036252
0.615903 0.230847 0.036194
0.645542 0.231040 0.036137
0.675182 0.231233 0.036080
0.704821 0.231426 0.036022
0.734460 0.231619 0.035965
0.764100 0.231812 0.035908
0.793739 0.232006 0.035850
0.823379 0.232199 0.035793
0.853018 0.232392 0.035736
0.882658 0.232585 0.035678
0.912297 0.232778 0.035621
0.941937 0.232971 0.035564
0.971576 0.233164 0.035506
0.015413 0.257913 0.037159
0.045924 0.258111 0.037100
0.076435 0.258310 0.037041
0.106946 0.258509 0.036982
0.137458 0.258708 0.036923
0.167969 0.258906 0.036864
0.198480 0.259105 0.036805
0.228991 0.259304 0.036746
0.259502 0.259502 0.036687
0.290014 0.259701 0.036628
0.320176 0.259898 0.036569
0.349816 0.260091 0.036512
0.379455 0.260284 0.036455
0.409095 0.260477 0.036397
0.438734 0.260670 0.036340
0.468374 0.260863 0.036283
0.498013 0.261056 0.036225
0.527653 0.261249 0.036168
0.557292 0.261442 0.036111
0.586932 0.261635 0.036053
0.616571 0.261828 0.035996
0.646211 0.262021 0.035938
0.675850 0.262214 0.035881
0.705490 0.262407 0.035824
0.735129 0.262600 0.035766
0.764769 0.262794 0.035709
0.794408 0.262987 0.035652
0.824048 0.263180 0.035594
0.853687 0.263373 0.035537
0.883326 0.263566 0.035480
0.912966 0.263759 0.035422
0.942605 0.263952 0.035365
0.972245 0.264145 0.035308
0.016081 0.288894 0.036960
0.046592 0.289092 0.036901
0.077104 0.289291 0.036842
0.107615 0.289490 0.036783
0.138126 0.289689 0.036724
0.168637 0.289887 0.036665
0.199149 0.290086 0.036606
0.229660 0.290285 0.036547
0.260171 0.290484 0.036488
0.290682 0.290682 0.036429
0.320845 0.290879 0.036371
0.350484 0.291072 0.036313
0.380124 0.291265 0.036256
0.409763 0.291458 0.036199
0.439403 0.291651 0.036141
0.469042 0.291844 0.036084
0.498682 0.292037 0.036027
0.528321 0.292230 0.035969
0.557961 0.292423 0.035912
0.587600 0.292616 0.035855
0.617240 0.292809 0.035797
0.646879 0.293002 0.035740
0.676519 0.293195 0.035683
0.706158 0.293388 0.035625
0.735798 0.293582 0.035568
0.765437 0.293775 0.035510
0.795077 0.293968 0.035453
0.824716 0.294161 0.035396
0.854356 0.294354 0.035338
0.883995 0.294547 0.035281
0.913635 0.294740 0.035224
0.943274 0.294933 0.035166
0.972914 0.295126 0.035109
0.016742 0.319521 0.036764
0.047253 0.319719 0.036705
0.077765 0.319918 0.036646
0.108276 0.320117 0.036587
0.138787 0.320316 0.036528
0.169298 0.320514 0.036469
0.199809 0.320713 0.036410
0.230321 0.320912 0.036351
0.260832 0.321111 0.036292
0.291343 0.321309 0.036233
0.321506 0.321506 0.036174
0.351145 0.321699 0.036117
0.380785 0.321892 0.036060
0.410424 0.322085 0.036002
0.440064 0.322278 0.035945
0.469703 0.322471 0.035888
0.499343 0.322664 0.035830
0.528982 0.322857 0.035773
0.558622 0.323050 0.035716
0.588261 0.323243 0.035658
0.617901 0.323436 0.035601
0.647540 0.323629 0.035544
0.677180 0.323822 0.035486
0.706819 0.324015 0.035429
0.736459 0.324209 0.035371
0.766098 0.324402 0.035314
0.795738 0.324595 0.035257
0.825377 0.324788 0.035199
0.855016 0.324981 0.035142
0.884656 0.325174 0.035085
0.914295 0.325367 0.035027
0.943935 0.325560 0.034970
0.973574 0.325753 0.034913
0.017392 0.349617 0.036571
0.047903 0.349815 0.036512
0.078414 0.350014 0.036453
0.108925 0.350213 0.036394
0.139436 0.350411 0.036335
0.169948 0.350610 0.036276
0.200459 0.350809 0.036217
0.230970 0.351008 0.036158
0.261481 0.351206 0.036099
0.291993 0.351405 0.036040
0.322155 0.351602 0.035981
0.351795 0.351795 0.035924
0.381434 0.351988 0.035867
0.411074 0.352181 0.035809
0.440713 0.352374 0.035752
0.470353 0.352567 0.035695
0.499992 0.352760 0.035637
0.529632 0.352953 0.035580
0.559271 0.353146 0.035523
0.588911 0.353339 0.035465
0.618550 0.353532 0.035408
0.648190 0.353725 0.035351
0.677829 0.353918 0.035293
0.707469 0.354111 0.035236
0.737108 0.354304 0.035179
0.766747 0.354497 0.035121
0.796387 0.354691 0.035064
0.826026 0.354884 0.035006
0.855666 0.355077 0.034949
0.885305 0.355270 0.034892
0.914945 0.355463 0.034834
0.944584 0.355656 0.034777
0.974224 0.355849 0.034720
0.018041 0.379712 0.036378
0.048552 0.379911 0.036319
0.079063 0.380110 0.036260
0.109575 0.380309 0.036201
0.140086 0.380507 0.036142
0.170597 0.380706 0.036083
0.201108 0.380905 0.036024
0.231620 0.381104 0.035965
0.262131 0.381302 0.035906
0.292642 0.381501 0.035847
0.322805 0.381697 0.035789
0.352444 0.381891 0.035731
0.382084 0.382084 0.035674
0.411723 0.382277 0.035616
0.441363 0.382470 0.035559
0.471002 0.382663 0.035502
0.500642 0.382856 0.035444
0.530281 0.383049 0.035387
0.559921 0.383242 0.035330
0.589560 0.383435 0.035272
0.619200 0.383628 0.035215
0.648839 0.383821 0.035158
0.678478 0.384014 0.035100
0.708118 0.384207 0.035043
0.737757 0.384400 0.034986
0.767397 0.384593 0.034928
0.797036 0.384786 0.034871
0.826676 0.384979 0.034814
0.856315 0.385173 0.034756
0.885955 0.385366 0.034699
0.915594 0.385559 0.034641
0.945234 0.385752 0.034584
0.974873 0.385945 0.034527
0.018690 0.409808 0.036185
0.049202 0.410007 0.036126
0.079713 0.410206 0.036067
0.110224 0.410404 0.036008
0.140735 0.410603 0.035949
0.171247 0.410802 0.035890
0.201758 0.411001 0.035831
0.232269 0.411199 0.035772
0.262780 0.411398 0.035713
0.293292 0.411597 0.035654
0.323454 0.411793 0.035596
0.353094 0.411986 0.035538
0.382733 0.412180 0.035481
0.412373 0.412373 0.035424
0.442012 0.412566 0.035366
0.471652 0.412759 0.035309
0.501291 0.412952 0.035251
0.530931 0.413145 0.035194
0.560570 0.413338 0.035137
0.590209 0.413531 0.035079
0.619849 0.413724 0.035022
0.649488 0.413917 0.034965
0.679128 0.414110 0.034907
0.708767 0.414303 0.034850
0.738407 0.414496 0.034793
0.768046 0.414689 0.034735
0.797686 0.414882 0.034678
0.827325 0.415075 0.034621
0.856965 0.415268 0.034563
0.886604 0.415462 0.034506
0.916244 0.415655 0.034449
0.945884 0.415848 0.034469
0.975524 0.416042 0.034913
0.019340 0.439904 0.035992
0.049851 0.440103 0.035933
0.080362 0.440302 0.035874
0.110874 0.440500 0.035815
0.141385 0.440699 0.035756
0.171896 0.440898 0.035697
0.202407 0.441097 0.035638
0.232919 0.441295 0.035579
0.263430 0.441494 0.035520
0.293941 0.441693 0.035461
0.324104 0.441889 0.035403
0.353743 0.442082 0.035345
0.383383 0.442275 0.035288
0.413022 0.442468 0.035231
0.442662 0.442662 0.035173
0.472301 0.442855 0.035116
0.501940 0.443048 0.035059
0.531580 0.443241 0.035001
0.561219 0.443434 0.034944
0.590859 0.443627 0.034886
0.620498 0.443820 0.034829
0.650138 0.444013 0.034772
0.679777 0.444206 0.034714
0.709417 0.444399 0.034657
0.739056 0.444592 0.034600
0.768696 0.444785 0.034542
0.798335 0.444978 0.034485
0.827975 0.445171 0.034428
0.857615 0.445365 0.034630
0.887256 0.445559 0.035075
0.916896 0.445753 0.035520
0.946537 0.445947 0.035964
0.976177 0.446142 0.036409
0.019989 0.470000 0.035799
0.050501 0.470199 0.035740
0.081012 0.470398 0.035681
0.111523 0.470596 0.035622
0.142034 0.470795 0.035563
0.172546 0.470994 0.035504
0.203057 0.471192 0.035445
0.233568 0.471391 0.035386
0.264079 0.471590 0.035327
0.294590 0.471789 0.035268
0.324753 0.471985 0.035210
0.354393 0.472178 0.035152
0.384032 0.472371 0.035095
0.413671 0.472564 0.035038
0.443311 0.472757 0.034980
0.472950 0.472950 0.034923
0.502590 0.473144 0.034866
0.532229 0.473337 0.034808
0.561869 0.473530 0.034751
0.591508 0.473723 0.034694
0.621148 0.473916 0.034636
0.650787 0.474109 0.034579
0.680427 0.474302 0.034521
0.710066 0.474495 0.034464
0.739706 0.474688 0.034407
0.769346 0.474882 0.034792
0.798987 0.475076 0.035237
0.828628 0.475270 0.035681
0.858268 0.475465 0.036126
0.887909 0.475659 0.036571
0.917549 0.475853 0.037015
0.947190 0.476047 0.037460
0.976831 0.476241 0.037904
0.020639 0.500096 0.035606
0.051150 0.500295 0.035547
0.081661 0.500493 0.035488
0.112173 0.500692 0.035429
0.142684 0.500891 0.035370
0.173195 0.501090 0.035311
0.203706 0.501288 0.035252
0.234217 0.501487 0.035193
0.264729 0.501686 0.035134
0.295240 0.501885 0.035075
0.325402 0.502081 0.035017
0.355042 0.502274 0.034959
0.384681 0.502467 0.034902
0.414321 0.502660 0.034845
0.443960 0.502853 0.034787
0.473600 0.503046 0.034730
0.503239 0.503239 0.034673
0.532879 0.503432 0.034615
0.562518 0.503626 0.034558
0.592158 0.503819 0.034501
0.621797 0.504012 0.034443
0.651437 0.504205 0.034510
0.681078 0.504399 0.034954
0.710718 0.504593 0.035399
0.740359 0.504788 0.035843
0.770000 0.504982 0.036288
0.799640 0.505176 0.036732
0.829281 0.505370 0.037177
0.858921 0.505564 0.037622
0.888562 0.505758 0.038066
0.918203 0.505953 0.038511
0.947843 0.506147 0.038955
0.977484 0.506341 0.039400
0.021288 0.530192 0.035414
0.051800 0.530391 0.035355
0.082311 0.530589 0.035295
0.112822 0.530788 0.035236
0.143333 0.530987 0.035177
0.173844 0.531186 0.035118
0.204356 0.531384 0.035059
0.234867 0.531583 0.035000
0.265378 0.531782 0.034941
0.295889 0.531980 0.034882
0.326052 0.532177 0.034824
0.355691 0.532370 0.034766
0.385331 0.532563 0.034709
0.414970 0.532756 0.034652
0.444610 0.532949 0.034594
0.474249 0.533142 0.034537
0.503889 0.533335 0.034480
0.533528 0.533528 0.034422
0.563169 0.533722 0.034671
0.592809 0.533916 0.035116
0.622450 0.534110 0.035561
0.652090 0.534305 0.036005
0.681731 0.534499 0.036450
0.711372 0.534693 0.036894
0.741012 0.534887 0.037339
0.770653 0.535081 0.037784
0.800293 0.535276 0.038228
0.829934 0.535470 0.038673
0.859575 0.535664 0.039117
0.889215 0.535858 0.039562
0.918856 0.536052 0.040006
0.948496 0.536246 0.040451
0.978137 0.536441 0.040896
0.021938 0.560288 0.035221
0.052449 0.560486 0.035162
0.082960 0.560685 0.035103
0.113471 0.560884 0.035043
0.143983 0.561083 0.034984
0.174494 0.561281 0.034925
0.205005 0.561480 0.034866
0.235516 0.561679 0.034807
0.266028 0.561878 0.034748
0.296539 0.562076 0.034689
0.326701 0.562273 0.034631
0.356341 0.562466 0.034574
0.385980 0.562659 0.034516
0.415620 0.562852 0.034459
0.445259 0.563045 0.034401
0.474900 0.563239 0.034833
0.504541 0.563433 0.035278
0.534181 0.563628 0.035722
0.563822 0.563822 0.036167
0.593462 0.564016 0.036612
0.623103 0.564210 0.037056
0.652744 0.564404 0.037501
0.682384 0.564598 0.037945
0.712025 0.564793 0.038390
0.741665 0.564987 0.038835
0.771306 0.565181 0.039279
0.800947 0.565375 0.039724
0.830587 0.565569 0.040168
0.860228 0.565764 0.040613
0.889868 0.565958 0.041057
0.919509 0.566152 0.041502
0.949150 0.566346 0.041947
0.978790 0.566540 0.042391
0.022587 0.590384 0.035028
0.053098 0.590582 0.034969
0.083610 0.590781 0.034910
0.114121 0.590980 0.034851
0.144632 0.591179 0.034792
0.175143 0.591377 0.034732
0.205655 0.591576 0.034673
0.236166 0.591775 0.034614
0.266677 0.591974 0.034555
0.297188 0.592172 0.034496
0.327351 0.592369 0.034438
0.356991 0.592562 0.034551
0.386631 0.592756 0.034995
0.416272 0.592951 0.035440
0.445913 0.593145 0.035884
0.475553 0.593339 0.036329
0.505194 0.593533 0.036773
0.534834 0.593727 0.037218
0.564475 0.593921 0.037663
0.594116 0.594116 0.038107
0.623756 0.594310 0.038552
0.653397 0.594504 0.038996
0.683037 0.594698 0.039441
0.712678 0.594892 0.039886
0.742319 0.595086 0.040330
0.771959 0.595281 0.040775
0.801600 0.595475 0.041219
0.831240 0.595669 0.041664
0.860881 0.595863 0.042109
0.890522 0.596057 0.042553
0.920162 0.596252 0.042998
0.949803 0.596446 0.043442
0.979443 0.596640 0.043887
0.023237 0.620480 0.034835
0.053748 0.620678 0.034776
0.084259 0.620877 0.034717
0.114770 0.621076 0.034658
0.145282 0.621274 0.034599
0.175793 0.621473 0.034540
0.206304 0.621672 0.034480
0.236815 0.621871 0.034421
0.267327 0.622070 0.034691
0.297840 0.622270 0.035149
0.328003 0.622468 0.035602
0.357644 0.622662 0.036046
0.387285 0.622856 0.036491
0.416925 0.623050 0.036935
0.446566 0.623244 0.037380
0.476206 0.623439 0.037824
0.505847 0.623633 0.038269
0.535488 0.623827 0.038714
0.565128 0.624021 0.039158
0.594769 0.624215 0.039603
0.624409 0.624409 0.040047
0.654050 0.624604 0.040492
0.683691 0.624798 0.040937
0.713331 0.624992 0.041381
0.742972 0.625186 0.041826
0.772612 0.625380 0.042270
0.802253 0.625574 0.042715
0.831894 0.625769 0.043160
0.861534 0.625963 0.043604
0.891175 0.626157 0.044049
0.920815 0.626351 0.044493
0.950456 0.626545 0.044938
0.980097 0.626740 0.045383
0.023886 0.650575 0.034642
0.054397 0.650774 0.034583
0.084909 0.650973 0.034524
0.115420 0.651172 0.034465
0.145931 0.651370 0.034406
0.176443 0.651570 0.034814
0.206956 0.651770 0.035272
0.237468 0.651970 0.035729
0.267981 0.652170 0.036187
0.298493 0.652370 0.036645
0.328657 0.652567 0.037097
0.358297 0.652761 0.037542
0.387938 0.652956 0.037986
0.417578 0.653150 0.038431
0.447219 0.653344 0.038876
0.476860 0.653538 0.039320
0.506500 0.653732 0.039765
0.536141 0.653927 0.040209
0.565781 0.654121 0.040654
0.595422 0.654315 0.041098
0.625063 0.654509 0.041543
0.654703 0.654703 0.041988
0.684344 0.654897 0.042432
0.713984 0.655092 0.042877
0.743625 0.655286 0.043321
0.773266 0.655480 0.043766
0.802906 0.655674 0.044211
0.832547 0.655868 0.044655
0.862187 0.656062 0.045100
0.891828 0.656257 0.045544
0.921469 0.656451 0.045989
0.951109 0.656645 0.046434
0.980750 0.656839 0.046878
0.024536 0.680671 0.034449
0.055047 0.680870 0.034479
0.085559 0.681070 0.034937
0.116072 0.681270 0.035394
0.146584 0.681470 0.035852
0.177097 0.681670 0.036310
0.207609 0.681870 0.036767
0.238121 0.682070 0.037225
0.268634 0.682269 0.037683
0.299146 0.682469 0.038140
0.329310 0.682667 0.038593
0.358950 0.682861 0.039037
0.388591 0.683055 0.039482
0.418232 0.683249 0.039927
0.447872 0.683444 0.040371
0.477513 0.683638 0.040816
0.507153 0.683832 0.041260
0.536794 0.684026 0.041705
0.566435 0.684220 0.042150
0.596075 0.684415 0.042594
0.625716 0.684609 0.043039
0.655356 0.684803 0.043483
0.684997 0.684997 0.043928
0.714638 0.685191 0.044372
0.744278 0.685385 0.044817
0.773919 0.685580 0.045262
0.803559 0.685774 0.045706
0.833200 0.685968 0.046151
0.862841 0.686162 0.046595
0.892481 0.686356 0.047040
0.922122 0.686550 0.047485
0.951763 0.686745 0.047929
0.981403 0.686939 0.048374
0.025188 0.710770 0.035517
0.055700 0.710970 0.035975
0.086213 0.711170 0.036432
0.116725 0.711370 0.036890
0.147237 0.711570 0.037348
0.177750 0.711769 0.037805
0.208262 0.711969 0.038263
0.238775 0.712169 0.038721
0.269287 0.712369 0.039178
0.299799 0.712569 0.039636
0.329963 0.712767 0.040088
0.359604 0.712961 0.040533
0.389244 0.713155 0.040978
0.418885 0.713349 0.041422
0.448525 0.713543 0.041867
0.478166 0.713737 0.042311
0.507807 0.713932 0.042756
0.537447 0.714126 0.043201
0.567088 0.714320 0.043645
0.596728 0.714514 0.044090
0.626369 0.714708 0.044534
0.656010 0.714903 0.044979
0.685650 0.715097 0.045424
0.715291 0.715291 0.045868
0.744932 0.715485 0.046313
0.774572 0.715679 0.046757
0.804213 0.715873 0.047202
0.833853 0.716068 0.047646
0.863494 0.716262 0.048091
0.893135 0.716456 0.048536
0.922775 0.716650 0.048980
0.952416 0.716844 0.049425
0.982056 0.717038 0.049869
0.025841 0.740870 0.037013
0.056353 0.741070 0.037470
0.086866 0.741269 0.037928
0.117378 0.741469 0.038386
0.147891 0.741669 0.038843
0.178403 0.741869 0.039301
0.208915 0.742069 0.039759
0.239428 0.742269 0.040216
0.269940 0.742469 0.040674
0.300453 0.742669 0.041132
0.330616 0.742866 0.041584
0.360257 0.743060 0.042029
0.389897 0.743255 0.042473
0.419538 0.743449 0.042918
0.449179 0.743643 0.043362
0.478819 0.743837 0.043807
0.508460 0.744031 0.044252
0.538100 0.744225 0.044696
0.567741 0.744420 0.045141
0.597382 0.744614 0.045585
0.627022 0.744808 0.046030
0.656663 0.745002 0.046475
0.686304 0.745196 0.046919
0.715944 0.745391 0.047364
0.745585 0.745585 0.047808
0.775225 0.745779 0.048253
0.804866 0.745973 0.048697
0.834507 0.746167 0.049142
0.864147 0.746361 0.049587
0.893788 0.746556 0.050031
0.923428 0.746750 0.050476
0.953069 0.746944 0.050920
0.982710 0.747138 0.051365
0.026494 0.770969 0.038508
0.057007 0.771169 0.038966
0.087519 0.771369 0.039424
0.118031 0.771569 0.039881
0.148544 0.771769 0.040339
0.179056 0.771969 0.040797
0.209569 0.772169 0.041254
0.240081 0.772369 0.041712
0.270593 0.772568 0.042170
0.301106 0.772768 0.042627
0.331269 0.772966 0.043080
0.360910 0.773160 0.043524
0.390551 0.773354 0.043969
0.420191 0.773548 0.044413
0.449832 0.773743 0.044858
0.479473 0.773937 0.045303
0.509113 0.774131 0.045747
0.538754 0.774325 0.046192
0.568394 0.774519 0.046636
0.598035 0.774713 0.047081
0.627676 0.774908 0.047526
0.657316 0.775102 0.047970
0.686957 0.775296 0.048415
0.716597 0.775490 0.048859
0.746238 0.775684 0.049304
0.775879 0.775879 0.049749
0.805519 0.776073 0.050193
0.835160 0.776267 0.050638
0.864800 0.776461 0.051082
0.894441 0.776655 0.051527
0.924082 0.776849 0.051971
0.953722 0.777044 0.052416
0.983363 0.777238 0.052861
0.027148 0.801069 0.040004
0.057660 0.801269 0.040462
0.088172 0.801469 0.040919
0.118685 0.801669 0.041377
0.149197 0.801869 0.041835
0.179709 0.802068 0.042292
0.210222 0.802268 0.042750
0.240734 0.802468 0.043208
0.271247 0.802668 0.043665
0.301759 0.802868 0.044123
0.331923 0.803066 0.044575
0.361563 0.803260 0.045020
0.391204 0.803454 0.045464
0.420845 0.803648 0.045909
0.450485 0.803842 0.046354
0.480126 0.804036 0.046798
0.509766 0.804231 0.047243
0.539407 0.804425 0.047687
0.569048 0.804619 0.048132
0.598688 0.804813 0.048577
0.628329 0.805007 0.049021
0.657969 0.805202 0.049466
0.687610 0.805396 0.049910
0.717251 0.805590 0.050355
0.746891 0.805784 0.050800
0.776532 0.805978 0.051244
0.806172 0.806172 0.051689
0.835813 0.806367 0.052133
0.865454 0.806561 0.052578
