luts/punchy_everyday_200.cube
TITLE "Agfa Vista 200"
LUT_3D_SIZE 9
0.081941 0.009116 0.051791
0.215621 0.007747 0.050998
0.349300 0.006378 0.050206
0.475956 0.005080 0.049455
0.597931 0.003831 0.048732
0.719905 0.002582 0.048009
0.830052 0.001454 0.047356
0.937241 0.000356 0.046720
1.000000 0.000000 0.046142
0.076029 0.127456 0.049383
0.209708 0.126087 0.048590
0.343387 0.124717 0.047798
0.470043 0.123420 0.047047
0.592018 0.122171 0.046324
0.713992 0.120921 0.045600
0.824139 0.119793 0.044947
0.931329 0.118695 0.044312
1.000000 0.117637 0.043716
0.070116 0.245795 0.046975
0.203795 0.244426 0.046182
0.337475 0.243057 0.045390
0.464131 0.241760 0.044639
0.586105 0.240511 0.043916
0.708080 0.239261 0.043192
0.818227 0.238133 0.042539
0.925416 0.237035 0.041904
1.000000 0.235959 0.041290
0.064276 0.362686 0.044596
0.197955 0.361317 0.043803
0.331634 0.359948 0.043011
0.458291 0.358650 0.042260
0.580265 0.357401 0.041537
0.702240 0.356152 0.040814
0.812387 0.355024 0.040161
0.919576 0.353926 0.039525
1.000000 0.352832 0.038894
0.058484 0.478611 0.042237
0.192163 0.477242 0.041445
0.325843 0.475872 0.040652
0.452499 0.474575 0.039901
0.574473 0.473326 0.039178
0.696448 0.472076 0.038455
0.805875 0.471644 0.036375
0.912124 0.471455 0.033874
1.000000 0.471266 0.031374
0.052692 0.594535 0.039878
0.186372 0.593166 0.039086
0.320051 0.591797 0.038293
0.445603 0.591566 0.035353
0.566508 0.591352 0.032508
0.687412 0.591137 0.029662
0.796592 0.590943 0.027092
0.902841 0.590754 0.024591
1.000000 0.590565 0.022090
0.045995 0.708577 0.035495
0.178501 0.708342 0.032376
0.311007 0.708106 0.029257
0.436552 0.707883 0.026302
0.557456 0.707668 0.023456
0.678360 0.707453 0.020610
0.787541 0.707259 0.018041
0.893790 0.707070 0.015540
1.000000 0.706881 0.013039
0.037002 0.824148 0.026502
0.169508 0.823913 0.023383
0.302014 0.823677 0.020264
0.427559 0.823454 0.017309
0.548463 0.823239 0.014463
0.669367 0.823024 0.011617
0.778547 0.822830 0.009047
0.884796 0.822641 0.006546
0.991046 0.822452 0.004046
0.028008 0.939719 0.017508
0.160514 0.939483 0.014389
0.293021 0.939248 0.011271
0.418566 0.939025 0.008316
0.539470 0.938810 0.005470
0.660374 0.938595 0.002624
0.769554 0.938401 0.000054
0.875803 0.938212 0.000000
0.982052 0.938023 0.000000
0.081323 0.008681 0.178414
0.215002 0.007312 0.177621
0.348681 0.005943 0.176829
0.475338 0.004645 0.176078
0.597312 0.003396 0.175355
0.719287 0.002147 0.174632
0.829434 0.001019 0.173979
0.936623 0.000000 0.173343
1.000000 0.000000 0.172763
0.075411 0.127021 0.176006
0.209090 0.125652 0.175213
0.342769 0.124282 0.174421
0.469425 0.122985 0.173670
0.591400 0.121736 0.172947
0.713374 0.120487 0.172224
0.823521 0.119358 0.171571
0.930711 0.118260 0.170935
1.000000 0.117200 0.170338
0.069498 0.245360 0.173598
0.203177 0.243991 0.172805
0.336856 0.242622 0.172013
0.463513 0.241325 0.171262
0.585487 0.240076 0.170539
0.707462 0.238826 0.169816
0.817608 0.237698 0.169163
0.924798 0.236600 0.168527
1.000000 0.235522 0.167912
0.063658 0.362251 0.171219
0.197337 0.360882 0.170427
0.331016 0.359513 0.169634
0.457673 0.358215 0.168883
0.579647 0.356966 0.168160
0.701622 0.355717 0.167437
0.811768 0.354589 0.166784
0.918958 0.353491 0.166149
1.000000 0.352396 0.165516
0.057866 0.478176 0.168860
0.191545 0.476807 0.168068
0.325224 0.475437 0.167275
0.451881 0.474140 0.166524
0.573855 0.472891 0.165801
0.695704 0.471763 0.164829
0.804884 0.471569 0.162259
0.911134 0.471380 0.159759
1.000000 0.471191 0.157258
0.052074 0.594100 0.166501
0.185753 0.592731 0.165709
0.319068 0.591715 0.164193
0.444613 0.591492 0.161238
0.565517 0.591277 0.158392
0.686421 0.591062 0.155546
0.795601 0.590868 0.152976
0.901850 0.590679 0.150475
1.000000 0.590490 0.147974
0.045004 0.708502 0.161379
0.177510 0.708267 0.158260
0.310016 0.708031 0.155141
0.435561 0.707808 0.152186
0.556465 0.707593 0.149340
0.677370 0.707378 0.146495
0.786550 0.707184 0.143925
0.892799 0.706995 0.141424
0.999048 0.706807 0.138923
0.036011 0.824073 0.152386
0.168517 0.823838 0.149267
0.301023 0.823602 0.146148
0.426568 0.823379 0.143193
0.547472 0.823164 0.140347
0.668376 0.822949 0.137501
0.777556 0.822755 0.134931
0.883806 0.822566 0.132431
0.990055 0.822378 0.129930
0.027018 0.939644 0.143393
0.159524 0.939409 0.140274
0.292030 0.939173 0.137155
0.417575 0.938950 0.134200
0.538479 0.938735 0.131354
0.659383 0.938520 0.128508
0.768563 0.938326 0.125938
0.874812 0.938137 0.123437
0.981061 0.937949 0.120936
0.080705 0.008246 0.305037
0.214384 0.006877 0.304245
0.348063 0.005508 0.303452
0.474720 0.004210 0.302701
0.596694 0.002961 0.301978
0.718669 0.001712 0.301255
0.828815 0.000584 0.300602
0.936005 0.000000 0.299967
1.000000 0.000000 0.299385
0.074792 0.126586 0.302629
0.208472 0.125217 0.301837
0.342151 0.123847 0.301044
0.468807 0.122550 0.300293
0.590782 0.121301 0.299570
0.712756 0.120052 0.298847
0.822903 0.118923 0.298194
0.930093 0.117825 0.297558
1.000000 0.116764 0.296959
0.068880 0.244925 0.300221
0.202559 0.243556 0.299429
0.336238 0.242187 0.298636
0.462895 0.240890 0.297885
0.584869 0.239641 0.297162
0.706844 0.238391 0.296439
0.816990 0.237263 0.295786
0.924180 0.236165 0.295150
1.000000 0.235086 0.294533
0.063040 0.361816 0.297842
0.196719 0.360447 0.297050
0.330398 0.359078 0.296257
0.457054 0.357781 0.295507
0.579029 0.356531 0.294783
0.701003 0.355282 0.294060
0.811150 0.354154 0.293407
0.918340 0.353056 0.292772
1.000000 0.351959 0.292137
0.057248 0.477741 0.295484
0.190927 0.476372 0.294691
0.324606 0.475002 0.293899
0.451263 0.473705 0.293148
0.573237 0.472456 0.292425
0.694713 0.471688 0.290713
0.803894 0.471494 0.288144
0.910143 0.471305 0.285643
1.000000 0.471116 0.283142
0.051456 0.593665 0.293125
0.185135 0.592296 0.292332
0.318077 0.591640 0.290077
0.443622 0.591417 0.287122
0.564526 0.591202 0.284276
0.685430 0.590987 0.281430
0.794610 0.590793 0.278860
0.900859 0.590604 0.276359
1.000000 0.590415 0.273858
0.044013 0.708427 0.287263
0.176519 0.708192 0.284144
0.309025 0.707956 0.281025
0.434570 0.707733 0.278070
0.555475 0.707518 0.275225
0.676379 0.707304 0.272379
0.785559 0.707110 0.269809
0.891808 0.706921 0.267308
0.998057 0.706732 0.264807
0.035020 0.823998 0.278270
0.167526 0.823763 0.275151
0.300032 0.823527 0.272032
0.425577 0.823304 0.269077
0.546481 0.823089 0.266231
0.667385 0.822874 0.263385
0.776566 0.822680 0.260816
0.882815 0.822492 0.258315
0.989064 0.822303 0.255814
0.026027 0.939569 0.269277
0.158533 0.939334 0.266158
0.291039 0.939098 0.263039
0.416584 0.938875 0.260084
0.537488 0.938660 0.257238
0.658392 0.938445 0.254392
0.767572 0.938251 0.251822
0.873821 0.938063 0.249321
0.980071 0.937874 0.246821
0.080107 0.007825 0.427544
0.213786 0.006456 0.426751
0.347465 0.005087 0.425958
0.474122 0.003790 0.425208
0.596096 0.002540 0.424485
0.718071 0.001291 0.423761
0.828217 0.000163 0.423108
0.935407 0.000000 0.422473
1.000000 0.000000 0.421889
0.074194 0.126165 0.425135
0.207874 0.124796 0.424343
0.341553 0.123427 0.423550
0.468209 0.122129 0.422800
0.590184 0.120880 0.422076
0.712158 0.119631 0.421353
0.822305 0.118503 0.420700
0.929494 0.117405 0.420065
1.000000 0.116341 0.419464
0.068282 0.244505 0.422727
0.201961 0.243135 0.421935
0.335640 0.241766 0.421142
0.462296 0.240469 0.420392
0.584271 0.239220 0.419668
0.706245 0.237970 0.418945
0.816392 0.236842 0.418292
0.923582 0.235744 0.417657
1.000000 0.234663 0.417038
0.062442 0.361395 0.420349
0.196121 0.360026 0.419556
0.329800 0.358657 0.418764
0.456456 0.357360 0.418013
0.578431 0.356110 0.417290
0.700405 0.354861 0.416567
0.810552 0.353733 0.415914
0.917742 0.352635 0.415278
1.000000 0.351745 0.414217
0.056650 0.477320 0.417990
0.190329 0.475951 0.417197
0.324008 0.474582 0.416405
0.450664 0.473284 0.415654
0.572639 0.472035 0.414931
0.693755 0.471616 0.412505
0.802935 0.471422 0.409935
0.909184 0.471233 0.407434
1.000000 0.471044 0.404933
0.050858 0.593245 0.415631
0.184537 0.591875 0.414839
0.317118 0.591568 0.411868
0.442663 0.591344 0.408913
0.563567 0.591130 0.406067
0.684471 0.590915 0.403221
0.793652 0.590721 0.400652
0.899901 0.590532 0.398151
1.000000 0.590343 0.395650
0.043055 0.708355 0.409055
0.175561 0.708120 0.405936
0.308067 0.707884 0.402817
0.433612 0.707661 0.399862
0.554516 0.707446 0.397016
0.675420 0.707231 0.394170
0.784600 0.707037 0.391600
0.890849 0.706848 0.389099
0.997099 0.706659 0.386599
0.034061 0.823926 0.400061
0.166567 0.823690 0.396942
0.299073 0.823455 0.393823
0.424618 0.823232 0.390868
0.545523 0.823017 0.388023
0.666427 0.822802 0.385177
0.775607 0.822608 0.382607
0.881856 0.822419 0.380106
0.988105 0.822230 0.377605
0.025068 0.939497 0.391068
0.157574 0.939261 0.387949
0.290080 0.939026 0.384830
0.415625 0.938803 0.381875
0.536529 0.938588 0.379029
0.657434 0.938373 0.376184
0.766614 0.938179 0.373614
0.872863 0.937990 0.371113
0.979112 0.937801 0.368612
0.079522 0.007414 0.547305
0.213201 0.006045 0.546513
0.346880 0.004675 0.545720
0.473537 0.003378 0.544969
0.595511 0.002129 0.544246
0.717486 0.000880 0.543523
0.827633 0.000000 0.542870
0.934822 0.000000 0.542235
1.000000 0.000000 0.541649
0.073610 0.125754 0.544897
0.207289 0.124384 0.544105
0.340968 0.123015 0.543312
0.467624 0.121718 0.542561
0.589599 0.120469 0.541838
0.711573 0.119219 0.541115
0.821720 0.118091 0.540462
0.928910 0.116993 0.539827
1.000000 0.115928 0.539224
0.067697 0.244093 0.542489
0.201376 0.242724 0.541697
0.335055 0.241355 0.540904
0.461712 0.240058 0.540153
0.583686 0.238808 0.539430
0.705661 0.237559 0.538707
0.815807 0.236431 0.538054
0.922997 0.235333 0.537419
1.000000 0.234250 0.536798
0.061857 0.360984 0.540111
0.195536 0.359615 0.539318
0.329215 0.358246 0.538526
0.455872 0.356948 0.537775
0.577846 0.355699 0.537052
0.699821 0.354450 0.536329
0.809967 0.353321 0.535676
0.917157 0.352224 0.535040
1.000000 0.351674 0.533279
0.056065 0.476908 0.537752
0.189744 0.475539 0.536959
0.323423 0.474170 0.536167
0.450080 0.472873 0.535416
0.571913 0.471760 0.534413
0.692818 0.471545 0.531568
0.801998 0.471351 0.528998
0.908247 0.471162 0.526497
1.000000 0.470973 0.523996
0.050273 0.592833 0.535393
0.183675 0.591732 0.534050
0.316181 0.591497 0.530931
0.441726 0.591274 0.527976
0.562630 0.591059 0.525130
0.683534 0.590844 0.522284
0.792714 0.590650 0.519714
0.898964 0.590461 0.517214
1.000000 0.590272 0.514713
0.042117 0.708284 0.528117
0.174623 0.708049 0.524998
0.307130 0.707813 0.521880
0.432675 0.707590 0.518925
0.553579 0.707375 0.516079
0.674483 0.707160 0.513233
0.783663 0.706966 0.510663
0.889912 0.706778 0.508162
0.996161 0.706589 0.505661
0.033124 0.823855 0.519124
0.165630 0.823620 0.516005
0.298136 0.823384 0.512886
0.423681 0.823161 0.509931
0.544585 0.822946 0.507085
0.665490 0.822731 0.504240
0.774670 0.822537 0.501670
0.880919 0.822348 0.499169
0.987168 0.822160 0.496668
0.024131 0.939426 0.510131
0.156637 0.939191 0.507012
0.289143 0.938955 0.503893
0.414688 0.938732 0.500938
0.535592 0.938517 0.498092
0.656496 0.938302 0.495246
0.765677 0.938108 0.492677
0.871926 0.937919 0.490176
0.978175 0.937731 0.487675
0.078938 0.007002 0.667067
0.212617 0.005633 0.666275
0.346296 0.004264 0.665482
0.472952 0.002967 0.664731
0.594927 0.001717 0.664008
0.716901 0.000468 0.663285
0.827048 0.000000 0.662632
0.934238 0.000000 0.661997
1.000000 0.000000 0.661410
0.073025 0.125342 0.664659
0.206704 0.123973 0.663867
0.340383 0.122604 0.663074
0.467040 0.121306 0.662323
0.589014 0.120057 0.661600
0.710989 0.118808 0.660877
0.821135 0.117680 0.660224
0.928325 0.116582 0.659589
1.000000 0.115515 0.658984
0.067112 0.243682 0.662251
0.200792 0.242313 0.661459
0.334471 0.240943 0.660666
0.461127 0.239646 0.659915
0.583102 0.238397 0.659192
0.705076 0.237148 0.658469
0.815223 0.236019 0.657816
0.922413 0.234922 0.657181
1.000000 0.233837 0.656558
0.061272 0.360572 0.659873
0.194951 0.359203 0.659080
0.328631 0.357834 0.658288
0.455287 0.356537 0.657537
0.577261 0.355288 0.656814
0.699236 0.354038 0.656090
0.809383 0.352910 0.655437
0.916572 0.351812 0.654802
1.000000 0.351603 0.652342
0.055480 0.476497 0.657514
0.189160 0.475128 0.656721
0.322839 0.473759 0.655929
0.449495 0.472461 0.655178
0.570976 0.471689 0.653476
0.691880 0.471474 0.650630
0.801061 0.471280 0.648061
0.907310 0.471091 0.645560
1.000000 0.470902 0.643059
0.049689 0.592422 0.655155
0.182738 0.591661 0.653113
0.315244 0.591426 0.649994
0.440789 0.591203 0.647039
0.561693 0.590988 0.644193
0.682597 0.590773 0.641347
0.791777 0.590579 0.638777
0.898026 0.590390 0.636276
1.000000 0.590201 0.633775
0.041180 0.708214 0.647180
0.173686 0.707978 0.644061
0.306192 0.707743 0.640942
0.431737 0.707519 0.637987
0.552642 0.707305 0.635142
0.673546 0.707090 0.632296
0.782726 0.706896 0.629726
0.888975 0.706707 0.627225
0.995224 0.706518 0.624724
0.032187 0.823784 0.638187
0.164693 0.823549 0.635068
0.297199 0.823313 0.631949
0.422744 0.823090 0.628994
0.543648 0.822875 0.626148
0.664553 0.822661 0.623303
0.773733 0.822467 0.620733
0.879982 0.822278 0.618232
0.986231 0.822089 0.615731
0.023194 0.939355 0.629194
0.155700 0.939120 0.626075
0.288206 0.938884 0.622956
0.413751 0.938661 0.620001
0.534655 0.938446 0.617155
0.655559 0.938231 0.614309
0.764739 0.938037 0.611739
0.870989 0.937849 0.609239
0.977238 0.937660 0.606738
0.078382 0.006612 0.780841
0.212061 0.005242 0.780049
0.345740 0.003873 0.779256
0.472397 0.002576 0.778505
0.594371 0.001327 0.777782
0.716346 0.000077 0.777059
0.826492 0.000000 0.776406
0.933682 0.000000 0.775770
1.000000 0.000000 0.775182
0.072470 0.124951 0.778433
0.206149 0.123582 0.777640
0.339828 0.122213 0.776848
0.466484 0.120916 0.776097
0.588459 0.119666 0.775374
0.710433 0.118417 0.774651
0.820580 0.117289 0.773998
0.927770 0.116191 0.773362
1.000000 0.115122 0.772756
0.066557 0.243291 0.776025
0.200236 0.241922 0.775232
0.333915 0.240553 0.774440
0.460572 0.239255 0.773689
0.582546 0.238006 0.772966
0.704521 0.236757 0.772243
0.814667 0.235629 0.771590
0.921857 0.234531 0.770954
1.000000 0.233444 0.770330
0.060717 0.360182 0.773646
0.194396 0.358812 0.772854
0.328075 0.357443 0.772061
0.454732 0.356146 0.771310
0.576706 0.354897 0.770587
0.698681 0.353647 0.769864
0.808827 0.352519 0.769211
0.915703 0.351725 0.767953
1.000000 0.351536 0.765452
0.054925 0.476106 0.771287
0.188604 0.474737 0.770495
0.322283 0.473368 0.769702
0.448940 0.472071 0.768952
0.570086 0.471622 0.766586
0.690990 0.471407 0.763740
0.800170 0.471213 0.761170
0.906419 0.471024 0.758669
1.000000 0.470835 0.756169
0.049133 0.592031 0.768929
0.181847 0.591594 0.766222
0.314353 0.591359 0.763103
0.439898 0.591136 0.760148
0.560803 0.590921 0.757303
0.681707 0.590706 0.754457
0.790887 0.590512 0.751887
0.897136 0.590323 0.749386
1.000000 0.590134 0.746885
0.040290 0.708146 0.760290
0.172796 0.707911 0.757171
0.305302 0.707675 0.754052
0.430847 0.707452 0.751097
0.551751 0.707237 0.748251
0.672655 0.707022 0.745405
0.781836 0.706828 0.742836
0.888085 0.706640 0.740335
0.994334 0.706451 0.737834
0.031297 0.823717 0.751297
0.163803 0.823482 0.748178
0.296309 0.823246 0.745059
0.421854 0.823023 0.742104
0.542758 0.822808 0.739258
0.663662 0.822593 0.736412
0.772842 0.822399 0.733842
0.879091 0.822210 0.731341
0.985341 0.822022 0.728841
0.022303 0.939288 0.742303
0.154809 0.939053 0.739184
0.287316 0.938817 0.736066
0.412861 0.938594 0.733111
0.533765 0.938379 0.730265
0.654669 0.938164 0.727419
0.763849 0.937970 0.724849
0.870098 0.937781 0.722348
0.976347 0.937593 0.719847
0.077834 0.006226 0.893118
0.211513 0.004857 0.892325
0.345192 0.003487 0.891533
0.471849 0.002190 0.890782
0.593823 0.000941 0.890059
0.715798 0.000000 0.889336
0.825944 0.000000 0.888683
0.933134 0.000000 0.888047
1.000000 0.000000 0.887457
0.071921 0.124566 0.890710
0.205601 0.123196 0.889917
0.339280 0.121827 0.889125
0.465936 0.120530 0.888374
0.587911 0.119281 0.887651
0.709885 0.118031 0.886928
0.820032 0.116903 0.886275
0.927221 0.115805 0.885639
1.000000 0.114735 0.885031
0.066009 0.242905 0.888302
0.199688 0.241536 0.887509
0.333367 0.240167 0.886717
0.460023 0.238870 0.885966
0.581998 0.237620 0.885243
0.703973 0.236371 0.884520
0.814119 0.235243 0.883867
0.921309 0.234145 0.883231
1.000000 0.233057 0.882605
0.060169 0.359796 0.885923
0.193848 0.358427 0.885131
0.327527 0.357058 0.884338
0.454183 0.355760 0.883587
0.576158 0.354511 0.882864
0.698132 0.353262 0.882141
0.808279 0.352134 0.881488
0.914824 0.351659 0.879574
1.000000 0.351470 0.877073
0.054377 0.475721 0.883564
0.188056 0.474351 0.882772
0.321735 0.472982 0.881979
0.448303 0.471770 0.881053
0.569207 0.471555 0.878207
0.690112 0.471341 0.875362
0.799292 0.471146 0.872792
0.905541 0.470958 0.870291
1.000000 0.470769 0.867790
0.048463 0.591763 0.880963
0.180969 0.591528 0.877844
0.313475 0.591292 0.874725
0.439020 0.591069 0.871770
0.559924 0.590854 0.868924
0.680828 0.590640 0.866078
0.790008 0.590445 0.863508
0.896257 0.590257 0.861007
1.000000 0.590068 0.858507
0.039411 0.708080 0.871911
0.171917 0.707844 0.868792
0.304424 0.707609 0.865674
0.429969 0.707386 0.862719
0.550873 0.707171 0.859873
0.671777 0.706956 0.857027
0.780957 0.706762 0.854457
0.887206 0.706573 0.851956
0.993455 0.706384 0.849455
0.030418 0.823651 0.862918
0.162924 0.823415 0.859799
0.295430 0.823180 0.856680
0.420975 0.822957 0.853725
0.541879 0.822742 0.850879
0.662784 0.822527 0.848034
0.771964 0.822333 0.845464
0.878213 0.822144 0.842963
0.984462 0.821955 0.840462
0.021425 0.939222 0.853925
0.153931 0.938986 0.850806
0.286437 0.938751 0.847687
0.411982 0.938528 0.844732
0.532886 0.938313 0.841886
0.653790 0.938098 0.839040
0.762970 0.937904 0.836470
0.869220 0.937715 0.833970
0.975469 0.937526 0.831469
0.077286 0.005840 1.000000
0.210965 0.004471 1.000000
0.344644 0.003102 1.000000
0.471300 0.001805 1.000000
0.593275 0.000555 1.000000
0.715249 0.000000 1.000000
0.825396 0.000000 1.000000
0.932586 0.000000 1.000000
1.000000 0.000000 0.999732
0.071373 0.124180 1.000000
0.205052 0.122811 1.000000
0.338731 0.121441 1.000000
0.465388 0.120144 1.000000
0.587362 0.118895 0.999927
0.709337 0.117646 0.999204
0.819484 0.116517 0.998551
0.926673 0.115420 0.997916
1.000000 0.114347 0.997306
0.065461 0.242520 1.000000
0.199140 0.241150 0.999786
0.332819 0.239781 0.998993
0.459475 0.238484 0.998243
0.581450 0.237235 0.997519
0.703424 0.235985 0.996796
0.813571 0.234857 0.996143
0.920761 0.233759 0.995508
1.000000 0.232669 0.994880
0.059621 0.359410 0.998200
0.193300 0.358041 0.997407
0.326979 0.356672 0.996615
0.453635 0.355375 0.995864
0.575610 0.354125 0.995141
0.697584 0.352876 0.994418
0.807696 0.351781 0.993696
0.913946 0.351592 0.991196
1.000000 0.351403 0.988695
0.053829 0.475335 0.995841
0.187508 0.473966 0.995048
0.321187 0.472596 0.994256
0.447425 0.471704 0.992675
0.568329 0.471489 0.989829
0.689233 0.471274 0.986983
0.798413 0.471080 0.984413
0.904662 0.470891 0.981912
1.000000 0.470702 0.979411
0.047584 0.591697 0.992584
0.180090 0.591462 0.989465
0.312596 0.591226 0.986346
0.438141 0.591003 0.983391
0.559045 0.590788 0.980545
0.679950 0.590573 0.977700
0.789130 0.590379 0.975130
0.895379 0.590190 0.972629
1.000000 0.590001 0.970128
0.038533 0.708014 0.983533
0.171039 0.707778 0.980414
0.303545 0.707543 0.977295
0.429090 0.707319 0.974340
0.549994 0.707105 0.971494
0.670898 0.706890 0.968648
0.780078 0.706696 0.966078
0.886328 0.706507 0.963578
0.992577 0.706318 0.961077
0.029539 0.823585 0.974539
0.162046 0.823349 0.971421
0.294552 0.823114 0.968302
0.420097 0.822890 0.965347
0.541001 0.822676 0.962501
0.661905 0.822461 0.959655
0.771085 0.822267 0.957085
0.877334 0.822078 0.954584
0.983583 0.821889 0.952083
0.020546 0.939155 0.965546
0.153052 0.938920 0.962427
0.285558 0.938684 0.959308
0.411103 0.938461 0.956353
0.532008 0.938246 0.953508
0.652912 0.938032 0.950662
0.762092 0.937838 0.948092
0.868341 0.937649 0.945591
0.974590 0.937460 0.943090
