luts/punchy_everyday_200.cube
TITLE "Agfa Vista 200"
LUT_3D_SIZE 5
0.081941 0.009116 0.051791
0.349300 0.006378 0.050206
0.597931 0.003831 0.048732
0.830052 0.001454 0.047356
1.000000 0.000000 0.046142
0.070116 0.245795 0.046975
0.337475 0.243057 0.045390
0.586105 0.240511 0.043916
0.818227 0.238133 0.042539
1.000000 0.235959 0.041290
0.058484 0.478611 0.042237
0.325843 0.475872 0.040652
0.574473 0.473326 0.039178
0.805875 0.471644 0.036375
1.000000 0.471266 0.031374
0.045995 0.708577 0.035495
0.311007 0.708106 0.029257
0.557456 0.707668 0.023456
0.787541 0.707259 0.018041
1.000000 0.706881 0.013039
0.028008 0.939719 0.017508
0.293021 0.939248 0.011271
0.539470 0.938810 0.005470
0.769554 0.938401 0.000054
0.982052 0.938023 0.000000
0.080705 0.008246 0.305037
0.348063 0.005508 0.303452
0.596694 0.002961 0.301978
0.828815 0.000584 0.300602
1.000000 0.000000 0.299385
0.068880 0.244925 0.300221
0.336238 0.242187 0.298636
0.584869 0.239641 0.297162
0.816990 0.237263 0.295786
1.000000 0.235086 0.294533
0.057248 0.477741 0.295484
0.324606 0.475002 0.293899
0.573237 0.472456 0.292425
0.803894 0.471494 0.288144
1.000000 0.471116 0.283142
0.044013 0.708427 0.287263
0.309025 0.707956 0.281025
0.555475 0.707518 0.275225
0.785559 0.707110 0.269809
0.998057 0.706732 0.264807
0.026027 0.939569 0.269277
0.291039 0.939098 0.263039
0.537488 0.938660 0.257238
0.767572 0.938251 0.251822
0.980071 0.937874 0.246821
0.079522 0.007414 0.547305
0.346880 0.004675 0.545720
0.595511 0.002129 0.544246
0.827633 0.000000 0.542870
1.000000 0.000000 0.541649
0.067697 0.244093 0.542489
0.335055 0.241355 0.540904
0.583686 0.238808 0.539430
0.815807 0.236431 0.538054
1.000000 0.234250 0.536798
0.056065 0.476908 0.537752
0.323423 0.474170 0.536167
0.571913 0.471760 0.534413
0.801998 0.471351 0.528998
1.000000 0.470973 0.523996
0.042117 0.708284 0.528117
0.307130 0.707813 0.521880
0.553579 0.707375 0.516079
0.783663 0.706966 0.510663
0.996161 0.706589 0.505661
0.024131 0.939426 0.510131
0.289143 0.938955 0.503893
0.535592 0.938517 0.498092
0.765677 0.938108 0.492677
0.978175 0.937731 0.487675
0.078382 0.006612 0.780841
0.345740 0.003873 0.779256
0.594371 0.001327 0.777782
0.826492 0.000000 0.776406
1.000000 0.000000 0.775182
0.066557 0.243291 0.776025
0.333915 0.240553 0.774440
0.582546 0.238006 0.772966
0.814667 0.235629 0.771590
1.000000 0.233444 0.770330
0.054925 0.476106 0.771287
0.322283 0.473368 0.769702
0.570086 0.471622 0.766586
0.800170 0.471213 0.761170
1.000000 0.470835 0.756169
0.040290 0.708146 0.760290
0.305302 0.707675 0.754052
0.551751 0.707237 0.748251
0.781836 0.706828 0.742836
0.994334 0.706451 0.737834
0.022303 0.939288 0.742303
0.287316 0.938817 0.736066
0.533765 0.938379 0.730265
0.763849 0.937970 0.724849
0.976347 0.937593 0.719847
0.077286 0.005840 1.000000
0.344644 0.003102 1.000000
0.593275 0.000555 1.000000
0.825396 0.000000 1.000000
1.000000 0.000000 0.999732
0.065461 0.242520 1.000000
0.332819 0.239781 0.998993
0.581450 0.237235 0.997519
0.813571 0.234857 0.996143
1.000000 0.232669 0.994880
0.053829 0.475335 0.995841
0.321187 0.472596 0.994256
0.568329 0.471489 0.989829
0.798413 0.471080 0.984413
1.000000 0.470702 0.979411
0.038533 0.708014 0.983533
0.303545 0.707543 0.977295
0.549994 0.707105 0.971494
0.780078 0.706696 0.966078
0.992577 0.706318 0.961077
0.020546 0.939155 0.965546
0.285558 0.938684 0.959308
0.532008 0.938246 0.953508
0.762092 0.937838 0.948092
0.974590 0.937460 0.943090
