luts/punchy_everyday_200.cube
TITLE "Agfa Vista 200"
LUT_3D_SIZE 33
0.081941 0.009116 0.051791
0.115361 0.008774 0.051593
0.148781 0.008431 0.051394
0.182201 0.008089 0.051196
0.215621 0.007747 0.050998
0.249040 0.007405 0.050800
0.282460 0.007062 0.050602
0.315880 0.006720 0.050404
0.349300 0.006378 0.050206
0.382719 0.006035 0.050008
0.414969 0.005705 0.049816
0.445462 0.005393 0.049636
0.475956 0.005080 0.049455
0.506450 0.004768 0.049274
0.536943 0.004456 0.049093
0.567437 0.004143 0.048912
0.597931 0.003831 0.048732
0.628424 0.003519 0.048551
0.658918 0.003206 0.048370
0.689411 0.002894 0.048189
0.719905 0.002582 0.048009
0.749659 0.002277 0.047832
0.776457 0.002003 0.047673
0.803254 0.001728 0.047514
0.830052 0.001454 0.047356
0.856849 0.001179 0.047197
0.883647 0.000905 0.047038
0.910444 0.000630 0.046879
0.937241 0.000356 0.046720
0.964039 0.000081 0.046561
0.990836 0.000000 0.046402
1.000000 0.000000 0.046243
1.000000 0.000000 0.046142
0.080463 0.038701 0.051189
0.113883 0.038359 0.050991
0.147303 0.038016 0.050792
0.180723 0.037674 0.050594
0.214142 0.037332 0.050396
0.247562 0.036989 0.050198
0.280982 0.036647 0.050000
0.314402 0.036305 0.049802
0.347822 0.035963 0.049604
0.381241 0.035620 0.049406
0.413491 0.035290 0.049214
0.443984 0.034978 0.049034
0.474478 0.034665 0.048853
0.504971 0.034353 0.048672
0.535465 0.034041 0.048491
0.565959 0.033728 0.048310
0.596452 0.033416 0.048130
0.626946 0.033104 0.047949
0.657440 0.032791 0.047768
0.687933 0.032479 0.047587
0.718427 0.032167 0.047407
0.748181 0.031862 0.047230
0.774979 0.031587 0.047071
0.801776 0.031313 0.046912
0.828574 0.031039 0.046754
0.855371 0.030764 0.046595
0.882168 0.030490 0.046436
0.908966 0.030215 0.046277
0.935763 0.029941 0.046118
0.962561 0.029666 0.045959
0.989358 0.029392 0.045800
1.000000 0.029117 0.045641
1.000000 0.028896 0.045536
0.078985 0.068286 0.050587
0.112405 0.067944 0.050389
0.145825 0.067601 0.050190
0.179244 0.067259 0.049992
0.212664 0.066917 0.049794
0.246084 0.066574 0.049596
0.279504 0.066232 0.049398
0.312924 0.065890 0.049200
0.346343 0.065547 0.049002
0.379763 0.065205 0.048803
0.412012 0.064875 0.048612
0.442506 0.064563 0.048432
0.473000 0.064250 0.048251
0.503493 0.063938 0.048070
0.533987 0.063626 0.047889
0.564481 0.063313 0.047708
0.594974 0.063001 0.047528
0.625468 0.062689 0.047347
0.655962 0.062376 0.047166
0.686455 0.062064 0.046985
0.716949 0.061752 0.046805
0.746703 0.061447 0.046628
0.773501 0.061172 0.046469
0.800298 0.060898 0.046310
0.827095 0.060623 0.046152
0.853893 0.060349 0.045993
0.880690 0.060075 0.045834
0.907488 0.059800 0.045675
0.934285 0.059526 0.045516
0.961083 0.059251 0.045357
0.987880 0.058977 0.045198
1.000000 0.058702 0.045039
1.000000 0.058476 0.044929
0.077507 0.097871 0.049985
0.110927 0.097529 0.049786
0.144347 0.097186 0.049588
0.177766 0.096844 0.049390
0.211186 0.096502 0.049192
0.244606 0.096159 0.048994
0.278026 0.095817 0.048796
0.311445 0.095475 0.048598
0.344865 0.095132 0.048400
0.378285 0.094790 0.048201
0.410534 0.094460 0.048010
0.441028 0.094147 0.047830
0.471522 0.093835 0.047649
0.502015 0.093523 0.047468
0.532509 0.093211 0.047287
0.563002 0.092898 0.047106
0.593496 0.092586 0.046926
0.623990 0.092274 0.046745
0.654483 0.091961 0.046564
0.684977 0.091649 0.046383
0.715471 0.091337 0.046202
0.745225 0.091032 0.046026
0.772022 0.090757 0.045867
0.798820 0.090483 0.045708
0.825617 0.090208 0.045549
0.852415 0.089934 0.045391
0.879212 0.089659 0.045232
0.906010 0.089385 0.045073
0.932807 0.089111 0.044914
0.959604 0.088836 0.044755
0.986402 0.088562 0.044596
1.000000 0.088287 0.044437
1.000000 0.088057 0.044323
0.076029 0.127456 0.049383
0.109449 0.127113 0.049184
0.142868 0.126771 0.048986
0.176288 0.126429 0.048788
0.209708 0.126087 0.048590
0.243128 0.125744 0.048392
0.276548 0.125402 0.048194
0.309967 0.125060 0.047996
0.343387 0.124717 0.047798
0.376807 0.124375 0.047599
0.409056 0.124045 0.047408
0.439550 0.123732 0.047227
0.470043 0.123420 0.047047
0.500537 0.123108 0.046866
0.531031 0.122795 0.046685
0.561524 0.122483 0.046504
0.592018 0.122171 0.046324
0.622512 0.121858 0.046143
0.653005 0.121546 0.045962
0.683499 0.121234 0.045781
0.713992 0.120921 0.045600
0.743747 0.120617 0.045424
0.770544 0.120342 0.045265
0.797342 0.120068 0.045106
0.824139 0.119793 0.044947
0.850937 0.119519 0.044789
0.877734 0.119244 0.044630
0.904531 0.118970 0.044471
0.931329 0.118695 0.044312
0.958126 0.118421 0.044153
0.984924 0.118147 0.043994
1.000000 0.117872 0.043835
1.000000 0.117637 0.043716
0.074551 0.157041 0.048781
0.107970 0.156698 0.048582
0.141390 0.156356 0.048384
0.174810 0.156014 0.048186
0.208230 0.155671 0.047988
0.241650 0.155329 0.047790
0.275069 0.154987 0.047592
0.308489 0.154645 0.047394
0.341909 0.154302 0.047196
0.375329 0.153960 0.046997
0.407578 0.153630 0.046806
0.438072 0.153317 0.046625
0.468565 0.153005 0.046445
0.499059 0.152693 0.046264
0.529553 0.152380 0.046083
0.560046 0.152068 0.045902
0.590540 0.151756 0.045722
0.621033 0.151443 0.045541
0.651527 0.151131 0.045360
0.682021 0.150819 0.045179
0.712514 0.150506 0.044998
0.742269 0.150202 0.044822
0.769066 0.149927 0.044663
0.795864 0.149653 0.044504
0.822661 0.149378 0.044345
0.849458 0.149104 0.044187
0.876256 0.148829 0.044028
0.903053 0.148555 0.043869
0.929851 0.148280 0.043710
0.956648 0.148006 0.043551
0.983446 0.147731 0.043392
1.000000 0.147457 0.043233
1.000000 0.147218 0.043110
0.073073 0.186626 0.048179
0.106492 0.186283 0.047980
0.139912 0.185941 0.047782
0.173332 0.185599 0.047584
0.206752 0.185256 0.047386
0.240171 0.184914 0.047188
0.273591 0.184572 0.046990
0.307011 0.184230 0.046792
0.340431 0.183887 0.046594
0.373851 0.183545 0.046395
0.406100 0.183215 0.046204
0.436594 0.182902 0.046023
0.467087 0.182590 0.045843
0.497581 0.182278 0.045662
0.528074 0.181965 0.045481
0.558568 0.181653 0.045300
0.589062 0.181341 0.045120
0.619555 0.181028 0.044939
0.650049 0.180716 0.044758
0.680543 0.180404 0.044577
0.711036 0.180091 0.044396
0.740791 0.179787 0.044220
0.767588 0.179512 0.044061
0.794385 0.179238 0.043902
0.821183 0.178963 0.043743
0.847980 0.178689 0.043585
0.874778 0.178414 0.043426
0.901575 0.178140 0.043267
0.928373 0.177865 0.043108
0.955170 0.177591 0.042949
0.981967 0.177316 0.042790
1.000000 0.177042 0.042631
1.000000 0.176798 0.042503
0.071594 0.216211 0.047577
0.105014 0.215868 0.047378
0.138434 0.215526 0.047180
0.171854 0.215184 0.046982
0.205274 0.214841 0.046784
0.238693 0.214499 0.046586
0.272113 0.214157 0.046388
0.305533 0.213814 0.046190
0.338953 0.213472 0.045992
0.372373 0.213130 0.045793
0.404622 0.212800 0.045602
0.435115 0.212487 0.045421
0.465609 0.212175 0.045241
0.496103 0.211863 0.045060
0.526596 0.211550 0.044879
0.557090 0.211238 0.044698
0.587584 0.210926 0.044518
0.618077 0.210613 0.044337
0.648571 0.210301 0.044156
0.679064 0.209989 0.043975
0.709558 0.209676 0.043794
0.739312 0.209372 0.043618
0.766110 0.209097 0.043459
0.792907 0.208823 0.043300
0.819705 0.208548 0.043141
0.846502 0.208274 0.042983
0.873300 0.207999 0.042824
0.900097 0.207725 0.042665
0.926895 0.207450 0.042506
0.953692 0.207176 0.042347
0.980489 0.206901 0.042188
1.000000 0.206627 0.042029
1.000000 0.206379 0.041897
0.070116 0.245795 0.046975
0.103536 0.245453 0.046776
0.136956 0.245111 0.046578
0.170376 0.244769 0.046380
0.203795 0.244426 0.046182
0.237215 0.244084 0.045984
0.270635 0.243742 0.045786
0.304055 0.243399 0.045588
0.337475 0.243057 0.045390
0.370894 0.242715 0.045191
0.403144 0.242384 0.045000
0.433637 0.242072 0.044819
0.464131 0.241760 0.044639
0.494625 0.241447 0.044458
0.525118 0.241135 0.044277
0.555612 0.240823 0.044096
0.586105 0.240511 0.043916
0.616599 0.240198 0.043735
0.647093 0.239886 0.043554
0.677586 0.239574 0.043373
0.708080 0.239261 0.043192
0.737834 0.238956 0.043016
0.764632 0.238682 0.042857
0.791429 0.238408 0.042698
0.818227 0.238133 0.042539
0.845024 0.237859 0.042381
0.871822 0.237584 0.042222
0.898619 0.237310 0.042063
0.925416 0.237035 0.041904
0.952214 0.236761 0.041745
0.979011 0.236486 0.041586
1.000000 0.236212 0.041427
1.000000 0.235959 0.041290
0.068638 0.275380 0.046373
0.102058 0.275038 0.046174
0.135478 0.274696 0.045976
0.168898 0.274353 0.045778
0.202317 0.274011 0.045580
0.235737 0.273669 0.045382
0.269157 0.273327 0.045184
0.302577 0.272984 0.044986
0.335996 0.272642 0.044788
0.369416 0.272300 0.044589
0.401666 0.271969 0.044398
0.432159 0.271657 0.044217
0.462653 0.271345 0.044037
0.493146 0.271032 0.043856
0.523640 0.270720 0.043675
0.554134 0.270408 0.043494
0.584627 0.270095 0.043314
0.615121 0.269783 0.043133
0.645615 0.269471 0.042952
0.676108 0.269158 0.042771
0.706602 0.268846 0.042590
0.736356 0.268541 0.042414
0.763154 0.268267 0.042255
0.789951 0.267992 0.042096
0.816749 0.267718 0.041937
0.843546 0.267444 0.041779
0.870343 0.267169 0.041620
0.897141 0.266895 0.041461
0.923938 0.266620 0.041302
0.950736 0.266346 0.041143
0.977533 0.266071 0.040984
1.000000 0.265797 0.040825
1.000000 0.265540 0.040684
0.067172 0.304724 0.045775
0.100592 0.304381 0.045577
0.134012 0.304039 0.045379
0.167431 0.303697 0.045181
0.200851 0.303355 0.044983
0.234271 0.303012 0.044785
0.267691 0.302670 0.044587
0.301111 0.302328 0.044389
0.334530 0.301985 0.044190
0.367950 0.301643 0.043992
0.400199 0.301313 0.043801
0.430693 0.301000 0.043620
0.461187 0.300688 0.043440
0.491680 0.300376 0.043259
0.522174 0.300064 0.043078
0.552668 0.299751 0.042897
0.583161 0.299439 0.042716
0.613655 0.299127 0.042536
0.644149 0.298814 0.042355
0.674642 0.298502 0.042174
0.705136 0.298190 0.041993
0.734890 0.297885 0.041817
0.761688 0.297610 0.041658
0.788485 0.297336 0.041499
0.815282 0.297061 0.041340
0.842080 0.296787 0.041181
0.868877 0.296512 0.041023
0.895675 0.296238 0.040864
0.922472 0.295964 0.040705
0.949270 0.295689 0.040546
0.976067 0.295415 0.040387
1.000000 0.295140 0.040228
1.000000 0.294879 0.040083
0.065724 0.333705 0.045186
0.099144 0.333363 0.044988
0.132564 0.333020 0.044789
0.165984 0.332678 0.044591
0.199403 0.332336 0.044393
0.232823 0.331993 0.044195
0.266243 0.331651 0.043997
0.299663 0.331309 0.043799
0.333082 0.330967 0.043601
0.366502 0.330624 0.043403
0.398752 0.330294 0.043211
0.429245 0.329982 0.043031
0.459739 0.329669 0.042850
0.490232 0.329357 0.042669
0.520726 0.329045 0.042488
0.551220 0.328732 0.042308
0.581713 0.328420 0.042127
0.612207 0.328108 0.041946
0.642701 0.327795 0.041765
0.673194 0.327483 0.041584
0.703688 0.327171 0.041404
0.733442 0.326866 0.041227
0.760240 0.326591 0.041068
0.787037 0.326317 0.040909
0.813834 0.326043 0.040751
0.840632 0.325768 0.040592
0.867429 0.325494 0.040433
0.894227 0.325219 0.040274
0.921024 0.324945 0.040115
0.947822 0.324670 0.039956
0.974619 0.324396 0.039797
1.000000 0.324121 0.039639
1.000000 0.323856 0.039488
0.064276 0.362686 0.044596
0.097696 0.362344 0.044398
0.131116 0.362002 0.044200
0.164536 0.361659 0.044002
0.197955 0.361317 0.043803
0.231375 0.360975 0.043605
0.264795 0.360632 0.043407
0.298215 0.360290 0.043209
0.331634 0.359948 0.043011
0.365054 0.359605 0.042813
0.397304 0.359275 0.042622
0.427797 0.358963 0.042441
0.458291 0.358650 0.042260
0.488784 0.358338 0.042079
0.519278 0.358026 0.041899
0.549772 0.357713 0.041718
0.580265 0.357401 0.041537
0.610759 0.357089 0.041356
0.641253 0.356777 0.041175
0.671746 0.356464 0.040995
0.702240 0.356152 0.040814
0.731994 0.355847 0.040637
0.758792 0.355573 0.040479
0.785589 0.355298 0.040320
0.812387 0.355024 0.040161
0.839184 0.354749 0.040002
0.865981 0.354475 0.039843
0.892779 0.354200 0.039684
0.919576 0.353926 0.039525
0.946374 0.353651 0.039367
0.973171 0.353377 0.039208
0.999969 0.353102 0.039049
1.000000 0.352832 0.038894
0.062828 0.391667 0.044006
0.096248 0.391325 0.043808
0.129668 0.390983 0.043610
0.163088 0.390640 0.043412
0.196507 0.390298 0.043214
0.229927 0.389956 0.043016
0.263347 0.389613 0.042818
0.296767 0.389271 0.042619
0.330186 0.388929 0.042421
0.363606 0.388587 0.042223
0.395856 0.388256 0.042032
0.426349 0.387944 0.041851
0.456843 0.387632 0.041670
0.487336 0.387319 0.041490
0.517830 0.387007 0.041309
0.548324 0.386695 0.041128
0.578817 0.386382 0.040947
0.609311 0.386070 0.040766
0.639805 0.385758 0.040586
0.670298 0.385445 0.040405
0.700792 0.385133 0.040224
0.730546 0.384828 0.040048
0.757344 0.384554 0.039889
0.784141 0.384279 0.039730
0.810939 0.384005 0.039571
0.837736 0.383730 0.039412
0.864533 0.383456 0.039253
0.891331 0.383181 0.039095
0.918128 0.382907 0.038936
0.944926 0.382633 0.038777
0.971723 0.382358 0.038618
0.998521 0.382084 0.038459
1.000000 0.381809 0.038300
0.061380 0.420648 0.043417
0.094800 0.420306 0.043218
0.128220 0.419964 0.043020
0.161640 0.419622 0.042822
0.195059 0.419279 0.042624
0.228479 0.418937 0.042426
0.261899 0.418595 0.042228
0.295319 0.418252 0.042030
0.328739 0.417910 0.041832
0.362158 0.417568 0.041633
0.394408 0.417237 0.041442
0.424901 0.416925 0.041261
0.455395 0.416613 0.041081
0.485889 0.416300 0.040900
0.516382 0.415988 0.040719
0.546876 0.415676 0.040538
0.577369 0.415363 0.040358
0.607863 0.415051 0.040177
0.638357 0.414739 0.039996
0.668850 0.414426 0.039815
0.699344 0.414114 0.039634
0.729098 0.413809 0.039458
0.755896 0.413535 0.039299
0.782693 0.413260 0.039140
0.809491 0.412986 0.038981
0.836288 0.412712 0.038823
0.863085 0.412437 0.038664
0.889883 0.412163 0.038505
0.916680 0.411888 0.038346
0.943328 0.411758 0.037891
0.969891 0.411711 0.037266
0.996453 0.411664 0.036640
1.000000 0.411616 0.036015
0.059932 0.449630 0.042827
0.093352 0.449287 0.042629
0.126772 0.448945 0.042431
0.160192 0.448603 0.042232
0.193611 0.448260 0.042034
0.227031 0.447918 0.041836
0.260451 0.447576 0.041638
0.293871 0.447233 0.041440
0.327291 0.446891 0.041242
0.360710 0.446549 0.041044
0.392960 0.446219 0.040852
0.423453 0.445906 0.040672
0.453947 0.445594 0.040491
0.484441 0.445282 0.040310
0.514934 0.444969 0.040129
0.545428 0.444657 0.039949
0.575921 0.444345 0.039768
0.606415 0.444032 0.039587
0.636909 0.443720 0.039406
0.667402 0.443408 0.039225
0.697896 0.443095 0.039045
0.727650 0.442791 0.038868
0.754448 0.442516 0.038709
0.781245 0.442242 0.038551
0.808043 0.441967 0.038392
0.834758 0.441772 0.038071
0.861321 0.441724 0.037446
0.887883 0.441677 0.036820
0.914445 0.441630 0.036195
0.941008 0.441583 0.035570
0.967570 0.441536 0.034945
0.994132 0.441488 0.034320
1.000000 0.441441 0.033694
0.058484 0.478611 0.042237
0.091904 0.478268 0.042039
0.125324 0.477926 0.041841
0.158744 0.477584 0.041643
0.192163 0.477242 0.041445
0.225583 0.476899 0.041246
0.259003 0.476557 0.041048
0.292423 0.476215 0.040850
0.325843 0.475872 0.040652
0.359262 0.475530 0.040454
0.391512 0.475200 0.040263
0.422005 0.474887 0.040082
0.452499 0.474575 0.039901
0.482993 0.474263 0.039720
0.513486 0.473950 0.039540
0.543980 0.473638 0.039359
0.574473 0.473326 0.039178
0.604967 0.473013 0.038997
0.635461 0.472701 0.038817
0.665954 0.472389 0.038636
0.696448 0.472076 0.038455
0.726188 0.471785 0.038251
0.752751 0.471738 0.037626
0.779313 0.471691 0.037000
0.805875 0.471644 0.036375
0.832438 0.471596 0.035750
0.859000 0.471549 0.035125
0.885562 0.471502 0.034500
0.912124 0.471455 0.033874
0.938687 0.471408 0.033249
0.965249 0.471360 0.032624
0.991811 0.471313 0.031999
1.000000 0.471266 0.031374
0.057036 0.507592 0.041647
0.090456 0.507250 0.041449
0.123876 0.506907 0.041251
0.157296 0.506565 0.041053
0.190715 0.506223 0.040855
0.224135 0.505880 0.040657
0.257555 0.505538 0.040459
0.290975 0.505196 0.040260
0.324395 0.504853 0.040062
0.357814 0.504511 0.039864
0.390064 0.504181 0.039673
0.420557 0.503869 0.039492
0.451051 0.503556 0.039311
0.481545 0.503244 0.039131
0.512038 0.502932 0.038950
0.542532 0.502619 0.038769
0.573026 0.502307 0.038588
0.603519 0.501995 0.038408
0.633922 0.501770 0.038047
0.664148 0.501716 0.037336
0.694374 0.501662 0.036624
0.723868 0.501610 0.035930
0.750430 0.501563 0.035305
0.776992 0.501516 0.034680
0.803554 0.501468 0.034054
0.830117 0.501421 0.033429
0.856679 0.501374 0.032804
0.883241 0.501327 0.032179
0.909804 0.501279 0.031554
0.936366 0.501232 0.030928
0.962928 0.501185 0.030303
0.989490 0.501138 0.029678
1.000000 0.501091 0.029053
0.055588 0.536573 0.041058
0.089008 0.536231 0.040860
0.122428 0.535888 0.040661
0.155848 0.535546 0.040463
0.189268 0.535204 0.040265
0.222687 0.534862 0.040067
0.256107 0.534519 0.039869
0.289527 0.534177 0.039671
0.322947 0.533835 0.039473
0.356366 0.533492 0.039275
0.388616 0.533162 0.039083
0.419109 0.532850 0.038903
0.449603 0.532537 0.038722
0.480097 0.532225 0.038541
0.510590 0.531913 0.038360
0.540923 0.531756 0.037861
0.571149 0.531702 0.037149
0.601375 0.531648 0.036438
0.631601 0.531595 0.035726
0.661827 0.531541 0.035015
0.692053 0.531487 0.034303
0.721547 0.531435 0.033609
0.748109 0.531388 0.032984
0.774671 0.531340 0.032359
0.801234 0.531293 0.031734
0.827796 0.531246 0.031108
0.854358 0.531199 0.030483
0.880920 0.531151 0.029858
0.907483 0.531104 0.029233
0.934045 0.531057 0.028608
0.960607 0.531010 0.027982
0.987170 0.530963 0.027357
1.000000 0.530915 0.026732
0.054140 0.565554 0.040468
0.087560 0.565212 0.040270
0.120980 0.564870 0.040072
0.154400 0.564527 0.039874
0.187820 0.564185 0.039675
0.221239 0.563843 0.039477
0.254659 0.563500 0.039279
0.288079 0.563158 0.039081
0.321499 0.562816 0.038883
0.354918 0.562474 0.038685
0.387168 0.562143 0.038494
0.417661 0.561831 0.038313
0.447924 0.561742 0.037674
0.478150 0.561688 0.036963
0.508376 0.561634 0.036251
0.538602 0.561580 0.035540
0.568828 0.561527 0.034828
0.599054 0.561473 0.034117
0.629281 0.561419 0.033406
0.659507 0.561366 0.032694
0.689733 0.561312 0.031983
0.719226 0.561259 0.031288
0.745788 0.561212 0.030663
0.772350 0.561165 0.030038
0.798913 0.561118 0.029413
0.825475 0.561071 0.028788
0.852037 0.561023 0.028162
0.878600 0.560976 0.027537
0.905162 0.560929 0.026912
0.931724 0.560882 0.026287
0.958286 0.560835 0.025661
0.984849 0.560787 0.025036
1.000000 0.560740 0.024411
0.052692 0.594535 0.039878
0.086112 0.594193 0.039680
0.119532 0.593851 0.039482
0.152952 0.593508 0.039284
0.186372 0.593166 0.039086
0.219791 0.592824 0.038888
0.253211 0.592482 0.038689
0.286631 0.592139 0.038491
0.320051 0.591797 0.038293
0.353185 0.591731 0.037529
0.385151 0.591674 0.036776
0.415377 0.591620 0.036065
0.445603 0.591566 0.035353
0.475829 0.591513 0.034642
0.506055 0.591459 0.033930
0.536282 0.591405 0.033219
0.566508 0.591352 0.032508
0.596734 0.591298 0.031796
0.626960 0.591244 0.031085
0.657186 0.591190 0.030373
0.687412 0.591137 0.029662
0.716905 0.591084 0.028968
0.743467 0.591037 0.028342
0.770030 0.590990 0.027717
0.796592 0.590943 0.027092
0.823154 0.590895 0.026467
0.849716 0.590848 0.025841
0.876279 0.590801 0.025216
0.902841 0.590754 0.024591
0.929403 0.590707 0.023966
0.955966 0.590659 0.023341
0.982528 0.590612 0.022715
1.000000 0.590565 0.022090
0.051254 0.623335 0.039292
0.084673 0.622993 0.039094
0.118093 0.622651 0.038896
0.151513 0.622308 0.038698
0.184933 0.621966 0.038500
0.218352 0.621624 0.038302
0.251499 0.621546 0.037562
0.284626 0.621487 0.036782
0.317752 0.621428 0.036002
0.350879 0.621369 0.035222
0.382845 0.621312 0.034470
0.413071 0.621258 0.033758
0.443297 0.621205 0.033047
0.473523 0.621151 0.032336
0.503749 0.621097 0.031624
0.533975 0.621044 0.030913
0.564201 0.620990 0.030201
0.594427 0.620936 0.029490
0.624653 0.620882 0.028778
0.654879 0.620829 0.028067
0.685105 0.620775 0.027355
0.714599 0.620723 0.026661
0.741161 0.620675 0.026036
0.767723 0.620628 0.025411
0.794286 0.620581 0.024786
0.820848 0.620534 0.024160
0.847410 0.620487 0.023535
0.873972 0.620439 0.022910
0.900535 0.620392 0.022285
0.927097 0.620345 0.021659
0.953659 0.620298 0.021034
0.980222 0.620250 0.020409
1.000000 0.620203 0.019784
0.049851 0.651411 0.038721
0.083271 0.651069 0.038523
0.116690 0.650726 0.038325
0.149871 0.650615 0.037652
0.182998 0.650556 0.036873
0.216124 0.650497 0.036093
0.249251 0.650438 0.035313
0.282377 0.650380 0.034533
0.315504 0.650321 0.033754
0.348630 0.650262 0.032974
0.380597 0.650205 0.032222
0.410823 0.650151 0.031510
0.441049 0.650097 0.030799
0.471275 0.650044 0.030087
0.501501 0.649990 0.029376
0.531727 0.649936 0.028664
0.561953 0.649883 0.027953
0.592179 0.649829 0.027241
0.622405 0.649775 0.026530
0.652631 0.649721 0.025819
0.682857 0.649668 0.025107
0.712350 0.649615 0.024413
0.738913 0.649568 0.023788
0.765475 0.649521 0.023162
0.792037 0.649474 0.022537
0.818600 0.649426 0.021912
0.845162 0.649379 0.021287
0.871724 0.649332 0.020662
0.898286 0.649285 0.020036
0.924849 0.649238 0.019411
0.951411 0.649190 0.018786
0.977973 0.649143 0.018161
1.000000 0.649096 0.017536
0.048243 0.679684 0.037743
0.081370 0.679625 0.036964
0.114496 0.679567 0.036184
0.147623 0.679508 0.035404
0.180749 0.679449 0.034624
0.213876 0.679390 0.033845
0.247002 0.679331 0.033065
0.280129 0.679272 0.032285
0.313255 0.679213 0.031505
0.346382 0.679154 0.030726
0.378348 0.679098 0.029973
0.408574 0.679044 0.029262
0.438800 0.678990 0.028550
0.469026 0.678937 0.027839
0.499252 0.678883 0.027127
0.529479 0.678829 0.026416
0.559705 0.678775 0.025705
0.589931 0.678722 0.024993
0.620157 0.678668 0.024282
0.650383 0.678614 0.023570
0.680609 0.678560 0.022859
0.710102 0.678508 0.022165
0.736664 0.678461 0.021539
0.763227 0.678414 0.020914
0.789789 0.678366 0.020289
0.816351 0.678319 0.019664
0.842913 0.678272 0.019038
0.869476 0.678225 0.018413
0.896038 0.678178 0.017788
0.922600 0.678130 0.017163
0.949163 0.678083 0.016538
0.975725 0.678036 0.015912
1.000000 0.677989 0.015287
0.045995 0.708577 0.035495
0.079121 0.708518 0.034715
0.112248 0.708459 0.033935
0.145374 0.708400 0.033156
0.178501 0.708342 0.032376
0.211628 0.708283 0.031596
0.244754 0.708224 0.030817
0.277881 0.708165 0.030037
0.311007 0.708106 0.029257
0.344134 0.708047 0.028477
0.376100 0.707990 0.027725
0.406326 0.707937 0.027014
0.436552 0.707883 0.026302
0.466778 0.707829 0.025591
0.497004 0.707776 0.024879
0.527230 0.707722 0.024168
0.557456 0.707668 0.023456
0.587682 0.707614 0.022745
0.617908 0.707561 0.022033
0.648134 0.707507 0.021322
0.678360 0.707453 0.020610
0.707854 0.707401 0.019916
0.734416 0.707354 0.019291
0.760978 0.707306 0.018666
0.787541 0.707259 0.018041
0.814103 0.707212 0.017415
0.840665 0.707165 0.016790
0.867227 0.707118 0.016165
0.893790 0.707070 0.015540
0.920352 0.707023 0.014915
0.946914 0.706976 0.014289
0.973477 0.706929 0.013664
1.000000 0.706881 0.013039
0.043747 0.737470 0.033247
0.076873 0.737411 0.032467
0.110000 0.737352 0.031687
0.143126 0.737293 0.030907
0.176253 0.737234 0.030128
0.209379 0.737175 0.029348
0.242506 0.737117 0.028568
0.275632 0.737058 0.027789
0.308759 0.736999 0.027009
0.341885 0.736940 0.026229
0.373852 0.736883 0.025477
0.404078 0.736829 0.024765
0.434304 0.736776 0.024054
0.464530 0.736722 0.023342
0.494756 0.736668 0.022631
0.524982 0.736615 0.021919
0.555208 0.736561 0.021208
0.585434 0.736507 0.020497
0.615660 0.736453 0.019785
0.645886 0.736400 0.019074
0.676112 0.736346 0.018362
0.705605 0.736294 0.017668
0.732168 0.736246 0.017043
0.758730 0.736199 0.016418
0.785292 0.736152 0.015792
0.811855 0.736105 0.015167
0.838417 0.736057 0.014542
0.864979 0.736010 0.013917
0.891541 0.735963 0.013291
0.918104 0.735916 0.012666
0.944666 0.735869 0.012041
0.971228 0.735821 0.011416
0.997791 0.735774 0.010791
0.041498 0.766363 0.030998
0.074625 0.766304 0.030219
0.107751 0.766245 0.029439
0.140878 0.766186 0.028659
0.174004 0.766127 0.027879
0.207131 0.766068 0.027100
0.240257 0.766009 0.026320
0.273384 0.765950 0.025540
0.306510 0.765892 0.024760
0.339637 0.765833 0.023981
0.371603 0.765776 0.023228
0.401829 0.765722 0.022517
0.432055 0.765668 0.021805
0.462281 0.765615 0.021094
0.492508 0.765561 0.020383
0.522734 0.765507 0.019671
0.552960 0.765454 0.018960
0.583186 0.765400 0.018248
0.613412 0.765346 0.017537
0.643638 0.765292 0.016825
0.673864 0.765239 0.016114
0.703357 0.765186 0.015420
0.729919 0.765139 0.014794
0.756482 0.765092 0.014169
0.783044 0.765045 0.013544
0.809606 0.764997 0.012919
0.836169 0.764950 0.012294
0.862731 0.764903 0.011668
0.889293 0.764856 0.011043
