luts/rangefinder_classic.cube
TITLE "Camera Leica M"
LUT_3D_SIZE 9
0.073441 0.030473 0.012833
0.188569 0.033130 0.015490
0.303698 0.035787 0.018147
0.414688 0.038348 0.020708
0.522920 0.040846 0.023206
0.631151 0.043344 0.025704
0.729196 0.045606 0.027966
0.824695 0.047810 0.030170
0.914237 0.049877 0.032237
0.077229 0.145410 0.021195
0.192357 0.148066 0.023851
0.307486 0.150723 0.026508
0.418476 0.153285 0.029070
0.526708 0.155782 0.031567
0.634939 0.158280 0.034065
0.732984 0.160543 0.036328
0.828482 0.162746 0.038531
0.922706 0.164921 0.040706
0.081016 0.260346 0.029556
0.196145 0.263003 0.032213
0.311274 0.265659 0.034869
0.422264 0.268221 0.037431
0.530495 0.270718 0.039928
0.638727 0.273216 0.042426
0.736779 0.275486 0.045613
0.832287 0.277700 0.049032
0.927795 0.279913 0.052451
0.084748 0.373583 0.037793
0.199877 0.376240 0.040450
0.315006 0.378897 0.043159
0.426007 0.381470 0.047133
0.534250 0.383979 0.051007
0.642492 0.386487 0.054882
0.740547 0.388760 0.058392
0.836055 0.390973 0.061811
0.931563 0.393187 0.065230
0.088456 0.485701 0.047567
0.203596 0.488370 0.051689
0.318736 0.491038 0.055811
0.429738 0.493611 0.059784
0.537980 0.496120 0.063659
0.646223 0.498628 0.067534
0.744995 0.500909 0.069989
0.841315 0.503132 0.072212
0.937636 0.505355 0.074435
0.092186 0.597842 0.060219
0.207326 0.600511 0.064341
0.322569 0.603180 0.068310
0.434516 0.605764 0.070894
0.543680 0.608283 0.073413
0.652843 0.610802 0.075932
0.751733 0.613084 0.078214
0.848054 0.615307 0.080437
0.944375 0.617530 0.082660
0.096741 0.704558 0.070778
0.212861 0.707237 0.073457
0.328981 0.709917 0.076137
0.440928 0.712501 0.078721
0.550092 0.715020 0.081240
0.659255 0.717539 0.083759
0.758145 0.719821 0.086041
0.854466 0.722044 0.088264
0.950787 0.724267 0.090487
0.103071 0.809935 0.078505
0.219191 0.812614 0.081184
0.335311 0.815294 0.083864
0.447258 0.817877 0.086447
0.556422 0.820397 0.088967
0.665585 0.822916 0.091486
0.764475 0.825198 0.093768
0.860796 0.827421 0.095991
0.957117 0.829644 0.098214
0.109401 0.915312 0.086232
0.225521 0.917991 0.088911
0.341642 0.920671 0.091591
0.453588 0.923254 0.094174
0.562752 0.925774 0.096694
0.671916 0.928293 0.099213
0.770805 0.930575 0.101495
0.867126 0.932798 0.103718
0.963447 0.935020 0.105940
0.073681 0.031160 0.100358
0.188821 0.033828 0.104480
0.303962 0.036497 0.108601
0.414963 0.039069 0.112575
0.523206 0.041578 0.116450
0.631448 0.044086 0.120325
0.729503 0.046359 0.123835
0.825011 0.048572 0.127254
0.915019 0.050659 0.130546
0.077506 0.146132 0.113329
0.192646 0.148801 0.117451
0.307786 0.151469 0.121573
0.418788 0.154042 0.125546
0.527030 0.156551 0.129421
0.635273 0.159059 0.133296
0.733328 0.161332 0.136806
0.828836 0.163545 0.140225
0.923525 0.165740 0.143625
0.081330 0.261105 0.126300
0.196470 0.263774 0.130422
0.311611 0.266442 0.134544
0.422612 0.269015 0.138517
0.530855 0.271523 0.142392
0.639097 0.274032 0.146267
0.737152 0.276305 0.149777
0.832660 0.278518 0.153196
0.928168 0.280732 0.156615
0.085098 0.374379 0.139080
0.200238 0.377047 0.143202
0.315379 0.379716 0.147323
0.426380 0.382288 0.151297
0.534623 0.384797 0.155172
0.642865 0.387306 0.159046
0.740920 0.389578 0.162557
0.836428 0.391792 0.165975
0.931936 0.394005 0.169394
0.088828 0.486520 0.151732
0.203969 0.489188 0.155853
0.319109 0.491857 0.159975
0.430110 0.494429 0.163949
0.538353 0.496938 0.167823
0.646778 0.499449 0.171429
0.745668 0.501731 0.173711
0.841989 0.503954 0.175934
0.938310 0.506177 0.178157
0.092559 0.598661 0.164383
0.207699 0.601329 0.168505
0.323243 0.604002 0.172032
0.435189 0.606586 0.174616
0.544353 0.609105 0.177135
0.653517 0.611624 0.179654
0.752406 0.613906 0.181936
0.848727 0.616129 0.184159
0.945048 0.618352 0.186382
0.097414 0.705380 0.174500
0.213534 0.708059 0.177179
0.329655 0.710739 0.179859
0.441601 0.713322 0.182442
0.550765 0.715842 0.184962
0.659929 0.718361 0.187481
0.758818 0.720643 0.189763
0.855139 0.722866 0.191986
0.951460 0.725089 0.194209
0.103744 0.810757 0.182227
0.219865 0.813436 0.184906
0.335985 0.816116 0.187586
0.447931 0.818699 0.190169
0.557095 0.821219 0.192689
0.666259 0.823738 0.195208
0.765148 0.826020 0.197490
0.861469 0.828243 0.199713
0.957790 0.830465 0.201935
0.110074 0.916134 0.189954
0.226195 0.918813 0.192633
0.342315 0.921493 0.195313
0.454261 0.924076 0.197896
0.563425 0.926596 0.200416
0.672589 0.929115 0.202935
0.771479 0.931397 0.205217
0.867800 0.933620 0.207440
0.964121 0.935842 0.209662
0.074054 0.031978 0.204522
0.189194 0.034647 0.208644
0.304334 0.037315 0.212766
0.415336 0.039888 0.216739
0.523578 0.042396 0.220614
0.631821 0.044905 0.224489
0.729876 0.047177 0.227999
0.825384 0.049391 0.231418
0.915848 0.051488 0.234721
0.077878 0.146951 0.217493
0.193019 0.149619 0.221615
0.308159 0.152288 0.225737
0.419160 0.154860 0.229711
0.527403 0.157369 0.233585
0.635645 0.159878 0.237460
0.733700 0.162150 0.240970
0.829208 0.164364 0.244389
0.924354 0.166569 0.247800
0.081703 0.261924 0.230465
0.196843 0.264592 0.234586
0.311983 0.267261 0.238708
0.422985 0.269833 0.242682
0.531227 0.272342 0.246556
0.639470 0.274851 0.250431
0.737525 0.277123 0.253941
0.833033 0.279337 0.257360
0.928541 0.281550 0.260779
0.085471 0.375197 0.243244
0.200611 0.377866 0.247366
0.315751 0.380534 0.251488
0.426753 0.383107 0.255461
0.534995 0.385616 0.259336
0.643238 0.388124 0.263211
0.741293 0.390397 0.266721
0.836801 0.392610 0.270140
0.932309 0.394824 0.273559
0.089201 0.487338 0.255896
0.204341 0.490007 0.260018
0.319482 0.492675 0.264139
0.430483 0.495248 0.268113
0.538726 0.497757 0.271988
0.647452 0.500271 0.275151
0.746341 0.502553 0.277433
0.842662 0.504776 0.279656
0.938983 0.506998 0.281878
0.092931 0.599479 0.268547
0.208072 0.602148 0.272669
0.323916 0.604824 0.275754
0.435863 0.607408 0.278338
0.545026 0.609927 0.280857
0.654190 0.612446 0.283376
0.753080 0.614728 0.285658
0.849401 0.616951 0.287881
0.945722 0.619174 0.290104
0.098087 0.706202 0.278222
0.214208 0.708881 0.280901
0.330328 0.711561 0.283581
0.442274 0.714144 0.286164
0.551438 0.716664 0.288684
0.660602 0.719183 0.291203
0.759492 0.721465 0.293485
0.855813 0.723688 0.295708
0.952134 0.725911 0.297931
0.104418 0.811579 0.285949
0.220538 0.814258 0.288628
0.336658 0.816938 0.291308
0.448605 0.819521 0.293891
0.557768 0.822041 0.296411
0.666932 0.824560 0.298930
0.765822 0.826842 0.301212
0.862143 0.829065 0.303435
0.958464 0.831287 0.305657
0.110748 0.916955 0.293675
0.226868 0.919635 0.296355
0.342988 0.922315 0.299035
0.454935 0.924898 0.301618
0.564099 0.927418 0.304138
0.673262 0.929937 0.306657
0.772152 0.932219 0.308939
0.868473 0.934442 0.311162
0.964794 0.936664 0.313384
0.074422 0.032787 0.307411
0.189562 0.035455 0.311533
0.304703 0.038124 0.315655
0.415704 0.040696 0.319628
0.523947 0.043205 0.323503
0.632189 0.045713 0.327378
0.730244 0.047986 0.330888
0.825752 0.050199 0.334307
0.916667 0.052307 0.337620
0.078247 0.147759 0.320382
0.193387 0.150428 0.324504
0.308527 0.153096 0.328626
0.419529 0.155669 0.332599
0.527771 0.158178 0.336474
0.636014 0.160686 0.340349
0.734069 0.162959 0.343859
0.829577 0.165172 0.347278
0.925085 0.167386 0.350697
0.082071 0.262732 0.333353
0.197211 0.265401 0.337475
0.312352 0.268069 0.341597
0.423353 0.270642 0.345570
0.531596 0.273150 0.349445
0.639838 0.275659 0.353320
0.737893 0.277932 0.356830
0.833401 0.280145 0.360249
0.928909 0.282359 0.363668
0.085839 0.376006 0.346133
0.200979 0.378674 0.350255
0.316120 0.381343 0.354376
0.427121 0.383916 0.358350
0.535364 0.386424 0.362225
0.643606 0.388933 0.366100
0.741661 0.391205 0.369610
0.837169 0.393419 0.373029
0.932910 0.395635 0.376105
0.089569 0.488147 0.358785
0.204710 0.490815 0.362906
0.319850 0.493484 0.367028
0.430851 0.496056 0.371002
0.539094 0.498565 0.374876
0.648117 0.501083 0.377603
0.747006 0.503365 0.379885
0.843327 0.505588 0.382108
0.939648 0.507810 0.384330
0.093300 0.600288 0.371436
0.208461 0.602957 0.375527
0.324581 0.605636 0.378206
0.436528 0.608220 0.380790
0.545692 0.610739 0.383309
0.654855 0.613258 0.385828
0.753745 0.615540 0.388110
0.850066 0.617763 0.390333
0.946387 0.619986 0.392556
0.098753 0.707014 0.380674
0.214873 0.709693 0.383353
0.330993 0.712373 0.386033
0.442940 0.714956 0.388616
0.552103 0.717476 0.391136
0.661267 0.719995 0.393655
0.760157 0.722277 0.395937
0.856478 0.724500 0.398160
0.952799 0.726722 0.400382
0.105083 0.812390 0.388400
0.221203 0.815070 0.391080
0.337323 0.817750 0.393760
0.449270 0.820333 0.396343
0.558434 0.822852 0.398862
0.667597 0.825372 0.401382
0.766487 0.827654 0.403664
0.862808 0.829877 0.405887
0.959129 0.832099 0.408109
0.111413 0.917767 0.396127
0.227533 0.920447 0.398807
0.343654 0.923127 0.401487
0.455600 0.925710 0.404070
0.564764 0.928229 0.406589
0.673928 0.930749 0.409109
0.772817 0.933031 0.411391
0.869138 0.935253 0.413613
0.965459 0.937476 0.415836
0.074787 0.033588 0.409450
0.189928 0.036257 0.413571
0.305068 0.038925 0.417693
0.416069 0.041498 0.421667
0.524312 0.044007 0.425541
0.632554 0.046515 0.429416
0.730609 0.048788 0.432926
0.826117 0.051001 0.436345
0.917479 0.053119 0.439669
0.078612 0.148561 0.422421
0.193752 0.151230 0.426543
0.308892 0.153898 0.430664
0.419894 0.156471 0.434638
0.528136 0.158979 0.438513
0.636379 0.161488 0.442387
0.734434 0.163761 0.445898
0.829942 0.165974 0.449316
0.925450 0.168188 0.452735
0.082436 0.263534 0.435392
0.197576 0.266203 0.439514
0.312717 0.268871 0.443635
0.423718 0.271444 0.447609
0.531961 0.273952 0.451484
0.640203 0.276461 0.455359
0.738258 0.278733 0.458869
0.833766 0.280947 0.462288
0.929274 0.283160 0.465707
0.086204 0.376808 0.448171
0.201344 0.379476 0.452293
0.316485 0.382145 0.456415
0.427486 0.384717 0.460388
0.535729 0.387226 0.464263
0.643971 0.389735 0.468138
0.742026 0.392007 0.471648
0.837534 0.394221 0.475067
0.933570 0.396440 0.477710
0.089934 0.488949 0.460823
0.205075 0.491617 0.464945
0.320215 0.494286 0.469067
0.431217 0.496858 0.473040
0.539613 0.499369 0.476689
0.648777 0.501888 0.479208
0.747666 0.504170 0.481490
0.843987 0.506393 0.483713
0.940308 0.508616 0.485936
0.093665 0.601090 0.473475
0.209121 0.603762 0.477132
0.325241 0.606442 0.479812
0.437187 0.609025 0.482395
0.546351 0.611544 0.484914
0.655515 0.614063 0.487433
0.754405 0.616345 0.489715
0.850726 0.618568 0.491938
0.947047 0.620791 0.494161
0.099412 0.707819 0.482279
0.215533 0.710498 0.484958
0.331653 0.713178 0.487638
0.443599 0.715762 0.490222
0.552763 0.718281 0.492741
0.661927 0.720800 0.495260
0.760816 0.723082 0.497542
0.857137 0.725305 0.499765
0.953458 0.727528 0.501988
0.105742 0.813196 0.490006
0.221863 0.815875 0.492685
0.337983 0.818555 0.495365
0.449929 0.821139 0.497949
0.559093 0.823658 0.500468
0.668257 0.826177 0.502987
0.767147 0.828459 0.505269
0.863468 0.830682 0.507492
0.959789 0.832905 0.509715
0.112073 0.918573 0.497733
0.228193 0.921252 0.500412
0.344313 0.923932 0.503092
0.456260 0.926515 0.505675
0.565423 0.929035 0.508195
0.674587 0.931554 0.510714
0.773477 0.933836 0.512996
0.869798 0.936059 0.515219
0.966119 0.938282 0.517442
0.075152 0.034390 0.511488
0.190293 0.037059 0.515610
0.305433 0.039727 0.519732
0.416435 0.042300 0.523705
0.524677 0.044808 0.527580
0.632919 0.047317 0.531455
0.730974 0.049590 0.534965
0.826482 0.051803 0.538384
0.918291 0.053931 0.541717
0.078977 0.149363 0.524459
0.194117 0.152032 0.528581
0.309257 0.154700 0.532703
0.420259 0.157273 0.536676
0.528501 0.159781 0.540551
0.636744 0.162290 0.544426
0.734799 0.164562 0.547936
0.830307 0.166776 0.551355
0.925815 0.168989 0.554774
0.082801 0.264336 0.537430
0.197942 0.267004 0.541552
0.313082 0.269673 0.545674
0.424083 0.272245 0.549647
0.532326 0.274754 0.553522
0.640568 0.277263 0.557397
0.738623 0.279535 0.560907
0.834131 0.281749 0.564326
0.929639 0.283962 0.567745
0.086569 0.377610 0.550210
0.201710 0.380278 0.554332
0.316850 0.382947 0.558453
0.427851 0.385519 0.562427
0.536094 0.388028 0.566302
0.644336 0.390536 0.570177
0.742391 0.392809 0.573687
0.837908 0.395023 0.577093
0.934229 0.397245 0.579315
0.090300 0.489751 0.562862
0.205440 0.492419 0.566983
0.320580 0.495088 0.571105
0.431582 0.497660 0.575079
0.540272 0.500174 0.578294
0.649436 0.502693 0.580813
0.748326 0.504975 0.583095
0.844647 0.507198 0.585318
0.940968 0.509421 0.587541
0.094030 0.601892 0.575513
0.209780 0.604567 0.578737
0.325901 0.607247 0.581417
0.437847 0.609830 0.584000
0.547011 0.612349 0.586519
0.656175 0.614869 0.589039
0.755064 0.617151 0.591321
0.851385 0.619373 0.593543
0.947706 0.621596 0.595766
0.100072 0.708624 0.583884
0.216192 0.711304 0.586564
0.332313 0.713983 0.589243
0.444259 0.716567 0.591827
0.553423 0.719086 0.594346
0.662587 0.721605 0.596865
0.761476 0.723887 0.599147
0.857797 0.726110 0.601370
0.954118 0.728333 0.603593
0.106402 0.814001 0.591611
0.222522 0.816681 0.594291
0.338643 0.819360 0.596970
0.450589 0.821944 0.599554
0.559753 0.824463 0.602073
0.668917 0.826982 0.604592
0.767806 0.829264 0.606874
0.864127 0.831487 0.609097
0.960448 0.833710 0.611320
0.112732 0.919378 0.599338
0.228852 0.922058 0.602018
0.344973 0.924737 0.604697
0.456919 0.927321 0.607281
0.566083 0.929840 0.609800
0.675247 0.932359 0.612319
0.774136 0.934641 0.614601
0.870457 0.936864 0.616824
0.966778 0.939087 0.619047
0.075499 0.035152 0.608425
0.190640 0.037821 0.612546
0.305780 0.040489 0.616668
0.416781 0.043062 0.620642
0.525024 0.045570 0.624517
0.633266 0.048079 0.628391
0.731321 0.050351 0.631901
0.826829 0.052565 0.635320
0.919063 0.054703 0.638664
0.079324 0.150125 0.621396
0.194464 0.152793 0.625518
0.309604 0.155462 0.629639
0.420606 0.158034 0.633613
0.528848 0.160543 0.637488
0.637091 0.163052 0.641362
0.735146 0.165324 0.644873
0.830654 0.167538 0.648292
0.926162 0.169751 0.651710
0.083148 0.265098 0.634367
0.198289 0.267766 0.638489
0.313429 0.270435 0.642610
0.424430 0.273007 0.646584
0.532673 0.275516 0.650459
0.640915 0.278024 0.654334
0.738970 0.280297 0.657844
0.834478 0.282510 0.661263
0.929986 0.284724 0.664682
0.086916 0.378371 0.647147
0.202056 0.381040 0.651268
0.317197 0.383708 0.655390
0.428198 0.386281 0.659364
0.536441 0.388790 0.663238
0.644683 0.391298 0.667113
0.742738 0.393571 0.670623
0.838535 0.395787 0.673617
0.934856 0.398010 0.675840
0.090646 0.490512 0.659798
0.205787 0.493181 0.663920
0.320927 0.495849 0.668042
0.431929 0.498422 0.672015
0.540899 0.500939 0.674819
0.650063 0.503458 0.677338
0.748952 0.505740 0.679620
0.845273 0.507963 0.681843
0.941594 0.510186 0.684066
0.094377 0.602653 0.672450
0.210407 0.605332 0.675262
0.326527 0.608012 0.677942
0.438474 0.610595 0.680525
0.547638 0.613114 0.683044
0.656801 0.615633 0.685563
0.755691 0.617916 0.687846
0.852012 0.620138 0.690068
0.948333 0.622361 0.692291
0.100699 0.709389 0.680409
0.216819 0.712069 0.683089
0.332939 0.714748 0.685768
0.444886 0.717332 0.688352
0.554049 0.719851 0.690871
0.663213 0.722370 0.693390
0.762103 0.724652 0.695672
0.858424 0.726875 0.697895
0.954745 0.729098 0.700118
0.107029 0.814766 0.688136
0.223149 0.817446 0.690816
0.339269 0.820125 0.693495
0.451216 0.822709 0.696079
0.560380 0.825228 0.698598
0.669543 0.827747 0.701117
0.768433 0.830029 0.703399
0.864754 0.832252 0.705622
0.961075 0.834475 0.707845
0.113359 0.920143 0.695863
0.229479 0.922822 0.698542
0.345599 0.925502 0.701222
0.457546 0.928086 0.703806
0.566710 0.930605 0.706325
0.675873 0.933124 0.708844
0.774763 0.935406 0.711126
0.871084 0.937629 0.713349
0.967405 0.939852 0.715572
0.075842 0.035904 0.704086
0.190982 0.038572 0.708208
0.306122 0.041241 0.712329
0.417124 0.043813 0.716303
0.525366 0.046322 0.720178
0.633609 0.048831 0.724052
0.731664 0.051103 0.727562
0.827172 0.053317 0.730981
0.919824 0.055464 0.734334
0.079666 0.150877 0.717057
0.194806 0.153545 0.721179
0.309947 0.156214 0.725300
0.420948 0.158786 0.729274
0.529191 0.161295 0.733149
0.637433 0.163803 0.737024
0.735488 0.166076 0.740534
0.830996 0.168289 0.743953
0.926504 0.170503 0.747372
0.083491 0.265849 0.730028
0.198631 0.268518 0.734150
0.313771 0.271186 0.738272
0.424773 0.273759 0.742245
0.533015 0.276268 0.746120
0.641258 0.278776 0.749995
0.739313 0.281049 0.753505
0.834821 0.283262 0.756924
0.930329 0.285476 0.760343
0.087259 0.379123 0.742808
0.202399 0.381792 0.746929
0.317539 0.384460 0.751051
0.428541 0.387033 0.755025
0.536783 0.389541 0.758899
0.645026 0.392050 0.762774
0.743081 0.394322 0.766284
0.839153 0.396542 0.768872
0.935474 0.398765 0.771095
0.090989 0.491264 0.755459
0.206129 0.493933 0.759581
0.321269 0.496601 0.763703
0.432354 0.499175 0.767555
0.541517 0.501694 0.770074
0.650681 0.504213 0.772593
0.749571 0.506495 0.774875
0.845892 0.508718 0.777098
0.942213 0.510941 0.779321
0.094905 0.603407 0.767837
0.211025 0.606087 0.770517
0.327146 0.608767 0.773197
0.439092 0.611350 0.775780
0.548256 0.613869 0.778299
0.657420 0.616388 0.780818
0.756309 0.618670 0.783100
0.852630 0.620893 0.785323
0.948951 0.623116 0.787546
0.101317 0.710144 0.775664
0.217437 0.712823 0.778343
0.333558 0.715503 0.781023
0.445504 0.718087 0.783607
0.554668 0.720606 0.786126
0.663832 0.723125 0.788645
0.762721 0.725407 0.790927
0.859042 0.727630 0.793150
0.955363 0.729853 0.795373
0.107647 0.815521 0.783391
0.223767 0.818200 0.786070
0.339888 0.820880 0.788750
0.451834 0.823464 0.791334
0.560998 0.825983 0.793853
0.670162 0.828502 0.796372
0.769051 0.830784 0.798654
0.865372 0.833007 0.800877
0.961693 0.835230 0.803100
0.113977 0.920898 0.791118
0.230098 0.923577 0.793797
0.346218 0.926257 0.796477
0.458164 0.928840 0.799060
0.567328 0.931360 0.801580
0.676492 0.933879 0.804099
0.775381 0.936161 0.806381
0.871702 0.938384 0.808604
0.968023 0.940607 0.810827
0.076184 0.036655 0.799747
0.191324 0.039324 0.803869
0.306465 0.041992 0.807990
0.417466 0.044565 0.811964
0.525709 0.047074 0.815839
0.633951 0.049582 0.819713
0.732006 0.051855 0.823224
0.827514 0.054068 0.826643
0.920586 0.056226 0.830005
0.080008 0.151628 0.812718
0.195149 0.154297 0.816840
0.310289 0.156965 0.820961
0.421291 0.159538 0.824935
0.529533 0.162046 0.828810
0.637775 0.164555 0.832685
0.735830 0.166828 0.836195
0.831338 0.169041 0.839614
0.926847 0.171255 0.843033
0.083833 0.266601 0.825689
0.198973 0.269270 0.829811
0.314113 0.271938 0.833933
0.425115 0.274511 0.837906
0.533358 0.277019 0.841781
0.641600 0.279528 0.845656
0.739655 0.281800 0.849166
0.835163 0.284014 0.852585
0.930671 0.286227 0.856004
0.087601 0.379875 0.838469
0.202741 0.382543 0.842590
0.317881 0.385212 0.846712
0.428883 0.387784 0.850686
0.537125 0.390293 0.854560
0.645368 0.392802 0.858435
0.743451 0.395074 0.861904
0.839772 0.397297 0.864127
0.936093 0.399520 0.866350
0.091331 0.492016 0.851120
0.206471 0.494684 0.855242
0.321612 0.497353 0.859364
0.432972 0.499929 0.862809
0.542136 0.502449 0.865329
0.651300 0.504968 0.867848
0.750189 0.507250 0.870130
0.846510 0.509473 0.872353
0.942831 0.511695 0.874575
0.095524 0.604162 0.863092
0.211644 0.606842 0.865772
0.327764 0.609521 0.868451
0.439711 0.612105 0.871035
0.548874 0.614624 0.873554
0.658038 0.617143 0.876073
0.756928 0.619425 0.878355
0.853249 0.621648 0.880578
0.949570 0.623871 0.882801
0.101935 0.710899 0.870919
0.218056 0.713578 0.873598
0.334176 0.716258 0.876278
0.446122 0.718841 0.878861
0.555286 0.721361 0.881381
0.664450 0.723880 0.883900
0.763340 0.726162 0.886182
0.859661 0.728385 0.888405
0.955982 0.730608 0.890628
0.108266 0.816276 0.878646
0.224386 0.818955 0.881325
0.340506 0.821635 0.884005
0.452453 0.824218 0.886588
0.561616 0.826738 0.889108
0.670780 0.829257 0.891627
0.769670 0.831539 0.893909
0.865991 0.833762 0.896132
0.962312 0.835984 0.898354
0.114596 0.921653 0.886373
0.230716 0.924332 0.889052
0.346836 0.927012 0.891732
0.458783 0.929595 0.894315
0.567947 0.932115 0.896835
0.677110 0.934634 0.899354
0.776000 0.936916 0.901636
0.872321 0.939139 0.903859
0.968642 0.941361 0.906081
