luts/rangefinder_classic.cube
TITLE "Camera Leica M"
LUT_3D_SIZE 33
0.073441 0.030473 0.012833
0.102223 0.031138 0.013498
0.131005 0.031802 0.014162
0.159787 0.032466 0.014826
0.188569 0.033130 0.015490
0.217352 0.033795 0.016155
0.246134 0.034459 0.016819
0.274916 0.035123 0.017483
0.303698 0.035787 0.018147
0.332480 0.036451 0.018811
0.360573 0.037100 0.019460
0.387630 0.037724 0.020084
0.414688 0.038348 0.020708
0.441746 0.038973 0.021333
0.468804 0.039597 0.021957
0.495862 0.040222 0.022582
0.522920 0.040846 0.023206
0.549978 0.041471 0.023831
0.577036 0.042095 0.024455
0.604093 0.042719 0.025079
0.631151 0.043344 0.025704
0.657573 0.043954 0.026314
0.681447 0.044504 0.026864
0.705322 0.045055 0.027415
0.729196 0.045606 0.027966
0.753071 0.046157 0.028517
0.776946 0.046708 0.029068
0.800820 0.047259 0.029619
0.824695 0.047810 0.030170
0.848569 0.048361 0.030721
0.872444 0.048912 0.031272
0.896319 0.049463 0.031823
0.914237 0.049877 0.032237
0.074388 0.059208 0.014924
0.103170 0.059872 0.015588
0.131952 0.060536 0.016252
0.160734 0.061200 0.016916
0.189516 0.061864 0.017581
0.218298 0.062529 0.018245
0.247081 0.063193 0.018909
0.275863 0.063857 0.019573
0.304645 0.064521 0.020237
0.333427 0.065185 0.020902
0.361520 0.065834 0.021550
0.388577 0.066458 0.022174
0.415635 0.067083 0.022799
0.442693 0.067707 0.023423
0.469751 0.068331 0.024048
0.496809 0.068956 0.024672
0.523867 0.069580 0.025296
0.550925 0.070205 0.025921
0.577983 0.070829 0.026545
0.605040 0.071453 0.027170
0.632098 0.072078 0.027794
0.658519 0.072688 0.028404
0.682394 0.073239 0.028955
0.706269 0.073789 0.029506
0.730143 0.074340 0.030057
0.754018 0.074891 0.030608
0.777892 0.075442 0.031159
0.801767 0.075993 0.031710
0.825642 0.076544 0.032261
0.849516 0.077095 0.032811
0.873391 0.077646 0.033362
0.897265 0.078197 0.033913
0.916354 0.078638 0.034354
0.075335 0.087942 0.017014
0.104117 0.088606 0.017678
0.132899 0.089270 0.018342
0.161681 0.089934 0.019007
0.190463 0.090598 0.019671
0.219245 0.091263 0.020335
0.248028 0.091927 0.020999
0.276810 0.092591 0.021663
0.305592 0.093255 0.022328
0.334374 0.093919 0.022992
0.362466 0.094568 0.023640
0.389524 0.095192 0.024265
0.416582 0.095817 0.024889
0.443640 0.096441 0.025513
0.470698 0.097065 0.026138
0.497756 0.097690 0.026762
0.524814 0.098314 0.027387
0.551872 0.098939 0.028011
0.578929 0.099563 0.028636
0.605987 0.100187 0.029260
0.633045 0.100812 0.029884
0.659466 0.101422 0.030494
0.683341 0.101973 0.031045
0.707216 0.102524 0.031596
0.731090 0.103074 0.032147
0.754965 0.103625 0.032698
0.778839 0.104176 0.033249
0.802714 0.104727 0.033800
0.826589 0.105278 0.034351
0.850463 0.105829 0.034902
0.874338 0.106380 0.035453
0.898212 0.106931 0.036004
0.918471 0.107399 0.036471
0.076282 0.116676 0.019104
0.105064 0.117340 0.019769
0.133846 0.118004 0.020433
0.162628 0.118668 0.021097
0.191410 0.119332 0.021761
0.220192 0.119997 0.022425
0.248975 0.120661 0.023090
0.277757 0.121325 0.023754
0.306539 0.121989 0.024418
0.335321 0.122653 0.025082
0.363413 0.123302 0.025730
0.390471 0.123926 0.026355
0.417529 0.124551 0.026979
0.444587 0.125175 0.027604
0.471645 0.125799 0.028228
0.498703 0.126424 0.028853
0.525761 0.127048 0.029477
0.552819 0.127673 0.030101
0.579876 0.128297 0.030726
0.606934 0.128921 0.031350
0.633992 0.129546 0.031975
0.660413 0.130156 0.032584
0.684288 0.130707 0.033135
0.708163 0.131258 0.033686
0.732037 0.131808 0.034237
0.755912 0.132359 0.034788
0.779786 0.132910 0.035339
0.803661 0.133461 0.035890
0.827536 0.134012 0.036441
0.851410 0.134563 0.036992
0.875285 0.135114 0.037543
0.899159 0.135665 0.038094
0.920588 0.136160 0.038588
0.077229 0.145410 0.021195
0.106011 0.146074 0.021859
0.134793 0.146738 0.022523
0.163575 0.147402 0.023187
0.192357 0.148066 0.023851
0.221139 0.148731 0.024516
0.249921 0.149395 0.025180
0.278704 0.150059 0.025844
0.307486 0.150723 0.026508
0.336268 0.151387 0.027172
0.364360 0.152036 0.027821
0.391418 0.152660 0.028445
0.418476 0.153285 0.029070
0.445534 0.153909 0.029694
0.472592 0.154533 0.030318
0.499650 0.155158 0.030943
0.526708 0.155782 0.031567
0.553765 0.156407 0.032192
0.580823 0.157031 0.032816
0.607881 0.157656 0.033441
0.634939 0.158280 0.034065
0.661360 0.158890 0.034675
0.685235 0.159441 0.035226
0.709110 0.159992 0.035777
0.732984 0.160543 0.036328
0.756859 0.161093 0.036878
0.780733 0.161644 0.037429
0.804608 0.162195 0.037980
0.828482 0.162746 0.038531
0.852357 0.163297 0.039082
0.876232 0.163848 0.039633
0.900106 0.164399 0.040184
0.922706 0.164921 0.040706
0.078175 0.174144 0.023285
0.106958 0.174808 0.023949
0.135740 0.175472 0.024613
0.164522 0.176136 0.025278
0.193304 0.176800 0.025942
0.222086 0.177465 0.026606
0.250868 0.178129 0.027270
0.279651 0.178793 0.027934
0.308433 0.179457 0.028599
0.337215 0.180122 0.029263
0.365307 0.180770 0.029911
0.392365 0.181394 0.030535
0.419423 0.182019 0.031160
0.446481 0.182643 0.031784
0.473539 0.183267 0.032409
0.500597 0.183892 0.033033
0.527655 0.184516 0.033658
0.554712 0.185141 0.034282
0.581770 0.185765 0.034906
0.608828 0.186390 0.035531
0.635886 0.187014 0.036155
0.662307 0.187624 0.036765
0.686182 0.188175 0.037316
0.710056 0.188726 0.037867
0.733931 0.189277 0.038418
0.757806 0.189828 0.038969
0.781680 0.190378 0.039520
0.805555 0.190929 0.040071
0.829429 0.191480 0.040622
0.853304 0.192031 0.041173
0.877179 0.192582 0.041724
0.901053 0.193133 0.042275
0.924823 0.193682 0.042823
0.079122 0.202878 0.025375
0.107905 0.203542 0.026039
0.136687 0.204206 0.026704
0.165469 0.204870 0.027368
0.194251 0.205534 0.028032
0.223033 0.206199 0.028696
0.251815 0.206863 0.029360
0.280598 0.207527 0.030025
0.309380 0.208191 0.030689
0.338162 0.208856 0.031353
0.366254 0.209504 0.032001
0.393312 0.210128 0.032626
0.420370 0.210753 0.033250
0.447428 0.211377 0.033875
0.474486 0.212001 0.034499
0.501544 0.212626 0.035123
0.528601 0.213250 0.035748
0.555659 0.213875 0.036372
0.582717 0.214499 0.036997
0.609775 0.215124 0.037621
0.636833 0.215748 0.038245
0.663254 0.216358 0.038855
0.687129 0.216909 0.039406
0.711003 0.217460 0.039957
0.734878 0.218011 0.040508
0.758753 0.218562 0.041059
0.782627 0.219113 0.041610
0.806502 0.219663 0.042161
0.830376 0.220214 0.042712
0.854252 0.220766 0.043401
0.878129 0.221320 0.044256
0.902006 0.221873 0.045110
0.925883 0.222427 0.045965
0.080069 0.231612 0.027465
0.108852 0.232276 0.028130
0.137634 0.232940 0.028794
0.166416 0.233604 0.029458
0.195198 0.234269 0.030122
0.223980 0.234933 0.030786
0.252762 0.235597 0.031451
0.281544 0.236261 0.032115
0.310327 0.236925 0.032779
0.339109 0.237590 0.033443
0.367201 0.238238 0.034092
0.394259 0.238862 0.034716
0.421317 0.239487 0.035340
0.448375 0.240111 0.035965
0.475433 0.240736 0.036589
0.502491 0.241360 0.037214
0.529548 0.241984 0.037838
0.556606 0.242609 0.038463
0.583664 0.243233 0.039087
0.610722 0.243858 0.039711
0.637780 0.244482 0.040336
0.664201 0.245092 0.040946
0.688076 0.245643 0.041496
0.711950 0.246194 0.042047
0.735825 0.246745 0.042598
0.759700 0.247296 0.043225
0.783577 0.247850 0.044079
0.807454 0.248403 0.044934
0.831331 0.248956 0.045789
0.855208 0.249510 0.046644
0.879085 0.250063 0.047498
0.902962 0.250616 0.048353
0.926839 0.251170 0.049208
0.081016 0.260346 0.029556
0.109798 0.261010 0.030220
0.138581 0.261674 0.030884
0.167363 0.262338 0.031548
0.196145 0.263003 0.032213
0.224927 0.263667 0.032877
0.253709 0.264331 0.033541
0.282491 0.264995 0.034205
0.311274 0.265659 0.034869
0.340056 0.266324 0.035534
0.368148 0.266972 0.036182
0.395206 0.267596 0.036806
0.422264 0.268221 0.037431
0.449322 0.268845 0.038055
0.476380 0.269470 0.038680
0.503438 0.270094 0.039304
0.530495 0.270718 0.039928
0.557553 0.271343 0.040553
0.584611 0.271967 0.041177
0.611669 0.272592 0.041802
0.638727 0.273216 0.042426
0.665148 0.273826 0.043049
0.689025 0.274379 0.043903
0.712902 0.274933 0.044758
0.736779 0.275486 0.045613
0.760656 0.276039 0.046468
0.784533 0.276593 0.047322
0.808410 0.277146 0.048177
0.832287 0.277700 0.049032
0.856164 0.278253 0.049886
0.880041 0.278806 0.050741
0.903918 0.279360 0.051596
0.927795 0.279913 0.052451
0.081963 0.289080 0.031646
0.110745 0.289744 0.032310
0.139528 0.290408 0.032974
0.168310 0.291072 0.033639
0.197092 0.291737 0.034303
0.225874 0.292401 0.034967
0.254656 0.293065 0.035631
0.283438 0.293729 0.036295
0.312220 0.294393 0.036960
0.341003 0.295058 0.037624
0.369095 0.295706 0.038272
0.396153 0.296330 0.038897
0.423211 0.296955 0.039521
0.450269 0.297579 0.040145
0.477327 0.298204 0.040770
0.504384 0.298828 0.041394
0.531442 0.299452 0.042019
0.558500 0.300077 0.042643
0.585559 0.300702 0.043408
0.612620 0.301330 0.044377
0.639680 0.301957 0.045345
0.666104 0.302569 0.046291
0.689981 0.303122 0.047146
0.713858 0.303676 0.048001
0.737735 0.304229 0.048856
0.761612 0.304783 0.049710
0.785489 0.305336 0.050565
0.809366 0.305889 0.051420
0.833243 0.306443 0.052274
0.857120 0.306996 0.053129
0.880997 0.307549 0.053984
0.904874 0.308103 0.054839
0.928751 0.308656 0.055693
0.082901 0.317531 0.033716
0.111683 0.318195 0.034380
0.140465 0.318859 0.035044
0.169247 0.319523 0.035708
0.198030 0.320188 0.036373
0.226812 0.320852 0.037037
0.255594 0.321516 0.037701
0.284376 0.322180 0.038365
0.313158 0.322844 0.039029
0.341940 0.323509 0.039694
0.370033 0.324157 0.040342
0.397091 0.324781 0.040966
0.424148 0.325406 0.041591
0.451206 0.326030 0.042215
0.478264 0.326655 0.042840
0.505324 0.327281 0.043713
0.532385 0.327908 0.044681
0.559445 0.328535 0.045650
0.586506 0.329162 0.046619
0.613567 0.329790 0.047588
0.640627 0.330417 0.048556
0.667051 0.331029 0.049502
0.690928 0.331582 0.050357
0.714805 0.332136 0.051212
0.738682 0.332689 0.052066
0.762559 0.333243 0.052921
0.786436 0.333796 0.053776
0.810313 0.334349 0.054631
0.834190 0.334903 0.055485
0.858067 0.335456 0.056340
0.881944 0.336009 0.057195
0.905821 0.336563 0.058050
0.929698 0.337116 0.058904
0.083825 0.345557 0.035754
0.112607 0.346221 0.036419
0.141389 0.346885 0.037083
0.170171 0.347550 0.037747
0.198953 0.348214 0.038411
0.227735 0.348878 0.039076
0.256517 0.349542 0.039740
0.285300 0.350206 0.040404
0.314082 0.350871 0.041068
0.342864 0.351535 0.041732
0.370956 0.352183 0.042381
0.398014 0.352808 0.043005
0.425075 0.353435 0.043970
0.452135 0.354062 0.044938
0.479196 0.354689 0.045907
0.506257 0.355316 0.046876
0.533317 0.355943 0.047844
0.560378 0.356570 0.048813
0.587438 0.357198 0.049782
0.614499 0.357825 0.050751
0.641560 0.358452 0.051719
0.667984 0.359064 0.052665
0.691861 0.359618 0.053520
0.715738 0.360171 0.054375
0.739615 0.360724 0.055229
0.763492 0.361278 0.056084
0.787369 0.361831 0.056939
0.811246 0.362385 0.057794
0.835123 0.362938 0.058648
0.859000 0.363491 0.059503
0.882877 0.364045 0.060358
0.906754 0.364598 0.061212
0.930631 0.365151 0.062067
0.084748 0.373583 0.037793
0.113530 0.374247 0.038457
0.142312 0.374912 0.039122
0.171095 0.375576 0.039786
0.199877 0.376240 0.040450
0.228659 0.376904 0.041114
0.257441 0.377569 0.041779
0.286223 0.378233 0.042443
0.315006 0.378897 0.043159
0.343791 0.379564 0.044189
0.371886 0.380216 0.045195
0.398947 0.380843 0.046164
0.426007 0.381470 0.047133
0.453068 0.382097 0.048101
0.480129 0.382724 0.049070
0.507189 0.383351 0.050039
0.534250 0.383979 0.051007
0.561310 0.384606 0.051976
0.588371 0.385233 0.052945
0.615432 0.385860 0.053913
0.642492 0.386487 0.054882
0.668916 0.387100 0.055828
0.692793 0.387653 0.056683
0.716670 0.388206 0.057538
0.740547 0.388760 0.058392
0.764424 0.389313 0.059247
0.788301 0.389866 0.060102
0.812178 0.390420 0.060956
0.836055 0.390973 0.061811
0.859932 0.391527 0.062666
0.883809 0.392080 0.063521
0.907686 0.392633 0.064375
0.931563 0.393187 0.065230
0.085672 0.401610 0.039832
0.114454 0.402274 0.040496
0.143236 0.402938 0.041161
0.172018 0.403602 0.041825
0.200800 0.404266 0.042489
0.229583 0.404931 0.043231
0.258368 0.405598 0.044261
0.287153 0.406265 0.045291
0.315938 0.406933 0.046322
0.344723 0.407600 0.047352
0.372819 0.408251 0.048358
0.399879 0.408878 0.049327
0.426940 0.409505 0.050295
0.454001 0.410132 0.051264
0.481061 0.410760 0.052233
0.508122 0.411387 0.053202
0.535182 0.412014 0.054170
0.562243 0.412641 0.055139
0.589304 0.413268 0.056108
0.616364 0.413895 0.057076
0.643425 0.414522 0.058045
0.669849 0.415135 0.058991
0.693726 0.415688 0.059846
0.717603 0.416242 0.060700
0.741480 0.416795 0.061555
0.765357 0.417348 0.062410
0.789234 0.417902 0.063265
0.813111 0.418455 0.064119
0.836988 0.419008 0.064974
0.860865 0.419562 0.065829
0.884742 0.420115 0.066684
0.908619 0.420669 0.067538
0.932583 0.421223 0.068265
0.086595 0.429636 0.041871
0.115378 0.430300 0.042535
0.144161 0.430965 0.043302
0.172946 0.431632 0.044333
0.201731 0.432299 0.045363
0.230516 0.432966 0.046394
0.259301 0.433634 0.047424
0.288086 0.434301 0.048454
0.316871 0.434968 0.049485
0.345656 0.435635 0.050515
0.373751 0.436286 0.051521
0.400812 0.436913 0.052490
0.427872 0.437540 0.053458
0.454933 0.438168 0.054427
0.481994 0.438795 0.055396
0.509054 0.439422 0.056364
0.536115 0.440049 0.057333
0.563176 0.440676 0.058302
0.590236 0.441303 0.059271
0.617297 0.441931 0.060239
0.644357 0.442558 0.061208
0.670781 0.443170 0.062154
0.694658 0.443723 0.063009
0.718535 0.444277 0.063863
0.742412 0.444830 0.064718
0.766289 0.445384 0.065573
0.790166 0.445937 0.066428
0.814043 0.446490 0.067282
0.837946 0.447044 0.068099
0.862026 0.447600 0.068655
0.886107 0.448155 0.069210
0.910187 0.448711 0.069766
0.934267 0.449267 0.070322
0.087523 0.457666 0.044404
0.116308 0.458333 0.045435
0.145093 0.459000 0.046465
0.173878 0.459667 0.047496
0.202663 0.460335 0.048526
0.231448 0.461002 0.049556
0.260233 0.461669 0.050587
0.289018 0.462336 0.051617
0.317803 0.463003 0.052648
0.346589 0.463670 0.053678
0.374684 0.464321 0.054684
0.401744 0.464949 0.055653
0.428805 0.465576 0.056621
0.455866 0.466203 0.057590
0.482926 0.466830 0.058559
0.509987 0.467457 0.059527
0.537048 0.468084 0.060496
0.564108 0.468711 0.061465
0.591169 0.469339 0.062433
0.618229 0.469966 0.063402
0.645290 0.470593 0.064371
0.671714 0.471205 0.065317
0.695591 0.471759 0.066172
0.719468 0.472312 0.067026
0.743345 0.472865 0.067881
0.767390 0.473421 0.068488
0.791470 0.473976 0.069044
0.815551 0.474532 0.069600
0.839631 0.475088 0.070155
0.863711 0.475644 0.070711
0.887791 0.476199 0.071267
0.911872 0.476755 0.071822
0.935952 0.477311 0.072378
0.088456 0.485701 0.047567
0.117241 0.486368 0.048598
0.146026 0.487036 0.049628
0.174811 0.487703 0.050659
0.203596 0.488370 0.051689
0.232381 0.489037 0.052719
0.261166 0.489704 0.053750
0.289951 0.490371 0.054780
0.318736 0.491038 0.055811
0.347521 0.491705 0.056841
0.375616 0.492357 0.057847
0.402677 0.492984 0.058816
0.429738 0.493611 0.059784
0.456798 0.494238 0.060753
0.483859 0.494865 0.061722
0.510919 0.495492 0.062690
0.537980 0.496120 0.063659
0.565041 0.496747 0.064628
0.592101 0.497374 0.065596
0.619162 0.498001 0.066565
0.646223 0.498628 0.067534
0.672754 0.499242 0.068322
0.696834 0.499798 0.068878
0.720914 0.500353 0.069433
0.744995 0.500909 0.069989
0.769075 0.501465 0.070545
0.793155 0.502020 0.071100
0.817235 0.502576 0.071656
0.841315 0.503132 0.072212
0.865396 0.503687 0.072767
0.889476 0.504243 0.073323
0.913556 0.504799 0.073879
0.937636 0.505355 0.074435
0.089388 0.513737 0.050730
0.118173 0.514404 0.051761
0.146958 0.515071 0.052791
0.175743 0.515738 0.053821
0.204528 0.516405 0.054852
0.233313 0.517072 0.055882
0.262098 0.517739 0.056913
0.290884 0.518406 0.057943
0.319669 0.519074 0.058974
0.348454 0.519741 0.060004
0.376549 0.520392 0.061010
0.403610 0.521019 0.061978
0.430670 0.521646 0.062947
0.457731 0.522273 0.063916
0.484791 0.522900 0.064885
0.511852 0.523528 0.065853
0.538913 0.524155 0.066822
0.565973 0.524782 0.067791
0.593208 0.525411 0.068504
0.620499 0.526041 0.069133
0.647790 0.526671 0.069763
0.674438 0.527286 0.070378
0.698519 0.527841 0.070934
0.722599 0.528397 0.071490
0.746679 0.528953 0.072045
0.770759 0.529508 0.072601
0.794840 0.530064 0.073157
0.818920 0.530620 0.073712
0.843000 0.531176 0.074268
0.867080 0.531731 0.074824
0.891161 0.532287 0.075379
0.915241 0.532843 0.075935
0.939321 0.533398 0.076491
0.090321 0.541772 0.053893
0.119106 0.542439 0.054923
0.147891 0.543106 0.055954
0.176676 0.543773 0.056984
0.205461 0.544440 0.058015
0.234246 0.545107 0.059045
0.263031 0.545775 0.060076
0.291816 0.546442 0.061106
0.320601 0.547109 0.062136
0.349386 0.547776 0.063167
0.377482 0.548427 0.064173
0.404542 0.549054 0.065141
0.431603 0.549681 0.066110
0.458663 0.550309 0.067079
0.485729 0.550936 0.068041
0.513019 0.551566 0.068671
0.540310 0.552195 0.069300
0.567601 0.552825 0.069930
0.594892 0.553455 0.070560
0.622183 0.554085 0.071190
0.649474 0.554715 0.071820
0.676123 0.555330 0.072435
0.700203 0.555885 0.072990
0.724284 0.556441 0.073546
0.748364 0.556997 0.074102
0.772444 0.557552 0.074657
0.796524 0.558108 0.075213
0.820605 0.558664 0.075769
0.844685 0.559219 0.076324
0.868765 0.559775 0.076880
0.892845 0.560331 0.077436
0.916926 0.560887 0.077992
0.941006 0.561442 0.078547
0.091253 0.569807 0.057056
0.120038 0.570474 0.058086
0.148823 0.571141 0.059117
0.177608 0.571808 0.060147
0.206393 0.572476 0.061178
0.235179 0.573143 0.062208
0.263964 0.573810 0.063239
0.292749 0.574477 0.064269
0.321534 0.575144 0.065299
0.350319 0.575811 0.066330
0.378414 0.576462 0.067336
0.405540 0.577090 0.068208
0.432831 0.577720 0.068838
0.460122 0.578350 0.069467
0.487413 0.578980 0.070097
0.514704 0.579609 0.070727
0.541995 0.580239 0.071357
0.569286 0.580869 0.071987
0.596577 0.581499 0.072616
0.623868 0.582129 0.073246
0.651159 0.582758 0.073876
0.677808 0.583373 0.074491
0.701888 0.583929 0.075047
0.725968 0.584485 0.075602
0.750048 0.585040 0.076158
0.774129 0.585596 0.076714
0.798209 0.586152 0.077269
0.822289 0.586708 0.077825
0.846369 0.587263 0.078381
0.870450 0.587819 0.078936
0.894530 0.588375 0.079492
0.918610 0.588930 0.080048
0.942690 0.589486 0.080604
0.092186 0.597842 0.060219
0.120971 0.598509 0.061249
0.149756 0.599177 0.062280
0.178541 0.599844 0.063310
0.207326 0.600511 0.064341
0.236111 0.601178 0.065371
0.264896 0.601845 0.066401
0.293681 0.602512 0.067432
0.322569 0.603180 0.068310
0.351600 0.603850 0.068980
0.379934 0.604504 0.069634
0.407225 0.605134 0.070264
0.434516 0.605764 0.070894
0.461807 0.606394 0.071524
0.489098 0.607023 0.072153
0.516389 0.607653 0.072783
0.543680 0.608283 0.073413
0.570971 0.608913 0.074043
0.598262 0.609543 0.074673
0.625553 0.610172 0.075302
0.652843 0.610802 0.075932
0.679492 0.611417 0.076547
0.703573 0.611973 0.077103
0.727653 0.612529 0.077659
0.751733 0.613084 0.078214
0.775813 0.613640 0.078770
0.799894 0.614196 0.079326
0.823974 0.614751 0.079881
0.848054 0.615307 0.080437
0.872134 0.615863 0.080993
0.896215 0.616419 0.081549
0.920295 0.616974 0.082104
0.944375 0.617530 0.082660
0.093107 0.625538 0.063343
0.121892 0.626205 0.064374
0.150677 0.626872 0.065404
0.179462 0.627539 0.066435
0.208247 0.628206 0.067465
0.237143 0.628875 0.068332
0.266174 0.629545 0.069002
0.295204 0.630215 0.069672
0.324234 0.630884 0.070342
0.353264 0.631554 0.071012
0.381598 0.632208 0.071666
0.408889 0.632838 0.072296
0.436180 0.633468 0.072925
0.463471 0.634098 0.073555
0.490762 0.634727 0.074185
0.518053 0.635357 0.074815
0.545344 0.635987 0.075445
0.572635 0.636617 0.076074
0.599926 0.637247 0.076704
0.627217 0.637876 0.077334
0.654508 0.638506 0.077964
0.681157 0.639121 0.078579
0.705237 0.639677 0.079134
0.729317 0.640233 0.079690
0.753397 0.640788 0.080246
0.777477 0.641344 0.080801
0.801558 0.641900 0.081357
0.825638 0.642455 0.081913
0.849718 0.643011 0.082469
0.873798 0.643567 0.083024
0.897879 0.644122 0.083580
0.921959 0.644678 0.084136
0.946039 0.645234 0.084691
0.093983 0.651874 0.066315
0.122768 0.652541 0.067345
0.151636 0.653209 0.068254
0.180666 0.653879 0.068924
0.209696 0.654549 0.069594
0.238726 0.655219 0.070264
0.267756 0.655889 0.070934
0.296786 0.656559 0.071604
0.325816 0.657229 0.072274
0.354846 0.657899 0.072944
0.383181 0.658552 0.073597
0.410472 0.659182 0.074227
0.437763 0.659812 0.074857
0.465054 0.660442 0.075487
0.492345 0.661072 0.076117
0.519635 0.661701 0.076746
0.546926 0.662331 0.077376
0.574217 0.662961 0.078006
0.601508 0.663591 0.078636
0.628799 0.664221 0.079266
0.656090 0.664850 0.079895
0.682739 0.665465 0.080510
0.706819 0.666021 0.081066
0.730900 0.666577 0.081622
0.754980 0.667133 0.082178
0.779060 0.667688 0.082733
0.803140 0.668244 0.083289
0.827221 0.668800 0.083845
0.851301 0.669355 0.084400
0.875381 0.669911 0.084956
0.899461 0.670467 0.085512
0.923542 0.671022 0.086067
0.947622 0.671578 0.086623
0.095158 0.678213 0.068846
0.124188 0.678883 0.069516
0.153218 0.679553 0.070186
0.182248 0.680223 0.070856
0.211278 0.680893 0.071526
0.240309 0.681563 0.072196
0.269339 0.682233 0.072866
0.298369 0.682903 0.073535
0.327399 0.683573 0.074205
0.356429 0.684243 0.074875
0.384763 0.684897 0.075529
0.412054 0.685526 0.076159
0.439345 0.686156 0.076789
0.466636 0.686786 0.077419
0.493927 0.687416 0.078048
0.521218 0.688046 0.078678
0.548509 0.688675 0.079308
0.575800 0.689305 0.079938
0.603091 0.689935 0.080568
0.630382 0.690565 0.081197
0.657673 0.691195 0.081827
0.684322 0.691810 0.082442
0.708402 0.692365 0.082998
0.732482 0.692921 0.083554
0.756562 0.693477 0.084109
0.780643 0.694032 0.084665
0.804723 0.694588 0.085221
0.828803 0.695144 0.085776
0.852883 0.695700 0.086332
0.876964 0.696255 0.086888
0.901044 0.696811 0.087443
0.925124 0.697367 0.087999
0.949204 0.697922 0.088555
0.096741 0.704558 0.070778
0.125771 0.705228 0.071448
0.154801 0.705898 0.072118
0.183831 0.706567 0.072787
0.212861 0.707237 0.073457
0.241891 0.707907 0.074127
0.270921 0.708577 0.074797
0.299951 0.709247 0.075467
0.328981 0.709917 0.076137
0.358011 0.710587 0.076807
0.386346 0.711241 0.077461
0.413637 0.711871 0.078091
0.440928 0.712501 0.078721
0.468219 0.713130 0.079350
0.495510 0.713760 0.079980
0.522801 0.714390 0.080610
0.550092 0.715020 0.081240
0.577382 0.715650 0.081870
0.604673 0.716279 0.082499
0.631964 0.716909 0.083129
0.659255 0.717539 0.083759
0.685904 0.718154 0.084374
0.709984 0.718710 0.084930
0.734065 0.719265 0.085485
0.758145 0.719821 0.086041
0.782225 0.720377 0.086597
0.806305 0.720932 0.087152
0.830386 0.721488 0.087708
0.854466 0.722044 0.088264
0.878546 0.722599 0.088819
0.902626 0.723155 0.089375
0.926707 0.723711 0.089931
0.950787 0.724267 0.090487
0.098323 0.730902 0.072709
0.127353 0.731572 0.073379
0.156383 0.732242 0.074049
0.185413 0.732912 0.074719
0.214444 0.733582 0.075389
0.243474 0.734252 0.076059
0.272504 0.734921 0.076729
0.301534 0.735591 0.077399
0.330564 0.736261 0.078069
0.359594 0.736931 0.078739
0.387928 0.737585 0.079393
0.415219 0.738215 0.080022
0.442510 0.738845 0.080652
0.469801 0.739475 0.081282
0.497092 0.740104 0.081912
0.524383 0.740734 0.082542
0.551674 0.741364 0.083171
0.578965 0.741994 0.083801
0.606256 0.742624 0.084431
0.633547 0.743253 0.085061
0.660838 0.743883 0.085691
0.687487 0.744498 0.086306
0.711567 0.745054 0.086861
0.735647 0.745610 0.087417
0.759727 0.746165 0.087973
0.783808 0.746721 0.088528
0.807888 0.747277 0.089084
0.831968 0.747832 0.089640
0.856048 0.748388 0.090196
0.880129 0.748944 0.090751
0.904209 0.749499 0.091307
0.928289 0.750055 0.091863
0.952369 0.750611 0.092418
0.099906 0.757246 0.074641
0.128936 0.757916 0.075311
0.157966 0.758586 0.075981
0.186996 0.759256 0.076651
0.216026 0.759926 0.077321
0.245056 0.760596 0.077991
0.274086 0.761266 0.078661
0.303116 0.761936 0.079331
0.332146 0.762606 0.080001
0.361176 0.763276 0.080671
0.389511 0.763929 0.081324
0.416802 0.764559 0.081954
0.444093 0.765189 0.082584
0.471384 0.765819 0.083214
0.498675 0.766449 0.083844
0.525966 0.767078 0.084473
0.553257 0.767708 0.085103
0.580548 0.768338 0.085733
0.607838 0.768968 0.086363
0.635129 0.769598 0.086993
0.662420 0.770227 0.087622
0.689069 0.770842 0.088237
0.713149 0.771398 0.088793
0.737230 0.771954 0.089349
0.761310 0.772509 0.089904
0.785390 0.773065 0.090460
0.809470 0.773621 0.091016
0.833551 0.774177 0.091572
0.857631 0.774732 0.092127
