luts/rangefinder_classic.cube
TITLE "Camera Leica M"
LUT_3D_SIZE 5
0.073441 0.030473 0.012833
0.303698 0.035787 0.018147
0.522920 0.040846 0.023206
0.729196 0.045606 0.027966
0.914237 0.049877 0.032237
0.081016 0.260346 0.029556
0.311274 0.265659 0.034869
0.530495 0.270718 0.039928
0.736779 0.275486 0.045613
0.927795 0.279913 0.052451
0.088456 0.485701 0.047567
0.318736 0.491038 0.055811
0.537980 0.496120 0.063659
0.744995 0.500909 0.069989
0.937636 0.505355 0.074435
0.096741 0.704558 0.070778
0.328981 0.709917 0.076137
0.550092 0.715020 0.081240
0.758145 0.719821 0.086041
0.950787 0.724267 0.090487
0.109401 0.915312 0.086232
0.341642 0.920671 0.091591
0.562752 0.925774 0.096694
0.770805 0.930575 0.101495
0.963447 0.935020 0.105940
0.074054 0.031978 0.204522
0.304334 0.037315 0.212766
0.523578 0.042396 0.220614
0.729876 0.047177 0.227999
0.915848 0.051488 0.234721
0.081703 0.261924 0.230465
0.311983 0.267261 0.238708
0.531227 0.272342 0.246556
0.737525 0.277123 0.253941
0.928541 0.281550 0.260779
0.089201 0.487338 0.255896
0.319482 0.492675 0.264139
0.538726 0.497757 0.271988
0.746341 0.502553 0.277433
0.938983 0.506998 0.281878
0.098087 0.706202 0.278222
0.330328 0.711561 0.283581
0.551438 0.716664 0.288684
0.759492 0.721465 0.293485
0.952134 0.725911 0.297931
0.110748 0.916955 0.293675
0.342988 0.922315 0.299035
0.564099 0.927418 0.304138
0.772152 0.932219 0.308939
0.964794 0.936664 0.313384
0.074787 0.033588 0.409450
0.305068 0.038925 0.417693
0.524312 0.044007 0.425541
0.730609 0.048788 0.432926
0.917479 0.053119 0.439669
0.082436 0.263534 0.435392
0.312717 0.268871 0.443635
0.531961 0.273952 0.451484
0.738258 0.278733 0.458869
0.929274 0.283160 0.465707
0.089934 0.488949 0.460823
0.320215 0.494286 0.469067
0.539613 0.499369 0.476689
0.747666 0.504170 0.481490
0.940308 0.508616 0.485936
0.099412 0.707819 0.482279
0.331653 0.713178 0.487638
0.552763 0.718281 0.492741
0.760816 0.723082 0.497542
0.953458 0.727528 0.501988
0.112073 0.918573 0.497733
0.344313 0.923932 0.503092
0.565423 0.929035 0.508195
0.773477 0.933836 0.512996
0.966119 0.938282 0.517442
0.075499 0.035152 0.608425
0.305780 0.040489 0.616668
0.525024 0.045570 0.624517
0.731321 0.050351 0.631901
0.919063 0.054703 0.638664
0.083148 0.265098 0.634367
0.313429 0.270435 0.642610
0.532673 0.275516 0.650459
0.738970 0.280297 0.657844
0.929986 0.284724 0.664682
0.090646 0.490512 0.659798
0.320927 0.495849 0.668042
0.540899 0.500939 0.674819
0.748952 0.505740 0.679620
0.941594 0.510186 0.684066
0.100699 0.709389 0.680409
0.332939 0.714748 0.685768
0.554049 0.719851 0.690871
0.762103 0.724652 0.695672
0.954745 0.729098 0.700118
0.113359 0.920143 0.695863
0.345599 0.925502 0.701222
0.566710 0.930605 0.706325
0.774763 0.935406 0.711126
0.967405 0.939852 0.715572
0.076184 0.036655 0.799747
0.306465 0.041992 0.807990
0.525709 0.047074 0.815839
0.732006 0.051855 0.823224
0.920586 0.056226 0.830005
0.083833 0.266601 0.825689
0.314113 0.271938 0.833933
0.533358 0.277019 0.841781
0.739655 0.281800 0.849166
0.930671 0.286227 0.856004
0.091331 0.492016 0.851120
0.321612 0.497353 0.859364
0.542136 0.502449 0.865329
0.750189 0.507250 0.870130
0.942831 0.511695 0.874575
0.101935 0.710899 0.870919
0.334176 0.716258 0.876278
0.555286 0.721361 0.881381
0.763340 0.726162 0.886182
0.955982 0.730608 0.890628
0.114596 0.921653 0.886373
0.346836 0.927012 0.891732
0.567947 0.932115 0.896835
0.776000 0.936916 0.901636
0.968642 0.941361 0.906081
