luts/saturated_landscape_50.cube
TITLE "Fuji Velvia 50"
LUT_3D_SIZE 9
0.000000 0.000000 0.000000
0.162976 0.000000 0.000000
0.402031 0.000000 0.000000
0.658471 0.000000 0.000000
0.926503 0.000000 0.000000
1.000000 0.000000 0.000000
1.000000 0.000000 0.000000
1.000000 0.000000 0.000000
1.000000 0.000000 0.000000
0.000000 0.099960 0.000000
0.093922 0.078109 0.000000
0.332976 0.056258 0.000000
0.589417 0.032817 0.000000
0.857449 0.008317 0.000000
1.000000 0.000000 0.000000
1.000000 0.000000 0.000000
1.000000 0.000000 0.000000
1.000000 0.000000 0.000000
0.000000 0.276000 0.000000
0.024867 0.254149 0.000000
0.263922 0.232297 0.000000
0.520363 0.208857 0.000000
0.788395 0.184357 0.000000
1.000000 0.161777 0.000000
1.000000 0.146879 0.000000
1.000000 0.131980 0.000000
1.000000 0.117082 0.000000
0.000000 0.472483 0.000000
0.000000 0.450632 0.000000
0.186849 0.428780 0.000000
0.443290 0.405340 0.000000
0.711321 0.380840 0.000000
0.958345 0.358260 0.000000
1.000000 0.343362 0.000000
1.000000 0.328463 0.000000
1.000000 0.313565 0.000000
0.000000 0.682595 0.000000
0.000000 0.660744 0.000000
0.104430 0.638892 0.000000
0.360871 0.615452 0.000000
0.628902 0.590952 0.000000
0.875925 0.568372 0.000000
1.000000 0.553474 0.000000
1.000000 0.538575 0.000000
1.000000 0.523676 0.000000
0.000000 0.876239 0.000000
0.000000 0.854387 0.000000
0.028470 0.832536 0.000000
0.284911 0.809096 0.000000
0.552942 0.784596 0.000000
0.799966 0.762016 0.000000
0.962958 0.747117 0.000000
1.000000 0.732219 0.000000
1.000000 0.717320 0.000000
0.000000 1.000000 0.000000
0.000000 0.982158 0.000000
0.000000 0.960307 0.000000
0.234791 0.936866 0.000000
0.502823 0.912366 0.000000
0.749846 0.889787 0.000000
0.912838 0.874888 0.000000
1.000000 0.859989 0.000000
1.000000 0.845091 0.000000
0.000000 1.000000 0.000000
0.000000 1.000000 0.000000
0.000000 1.000000 0.000000
0.184671 1.000000 0.000000
0.452703 1.000000 0.000000
0.699726 1.000000 0.000000
0.862718 1.000000 0.000000
1.000000 0.987760 0.000000
1.000000 0.972862 0.000000
0.000000 1.000000 0.000000
0.000000 1.000000 0.000000
0.000000 1.000000 0.000000
0.134552 1.000000 0.000000
0.402583 1.000000 0.000000
0.649606 1.000000 0.000000
0.812598 1.000000 0.000000
0.975590 1.000000 0.000000
1.000000 1.000000 0.000000
0.000000 0.000000 0.223037
0.155330 0.000000 0.201186
0.394385 0.000000 0.179335
0.650826 0.000000 0.155894
0.918857 0.000000 0.131394
1.000000 0.000000 0.108815
1.000000 0.000000 0.093916
1.000000 0.000000 0.079018
1.000000 0.000000 0.064119
0.000000 0.092315 0.153983
0.086276 0.070463 0.132132
0.325331 0.048612 0.110281
0.581772 0.025172 0.086840
0.849803 0.000672 0.062340
1.000000 0.000000 0.039761
1.000000 0.000000 0.024862
1.000000 0.000000 0.009963
1.000000 0.000000 0.000000
0.000000 0.268354 0.084929
0.017222 0.246503 0.063078
0.256277 0.224652 0.041227
0.512718 0.201211 0.017786
0.780749 0.176711 0.000000
1.000000 0.154132 0.000000
1.000000 0.139233 0.000000
1.000000 0.124334 0.000000
1.000000 0.109436 0.000000
0.000000 0.464837 0.007856
0.000000 0.442986 0.000000
0.179204 0.421135 0.000000
0.435644 0.397694 0.000000
0.703676 0.373194 0.000000
0.950699 0.350615 0.000000
1.000000 0.335716 0.000000
1.000000 0.320817 0.000000
1.000000 0.305919 0.000000
0.000000 0.674949 0.000000
0.000000 0.653098 0.000000
0.096784 0.631247 0.000000
0.353225 0.607806 0.000000
0.621256 0.583306 0.000000
0.868280 0.560727 0.000000
1.000000 0.545828 0.000000
1.000000 0.530929 0.000000
1.000000 0.516031 0.000000
0.000000 0.868593 0.000000
0.000000 0.846742 0.000000
0.020825 0.824890 0.000000
0.277265 0.801450 0.000000
0.545297 0.776950 0.000000
0.792320 0.754370 0.000000
0.955312 0.739472 0.000000
1.000000 0.724573 0.000000
1.000000 0.709674 0.000000
0.000000 0.996364 0.000000
0.000000 0.974512 0.000000
0.000000 0.952661 0.000000
0.227146 0.929221 0.000000
0.495177 0.904721 0.000000
0.742200 0.882141 0.000000
0.905192 0.867242 0.000000
1.000000 0.852344 0.000000
1.000000 0.837445 0.000000
0.000000 1.000000 0.000000
0.000000 1.000000 0.000000
0.000000 1.000000 0.000000
0.177026 1.000000 0.000000
0.445057 1.000000 0.000000
0.692080 1.000000 0.000000
0.855073 0.995013 0.000000
1.000000 0.980115 0.000000
1.000000 0.965216 0.000000
0.000000 1.000000 0.000000
0.000000 1.000000 0.000000
0.000000 1.000000 0.000000
0.126906 1.000000 0.000000
0.394937 1.000000 0.000000
0.641961 1.000000 0.000000
0.804953 1.000000 0.000000
0.967945 1.000000 0.000000
1.000000 1.000000 0.000000
0.000000 0.000000 0.484204
0.147684 0.000000 0.462353
0.386739 0.000000 0.440502
0.643180 0.000000 0.417061
0.911211 0.000000 0.392561
1.000000 0.000000 0.369982
1.000000 0.000000 0.355083
1.000000 0.000000 0.340184
1.000000 0.000000 0.325286
0.000000 0.084669 0.415150
0.078630 0.062818 0.393299
0.317685 0.040966 0.371448
0.574126 0.017526 0.348007
0.842157 0.000000 0.323507
1.000000 0.000000 0.300928
1.000000 0.000000 0.286029
1.000000 0.000000 0.271130
1.000000 0.000000 0.256232
0.000000 0.260709 0.346096
0.009576 0.238857 0.324245
0.248631 0.217006 0.302394
0.505072 0.193566 0.278953
0.773103 0.169066 0.254453
1.000000 0.146486 0.231873
1.000000 0.131587 0.216975
1.000000 0.116689 0.202076
1.000000 0.101790 0.187178
0.000000 0.457192 0.269023
0.000000 0.435340 0.247172
0.171558 0.413489 0.225320
0.427999 0.390049 0.201880
0.696030 0.365549 0.177380
0.943053 0.342969 0.154800
1.000000 0.328070 0.139902
1.000000 0.313172 0.125003
1.000000 0.298273 0.110104
0.000000 0.667304 0.186604
0.000000 0.645452 0.164752
0.089138 0.623601 0.142901
0.345579 0.600161 0.119461
0.613611 0.575661 0.094961
0.860634 0.553081 0.072381
1.000000 0.538182 0.057482
1.000000 0.523284 0.042584
1.000000 0.508385 0.027685
0.000000 0.860947 0.110644
0.000000 0.839096 0.088793
0.013179 0.817245 0.066942
0.269620 0.793804 0.043501
0.537651 0.769304 0.019001
0.784675 0.746725 0.000000
0.947667 0.731826 0.000000
1.000000 0.716927 0.000000
1.000000 0.702029 0.000000
0.000000 0.988718 0.060524
0.000000 0.966867 0.038673
0.000000 0.945015 0.016822
0.219500 0.921575 0.000000
0.487531 0.897075 0.000000
0.734555 0.874495 0.000000
0.897547 0.859597 0.000000
1.000000 0.844698 0.000000
1.000000 0.829799 0.000000
0.000000 1.000000 0.010404
0.000000 1.000000 0.000000
0.000000 1.000000 0.000000
0.169380 1.000000 0.000000
0.437411 1.000000 0.000000
0.684435 1.000000 0.000000
0.847427 0.987367 0.000000
1.000000 0.972469 0.000000
1.000000 0.957570 0.000000
0.000000 1.000000 0.000000
0.000000 1.000000 0.000000
0.000000 1.000000 0.000000
0.119260 1.000000 0.000000
0.387291 1.000000 0.000000
0.634315 1.000000 0.000000
0.797307 1.000000 0.000000
0.960299 1.000000 0.000000
1.000000 1.000000 0.000000
0.000000 0.000000 0.740762
0.140173 0.000000 0.718911
0.379228 0.000000 0.697060
0.635669 0.000000 0.673619
0.903700 0.000000 0.649119
1.000000 0.000000 0.626540
1.000000 0.000000 0.611641
1.000000 0.000000 0.596742
1.000000 0.000000 0.581844
0.000000 0.077158 0.671708
0.071119 0.055307 0.649857
0.310174 0.033456 0.628006
0.566615 0.010015 0.604565
0.834646 0.000000 0.580065
1.000000 0.000000 0.557486
1.000000 0.000000 0.542587
1.000000 0.000000 0.527688
1.000000 0.000000 0.512790
0.000000 0.253198 0.602654
0.002065 0.231347 0.580803
0.241120 0.209495 0.558952
0.497561 0.186055 0.535511
0.765592 0.161555 0.511011
1.000000 0.138975 0.488431
1.000000 0.124077 0.473533
1.000000 0.109178 0.458634
1.000000 0.094279 0.443736
0.000000 0.449681 0.525581
0.000000 0.427830 0.503730
0.164047 0.405978 0.481878
0.420488 0.382538 0.458438
0.688519 0.358038 0.433938
0.935543 0.335458 0.411358
1.000000 0.320560 0.396460
1.000000 0.305661 0.381561
1.000000 0.290762 0.366662
0.000000 0.659793 0.443162
0.000000 0.637942 0.421310
0.081628 0.616090 0.399459
0.338068 0.592650 0.376018
0.606100 0.568150 0.351519
0.853123 0.545570 0.328939
1.000000 0.530672 0.314040
1.000000 0.515773 0.299142
1.000000 0.500874 0.284243
0.000000 0.853436 0.367202
0.000000 0.831585 0.345351
0.005668 0.809734 0.323500
0.262109 0.786293 0.300059
0.530140 0.761793 0.275559
0.777164 0.739214 0.252979
0.940156 0.724315 0.238081
1.000000 0.709417 0.223182
1.000000 0.694518 0.208284
0.000000 0.981207 0.317082
0.000000 0.959356 0.295231
0.000000 0.937505 0.273380
0.211989 0.914064 0.249939
0.480020 0.889564 0.225439
0.727044 0.866985 0.202860
0.890036 0.852086 0.187961
1.000000 0.837187 0.173062
1.000000 0.822289 0.158164
0.000000 1.000000 0.266962
0.000000 1.000000 0.245111
0.000000 1.000000 0.223260
0.161869 1.000000 0.199819
0.429901 1.000000 0.175319
0.676924 0.994755 0.152740
0.839916 0.979857 0.137841
1.000000 0.964958 0.122942
1.000000 0.950059 0.108044
0.000000 1.000000 0.216842
0.000000 1.000000 0.194991
0.000000 1.000000 0.173140
0.111749 1.000000 0.149699
0.379781 1.000000 0.125199
0.626804 1.000000 0.102620
0.789796 1.000000 0.087721
0.952788 1.000000 0.072823
1.000000 1.000000 0.057924
0.000000 0.000000 0.994248
0.132753 0.000000 0.972396
0.371808 0.000000 0.950545
0.628248 0.000000 0.927105
0.896280 0.000000 0.902605
1.000000 0.000000 0.880025
1.000000 0.000000 0.865126
1.000000 0.000000 0.850228
1.000000 0.000000 0.835329
0.000000 0.069737 0.925194
0.063699 0.047886 0.903342
0.302754 0.026035 0.881491
0.559194 0.002594 0.858051
0.827226 0.000000 0.833551
1.000000 0.000000 0.810971
1.000000 0.000000 0.796072
1.000000 0.000000 0.781174
1.000000 0.000000 0.766275
0.000000 0.245777 0.856140
0.000000 0.223926 0.834288
0.233700 0.202075 0.812437
0.490140 0.178634 0.788997
0.758172 0.154134 0.764497
1.000000 0.131554 0.741917
1.000000 0.116656 0.727018
1.000000 0.101757 0.712120
1.000000 0.086859 0.697221
0.000000 0.442260 0.779066
0.000000 0.420409 0.757215
0.156626 0.398558 0.735364
0.413067 0.375117 0.711923
0.681098 0.350617 0.687423
0.928122 0.328037 0.664844
1.000000 0.313139 0.649945
1.000000 0.298240 0.635046
1.000000 0.283342 0.620148
0.000000 0.652372 0.696647
0.000000 0.630521 0.674796
0.074207 0.608669 0.652944
0.330648 0.585229 0.629504
0.598679 0.560729 0.605004
0.845702 0.538149 0.582424
1.000000 0.523251 0.567526
1.000000 0.508352 0.552627
1.000000 0.493454 0.537729
0.000000 0.846016 0.620688
0.000000 0.824164 0.598836
0.000000 0.802313 0.576985
0.254688 0.778873 0.553544
0.522720 0.754373 0.529045
0.769743 0.731793 0.506465
0.932735 0.716894 0.491566
1.000000 0.701996 0.476668
1.000000 0.687097 0.461769
0.000000 0.973786 0.570568
0.000000 0.951935 0.548716
0.000000 0.930084 0.526865
0.204568 0.906643 0.503425
0.472600 0.882143 0.478925
0.719623 0.859564 0.456345
0.882615 0.844665 0.441446
1.000000 0.829767 0.426548
1.000000 0.814868 0.411649
0.000000 1.000000 0.520448
0.000000 1.000000 0.498597
0.000000 1.000000 0.476745
0.154448 1.000000 0.453305
0.422480 1.000000 0.428805
0.669503 0.987335 0.406225
0.832495 0.972436 0.391327
0.995487 0.957537 0.376428
1.000000 0.942639 0.361529
0.000000 1.000000 0.470328
0.000000 1.000000 0.448477
0.000000 1.000000 0.426625
0.104329 1.000000 0.403185
0.372360 1.000000 0.378685
0.619383 1.000000 0.356105
0.782375 1.000000 0.341207
0.945367 1.000000 0.326308
1.000000 1.000000 0.311409
0.000000 0.000000 1.000000
0.125770 0.000000 1.000000
0.364825 0.000000 1.000000
0.621266 0.000000 1.000000
0.889297 0.000000 1.000000
1.000000 0.000000 1.000000
1.000000 0.000000 1.000000
1.000000 0.000000 1.000000
1.000000 0.000000 1.000000
0.000000 0.062755 1.000000
0.056716 0.040904 1.000000
0.295771 0.019052 1.000000
0.552212 0.000000 1.000000
0.820243 0.000000 1.000000
1.000000 0.000000 1.000000
1.000000 0.000000 1.000000
1.000000 0.000000 1.000000
1.000000 0.000000 1.000000
0.000000 0.238795 1.000000
0.000000 0.216943 1.000000
0.226717 0.195092 1.000000
0.483158 0.171652 1.000000
0.751189 0.147152 1.000000
0.998213 0.124572 0.980424
1.000000 0.109674 0.965525
1.000000 0.094775 0.950626
1.000000 0.079876 0.935728
0.000000 0.435278 1.000000
0.000000 0.413427 0.995722
0.149644 0.391575 0.973871
0.406085 0.368135 0.950430
0.674116 0.343635 0.925930
0.921140 0.321055 0.903350
1.000000 0.306157 0.888452
1.000000 0.291258 0.873553
1.000000 0.276359 0.858655
0.000000 0.645390 0.935154
0.000000 0.623538 0.913302
0.067225 0.601687 0.891451
0.323665 0.578247 0.868011
0.591697 0.553747 0.843511
0.838720 0.531167 0.820931
1.000000 0.516268 0.806032
1.000000 0.501370 0.791134
1.000000 0.486471 0.776235
0.000000 0.839033 0.859194
0.000000 0.817182 0.837343
0.000000 0.795331 0.815492
0.247706 0.771890 0.792051
0.515737 0.747390 0.767551
0.762761 0.724811 0.744972
0.925753 0.709912 0.730073
1.000000 0.695013 0.715174
1.000000 0.680115 0.700276
0.000000 0.966804 0.809074
0.000000 0.944953 0.787223
0.000000 0.923102 0.765372
0.197586 0.899661 0.741931
0.465617 0.875161 0.717431
0.712641 0.852581 0.694852
0.875633 0.837683 0.679953
1.000000 0.822784 0.665055
1.000000 0.807886 0.650156
0.000000 1.000000 0.758955
0.000000 1.000000 0.737103
0.000000 1.000000 0.715252
0.147466 1.000000 0.691811
0.415497 1.000000 0.667312
0.662521 0.980352 0.644732
0.825513 0.965454 0.629833
0.988505 0.950555 0.614935
1.000000 0.935656 0.600036
0.000000 1.000000 0.708835
0.000000 1.000000 0.686983
0.000000 1.000000 0.665132
0.097346 1.000000 0.641692
0.365378 1.000000 0.617192
0.612401 1.000000 0.594612
0.775393 1.000000 0.579713
0.938385 1.000000 0.564815
1.000000 1.000000 0.549916
0.000000 0.000000 1.000000
0.120542 0.000000 1.000000
0.359597 0.000000 1.000000
0.616038 0.000000 1.000000
0.884069 0.000000 1.000000
1.000000 0.000000 1.000000
1.000000 0.000000 1.000000
1.000000 0.000000 1.000000
1.000000 0.000000 1.000000
0.000000 0.057527 1.000000
0.051488 0.035675 1.000000
0.290543 0.013824 1.000000
0.546984 0.000000 1.000000
0.815015 0.000000 1.000000
1.000000 0.000000 1.000000
1.000000 0.000000 1.000000
1.000000 0.000000 1.000000
1.000000 0.000000 1.000000
0.000000 0.233566 1.000000
0.000000 0.211715 1.000000
0.221489 0.189864 1.000000
0.477930 0.166423 1.000000
0.745961 0.141923 1.000000
0.992984 0.119344 1.000000
1.000000 0.104445 1.000000
1.000000 0.089547 1.000000
1.000000 0.074648 1.000000
0.000000 0.430050 1.000000
0.000000 0.408198 1.000000
0.144416 0.386347 1.000000
0.400856 0.362906 1.000000
0.668888 0.338407 1.000000
0.915911 0.315827 1.000000
1.000000 0.300928 1.000000
1.000000 0.286030 1.000000
1.000000 0.271131 1.000000
0.000000 0.640161 1.000000
0.000000 0.618310 1.000000
0.061996 0.596459 1.000000
0.318437 0.573018 1.000000
0.586468 0.548518 1.000000
0.833492 0.525939 0.999523
0.996484 0.511040 0.984625
1.000000 0.496142 0.969726
1.000000 0.481243 0.954827
0.000000 0.833805 1.000000
0.000000 0.811954 1.000000
0.000000 0.790102 0.994084
0.242478 0.766662 0.970643
0.510509 0.742162 0.946143
0.757532 0.719582 0.923564
0.920524 0.704684 0.908665
1.000000 0.689785 0.893766
1.000000 0.674887 0.878868
0.000000 0.961576 0.987666
0.000000 0.939725 0.965815
0.000000 0.917873 0.943964
0.192358 0.894433 0.920523
0.460389 0.869933 0.896023
0.707413 0.847353 0.873444
0.870405 0.832455 0.858545
1.000000 0.817556 0.843647
1.000000 0.802657 0.828748
0.000000 1.000000 0.937547
0.000000 1.000000 0.915695
0.000000 1.000000 0.893844
0.142238 1.000000 0.870404
0.410269 0.997704 0.845904
0.657293 0.975124 0.823324
0.820285 0.960225 0.808425
0.983277 0.945327 0.793527
1.000000 0.930428 0.778628
0.000000 1.000000 0.887427
0.000000 1.000000 0.865575
0.000000 1.000000 0.843724
0.092118 1.000000 0.820284
0.360149 1.000000 0.795784
0.607173 1.000000 0.773204
0.770165 1.000000 0.758305
0.933157 1.000000 0.743407
1.000000 1.000000 0.728508
0.000000 0.000000 1.000000
0.115314 0.000000 1.000000
0.354369 0.000000 1.000000
0.610809 0.000000 1.000000
0.878841 0.000000 1.000000
1.000000 0.000000 1.000000
1.000000 0.000000 1.000000
1.000000 0.000000 1.000000
1.000000 0.000000 1.000000
0.000000 0.052298 1.000000
0.046260 0.030447 1.000000
0.285315 0.008596 1.000000
0.541755 0.000000 1.000000
0.809787 0.000000 1.000000
1.000000 0.000000 1.000000
1.000000 0.000000 1.000000
1.000000 0.000000 1.000000
1.000000 0.000000 1.000000
0.000000 0.228338 1.000000
0.000000 0.206487 1.000000
0.216261 0.184636 1.000000
0.472701 0.161195 1.000000
0.740733 0.136695 1.000000
0.987756 0.114116 1.000000
1.000000 0.099217 1.000000
1.000000 0.084318 1.000000
1.000000 0.069420 1.000000
0.000000 0.424821 1.000000
0.000000 0.402970 1.000000
0.139187 0.381119 1.000000
0.395628 0.357678 1.000000
0.663659 0.333178 1.000000
0.910683 0.310599 1.000000
1.000000 0.295700 1.000000
1.000000 0.280801 1.000000
1.000000 0.265903 1.000000
0.000000 0.634933 1.000000
0.000000 0.613082 1.000000
0.056768 0.591231 1.000000
0.313209 0.567790 1.000000
0.581240 0.543290 1.000000
0.828264 0.520710 1.000000
0.991256 0.505812 1.000000
1.000000 0.490913 1.000000
1.000000 0.476015 1.000000
0.000000 0.828577 1.000000
0.000000 0.806725 1.000000
0.000000 0.784874 1.000000
0.237249 0.761434 1.000000
0.505281 0.736934 1.000000
0.752304 0.714354 1.000000
0.915296 0.699456 1.000000
1.000000 0.684557 1.000000
1.000000 0.669658 1.000000
0.000000 0.956348 1.000000
0.000000 0.934496 1.000000
0.000000 0.912645 1.000000
0.187129 0.889204 1.000000
0.455161 0.864705 1.000000
0.702184 0.842125 1.000000
0.865176 0.827226 1.000000
1.000000 0.812328 1.000000
1.000000 0.797429 1.000000
0.000000 1.000000 1.000000
0.000000 1.000000 1.000000
0.000000 1.000000 1.000000
0.137010 1.000000 1.000000
0.405041 0.992475 1.000000
0.652064 0.969896 1.000000
0.815056 0.954997 0.987017
0.978048 0.940098 0.972119
1.000000 0.925200 0.957220
0.000000 1.000000 1.000000
0.000000 1.000000 1.000000
0.000000 1.000000 1.000000
0.086890 1.000000 0.998876
0.354921 1.000000 0.974376
0.601944 1.000000 0.951796
0.764937 1.000000 0.936897
0.927929 1.000000 0.921999
1.000000 1.000000 0.907100
0.000000 0.000000 1.000000
0.110085 0.000000 1.000000
0.349140 0.000000 1.000000
0.605581 0.000000 1.000000
0.873612 0.000000 1.000000
1.000000 0.000000 1.000000
1.000000 0.000000 1.000000
1.000000 0.000000 1.000000
1.000000 0.000000 1.000000
0.000000 0.047070 1.000000
0.041031 0.025219 1.000000
0.280086 0.003368 1.000000
0.536527 0.000000 1.000000
0.804558 0.000000 1.000000
1.000000 0.000000 1.000000
1.000000 0.000000 1.000000
1.000000 0.000000 1.000000
1.000000 0.000000 1.000000
0.000000 0.223110 1.000000
0.000000 0.201259 1.000000
0.211032 0.179407 1.000000
0.467473 0.155967 1.000000
0.735504 0.131467 1.000000
0.982528 0.108887 1.000000
1.000000 0.093989 1.000000
1.000000 0.079090 1.000000
1.000000 0.064191 1.000000
0.000000 0.419593 1.000000
0.000000 0.397742 1.000000
0.133959 0.375890 1.000000
0.390400 0.352450 1.000000
0.658431 0.327950 1.000000
0.905455 0.305370 1.000000
1.000000 0.290472 1.000000
1.000000 0.275573 1.000000
1.000000 0.260674 1.000000
0.000000 0.629705 1.000000
0.000000 0.607854 1.000000
0.051540 0.586002 1.000000
0.307981 0.562562 1.000000
0.576012 0.538062 1.000000
0.823035 0.515482 1.000000
0.986027 0.500584 1.000000
1.000000 0.485685 1.000000
1.000000 0.470786 1.000000
0.000000 0.823348 1.000000
0.000000 0.801497 1.000000
0.000000 0.779646 1.000000
0.232021 0.756205 1.000000
0.500052 0.731705 1.000000
0.747076 0.709126 1.000000
0.910068 0.694227 1.000000
1.000000 0.679329 1.000000
1.000000 0.664430 1.000000
0.000000 0.951119 1.000000
0.000000 0.929268 1.000000
0.000000 0.907417 1.000000
0.181901 0.883976 1.000000
0.449932 0.859476 1.000000
0.696956 0.836897 1.000000
0.859948 0.821998 1.000000
1.000000 0.807099 1.000000
1.000000 0.792201 1.000000
0.000000 1.000000 1.000000
0.000000 1.000000 1.000000
0.000000 1.000000 1.000000
0.131781 1.000000 1.000000
0.399813 0.987247 1.000000
0.646836 0.964667 1.000000
0.809828 0.949769 1.000000
0.972820 0.934870 1.000000
1.000000 0.919971 1.000000
0.000000 1.000000 1.000000
0.000000 1.000000 1.000000
0.000000 1.000000 1.000000
0.081661 1.000000 1.000000
0.349693 1.000000 1.000000
0.596716 1.000000 1.000000
0.759708 1.000000 1.000000
0.922700 1.000000 1.000000
1.000000 1.000000 1.000000
