luts/saturated_landscape_50.cube
TITLE "Fuji Velvia 50"
LUT_3D_SIZE 33
0.000000 0.000000 0.000000
0.000000 0.000000 0.000000
0.043448 0.000000 0.000000
0.103212 0.000000 0.000000
0.162976 0.000000 0.000000
0.222739 0.000000 0.000000
0.282503 0.000000 0.000000
0.342267 0.000000 0.000000
0.402031 0.000000 0.000000
0.461794 0.000000 0.000000
0.524456 0.000000 0.000000
0.591463 0.000000 0.000000
0.658471 0.000000 0.000000
0.725479 0.000000 0.000000
0.792487 0.000000 0.000000
0.859495 0.000000 0.000000
0.926503 0.000000 0.000000
0.993510 0.000000 0.000000
1.000000 0.000000 0.000000
1.000000 0.000000 0.000000
1.000000 0.000000 0.000000
1.000000 0.000000 0.000000
1.000000 0.000000 0.000000
1.000000 0.000000 0.000000
1.000000 0.000000 0.000000
1.000000 0.000000 0.000000
1.000000 0.000000 0.000000
1.000000 0.000000 0.000000
1.000000 0.000000 0.000000
1.000000 0.000000 0.000000
1.000000 0.000000 0.000000
1.000000 0.000000 0.000000
1.000000 0.000000 0.000000
0.000000 0.000000 0.000000
0.000000 0.000000 0.000000
0.026185 0.000000 0.000000
0.085948 0.000000 0.000000
0.145712 0.000000 0.000000
0.205476 0.000000 0.000000
0.265240 0.000000 0.000000
0.325003 0.000000 0.000000
0.384767 0.000000 0.000000
0.444531 0.000000 0.000000
0.507192 0.000000 0.000000
0.574200 0.000000 0.000000
0.641208 0.000000 0.000000
0.708216 0.000000 0.000000
0.775223 0.000000 0.000000
0.842231 0.000000 0.000000
0.909239 0.000000 0.000000
0.976247 0.000000 0.000000
1.000000 0.000000 0.000000
1.000000 0.000000 0.000000
1.000000 0.000000 0.000000
1.000000 0.000000 0.000000
1.000000 0.000000 0.000000
1.000000 0.000000 0.000000
1.000000 0.000000 0.000000
1.000000 0.000000 0.000000
1.000000 0.000000 0.000000
1.000000 0.000000 0.000000
1.000000 0.000000 0.000000
1.000000 0.000000 0.000000
1.000000 0.000000 0.000000
1.000000 0.000000 0.000000
1.000000 0.000000 0.000000
0.000000 0.011940 0.000000
0.000000 0.006478 0.000000
0.008921 0.001015 0.000000
0.068685 0.000000 0.000000
0.128449 0.000000 0.000000
0.188212 0.000000 0.000000
0.247976 0.000000 0.000000
0.307740 0.000000 0.000000
0.367503 0.000000 0.000000
0.427267 0.000000 0.000000
0.489929 0.000000 0.000000
0.556936 0.000000 0.000000
0.623944 0.000000 0.000000
0.690952 0.000000 0.000000
0.757960 0.000000 0.000000
0.824968 0.000000 0.000000
0.891976 0.000000 0.000000
0.958983 0.000000 0.000000
1.000000 0.000000 0.000000
1.000000 0.000000 0.000000
1.000000 0.000000 0.000000
1.000000 0.000000 0.000000
1.000000 0.000000 0.000000
1.000000 0.000000 0.000000
1.000000 0.000000 0.000000
1.000000 0.000000 0.000000
1.000000 0.000000 0.000000
1.000000 0.000000 0.000000
1.000000 0.000000 0.000000
1.000000 0.000000 0.000000
1.000000 0.000000 0.000000
1.000000 0.000000 0.000000
1.000000 0.000000 0.000000
0.000000 0.055950 0.000000
0.000000 0.050488 0.000000
0.000000 0.045025 0.000000
0.051421 0.039562 0.000000
0.111185 0.034099 0.000000
0.170949 0.028636 0.000000
0.230713 0.023173 0.000000
0.290476 0.017711 0.000000
0.350240 0.012248 0.000000
0.410004 0.006785 0.000000
0.472665 0.001057 0.000000
0.539673 0.000000 0.000000
0.606681 0.000000 0.000000
0.673689 0.000000 0.000000
0.740696 0.000000 0.000000
0.807704 0.000000 0.000000
0.874712 0.000000 0.000000
0.941720 0.000000 0.000000
1.000000 0.000000 0.000000
1.000000 0.000000 0.000000
1.000000 0.000000 0.000000
1.000000 0.000000 0.000000
1.000000 0.000000 0.000000
1.000000 0.000000 0.000000
1.000000 0.000000 0.000000
1.000000 0.000000 0.000000
1.000000 0.000000 0.000000
1.000000 0.000000 0.000000
1.000000 0.000000 0.000000
1.000000 0.000000 0.000000
1.000000 0.000000 0.000000
1.000000 0.000000 0.000000
1.000000 0.000000 0.000000
0.000000 0.099960 0.000000
0.000000 0.094497 0.000000
0.000000 0.089035 0.000000
0.034158 0.083572 0.000000
0.093922 0.078109 0.000000
0.153685 0.072646 0.000000
0.213449 0.067183 0.000000
0.273213 0.061721 0.000000
0.332976 0.056258 0.000000
0.392740 0.050795 0.000000
0.455402 0.045067 0.000000
0.522409 0.038942 0.000000
0.589417 0.032817 0.000000
0.656425 0.026692 0.000000
0.723433 0.020567 0.000000
0.790441 0.014442 0.000000
0.857449 0.008317 0.000000
0.924456 0.002192 0.000000
0.991464 0.000000 0.000000
1.000000 0.000000 0.000000
1.000000 0.000000 0.000000
1.000000 0.000000 0.000000
1.000000 0.000000 0.000000
1.000000 0.000000 0.000000
1.000000 0.000000 0.000000
1.000000 0.000000 0.000000
1.000000 0.000000 0.000000
1.000000 0.000000 0.000000
1.000000 0.000000 0.000000
1.000000 0.000000 0.000000
1.000000 0.000000 0.000000
1.000000 0.000000 0.000000
1.000000 0.000000 0.000000
0.000000 0.143970 0.000000
0.000000 0.138507 0.000000
0.000000 0.133045 0.000000
0.016894 0.127582 0.000000
0.076658 0.122119 0.000000
0.136422 0.116656 0.000000
0.196185 0.111193 0.000000
0.255949 0.105730 0.000000
0.315713 0.100268 0.000000
0.375477 0.094805 0.000000
0.438138 0.089077 0.000000
0.505146 0.082952 0.000000
0.572154 0.076827 0.000000
0.639162 0.070702 0.000000
0.706169 0.064577 0.000000
0.773177 0.058452 0.000000
0.840185 0.052327 0.000000
0.907193 0.046202 0.000000
0.974201 0.040077 0.000000
1.000000 0.033952 0.000000
1.000000 0.029748 0.000000
1.000000 0.026023 0.000000
1.000000 0.022298 0.000000
1.000000 0.018574 0.000000
1.000000 0.014849 0.000000
1.000000 0.011124 0.000000
1.000000 0.007400 0.000000
1.000000 0.003675 0.000000
1.000000 0.000000 0.000000
1.000000 0.000000 0.000000
1.000000 0.000000 0.000000
1.000000 0.000000 0.000000
1.000000 0.000000 0.000000
0.000000 0.187980 0.000000
0.000000 0.182517 0.000000
0.000000 0.177055 0.000000
0.000000 0.171592 0.000000
0.059394 0.166129 0.000000
0.119158 0.160666 0.000000
0.178922 0.155203 0.000000
0.238686 0.149740 0.000000
0.298449 0.144278 0.000000
0.358213 0.138815 0.000000
0.420875 0.133087 0.000000
0.487882 0.126962 0.000000
0.554890 0.120837 0.000000
0.621898 0.114712 0.000000
0.688906 0.108587 0.000000
0.755914 0.102462 0.000000
0.822922 0.096337 0.000000
0.889929 0.090212 0.000000
0.956937 0.084087 0.000000
1.000000 0.077962 0.000000
1.000000 0.073757 0.000000
1.000000 0.070033 0.000000
1.000000 0.066308 0.000000
1.000000 0.062584 0.000000
1.000000 0.058859 0.000000
1.000000 0.055134 0.000000
1.000000 0.051410 0.000000
1.000000 0.047685 0.000000
1.000000 0.043960 0.000000
1.000000 0.040236 0.000000
1.000000 0.036511 0.000000
1.000000 0.032786 0.000000
1.000000 0.029062 0.000000
0.000000 0.231990 0.000000
0.000000 0.226527 0.000000
0.000000 0.221064 0.000000
0.000000 0.215602 0.000000
0.042131 0.210139 0.000000
0.101895 0.204676 0.000000
0.161658 0.199213 0.000000
0.221422 0.193750 0.000000
0.281186 0.188287 0.000000
0.340950 0.182825 0.000000
0.403611 0.177097 0.000000
0.470619 0.170972 0.000000
0.537627 0.164847 0.000000
0.604635 0.158722 0.000000
0.671642 0.152597 0.000000
0.738650 0.146472 0.000000
0.805658 0.140347 0.000000
0.872666 0.134222 0.000000
0.939674 0.128097 0.000000
1.000000 0.121972 0.000000
1.000000 0.117767 0.000000
1.000000 0.114043 0.000000
1.000000 0.110318 0.000000
1.000000 0.106593 0.000000
1.000000 0.102869 0.000000
1.000000 0.099144 0.000000
1.000000 0.095419 0.000000
1.000000 0.091695 0.000000
1.000000 0.087970 0.000000
1.000000 0.084246 0.000000
1.000000 0.080521 0.000000
1.000000 0.076796 0.000000
1.000000 0.073072 0.000000
0.000000 0.276000 0.000000
0.000000 0.270537 0.000000
0.000000 0.265074 0.000000
0.000000 0.259612 0.000000
0.024867 0.254149 0.000000
0.084631 0.248686 0.000000
0.144395 0.243223 0.000000
0.204159 0.237760 0.000000
0.263922 0.232297 0.000000
0.323686 0.226835 0.000000
0.386348 0.221107 0.000000
0.453355 0.214982 0.000000
0.520363 0.208857 0.000000
0.587371 0.202732 0.000000
0.654379 0.196607 0.000000
0.721387 0.190482 0.000000
0.788395 0.184357 0.000000
0.855402 0.178232 0.000000
0.922410 0.172107 0.000000
0.989418 0.165982 0.000000
1.000000 0.161777 0.000000
1.000000 0.158053 0.000000
1.000000 0.154328 0.000000
1.000000 0.150603 0.000000
1.000000 0.146879 0.000000
1.000000 0.143154 0.000000
1.000000 0.139429 0.000000
1.000000 0.135705 0.000000
1.000000 0.131980 0.000000
1.000000 0.128255 0.000000
1.000000 0.124531 0.000000
1.000000 0.120806 0.000000
1.000000 0.117082 0.000000
0.000000 0.320010 0.000000
0.000000 0.314547 0.000000
0.000000 0.309084 0.000000
0.000000 0.303621 0.000000
0.007604 0.298159 0.000000
0.067368 0.292696 0.000000
0.127131 0.287233 0.000000
0.186895 0.281770 0.000000
0.246659 0.276307 0.000000
0.306423 0.270845 0.000000
0.369084 0.265117 0.000000
0.436092 0.258992 0.000000
0.503100 0.252867 0.000000
0.570108 0.246742 0.000000
0.637115 0.240617 0.000000
0.704123 0.234492 0.000000
0.771131 0.228367 0.000000
0.838139 0.222242 0.000000
0.905147 0.216117 0.000000
0.972154 0.209992 0.000000
1.000000 0.205787 0.000000
1.000000 0.202063 0.000000
1.000000 0.198338 0.000000
1.000000 0.194613 0.000000
1.000000 0.190889 0.000000
1.000000 0.187164 0.000000
1.000000 0.183439 0.000000
1.000000 0.179715 0.000000
1.000000 0.175990 0.000000
1.000000 0.172265 0.000000
1.000000 0.168541 0.000000
1.000000 0.164816 0.000000
1.000000 0.161091 0.000000
0.000000 0.367427 0.000000
0.000000 0.361964 0.000000
0.000000 0.356501 0.000000
0.000000 0.351039 0.000000
0.000000 0.345576 0.000000
0.048768 0.340113 0.000000
0.108531 0.334650 0.000000
0.168295 0.329187 0.000000
0.228059 0.323724 0.000000
0.287823 0.318262 0.000000
0.350484 0.312534 0.000000
0.417492 0.306409 0.000000
0.484500 0.300284 0.000000
0.551507 0.294159 0.000000
0.618515 0.288034 0.000000
0.685523 0.281909 0.000000
0.752531 0.275784 0.000000
0.819539 0.269659 0.000000
0.886547 0.263534 0.000000
0.953554 0.257409 0.000000
0.999554 0.253204 0.000000
1.000000 0.249480 0.000000
1.000000 0.245755 0.000000
1.000000 0.242030 0.000000
1.000000 0.238306 0.000000
1.000000 0.234581 0.000000
1.000000 0.230856 0.000000
1.000000 0.227132 0.000000
1.000000 0.223407 0.000000
1.000000 0.219683 0.000000
1.000000 0.215958 0.000000
1.000000 0.212233 0.000000
1.000000 0.208509 0.000000
0.000000 0.419955 0.000000
0.000000 0.414492 0.000000
0.000000 0.409029 0.000000
0.000000 0.403567 0.000000
0.000000 0.398104 0.000000
0.028163 0.392641 0.000000
0.087927 0.387178 0.000000
0.147690 0.381715 0.000000
0.207454 0.376252 0.000000
0.267218 0.370790 0.000000
0.329879 0.365062 0.000000
0.396887 0.358937 0.000000
0.463895 0.352812 0.000000
0.530903 0.346687 0.000000
0.597910 0.340562 0.000000
0.664918 0.334437 0.000000
0.731926 0.328312 0.000000
0.798934 0.322187 0.000000
0.865942 0.316062 0.000000
0.932950 0.309937 0.000000
0.978950 0.305732 0.000000
1.000000 0.302008 0.000000
1.000000 0.298283 0.000000
1.000000 0.294558 0.000000
1.000000 0.290834 0.000000
1.000000 0.287109 0.000000
1.000000 0.283384 0.000000
1.000000 0.279660 0.000000
1.000000 0.275935 0.000000
1.000000 0.272211 0.000000
1.000000 0.268486 0.000000
1.000000 0.264761 0.000000
1.000000 0.261037 0.000000
0.000000 0.472483 0.000000
0.000000 0.467020 0.000000
0.000000 0.461557 0.000000
0.000000 0.456095 0.000000
0.000000 0.450632 0.000000
0.007558 0.445169 0.000000
0.067322 0.439706 0.000000
0.127085 0.434243 0.000000
0.186849 0.428780 0.000000
0.246613 0.423318 0.000000
0.309274 0.417590 0.000000
0.376282 0.411465 0.000000
0.443290 0.405340 0.000000
0.510298 0.399215 0.000000
0.577306 0.393090 0.000000
0.644313 0.386965 0.000000
0.711321 0.380840 0.000000
0.778329 0.374715 0.000000
0.845337 0.368590 0.000000
0.912345 0.362465 0.000000
0.958345 0.358260 0.000000
0.999093 0.354536 0.000000
1.000000 0.350811 0.000000
1.000000 0.347086 0.000000
1.000000 0.343362 0.000000
1.000000 0.339637 0.000000
1.000000 0.335912 0.000000
1.000000 0.332188 0.000000
1.000000 0.328463 0.000000
1.000000 0.324738 0.000000
1.000000 0.321014 0.000000
1.000000 0.317289 0.000000
1.000000 0.313565 0.000000
0.000000 0.525011 0.000000
0.000000 0.519548 0.000000
0.000000 0.514085 0.000000
0.000000 0.508623 0.000000
0.000000 0.503160 0.000000
0.000000 0.497697 0.000000
0.046717 0.492234 0.000000
0.106481 0.486771 0.000000
0.166244 0.481308 0.000000
0.226008 0.475846 0.000000
0.288669 0.470118 0.000000
0.355677 0.463993 0.000000
0.422685 0.457868 0.000000
0.489693 0.451743 0.000000
0.556701 0.445618 0.000000
0.623709 0.439493 0.000000
0.690716 0.433368 0.000000
0.757724 0.427243 0.000000
0.824732 0.421118 0.000000
0.891740 0.414993 0.000000
0.937740 0.410788 0.000000
0.978488 0.407064 0.000000
1.000000 0.403339 0.000000
1.000000 0.399614 0.000000
1.000000 0.395890 0.000000
1.000000 0.392165 0.000000
1.000000 0.388440 0.000000
1.000000 0.384716 0.000000
1.000000 0.380991 0.000000
1.000000 0.377266 0.000000
1.000000 0.373542 0.000000
1.000000 0.369817 0.000000
1.000000 0.366093 0.000000
0.000000 0.577539 0.000000
0.000000 0.572076 0.000000
0.000000 0.566613 0.000000
0.000000 0.561151 0.000000
0.000000 0.555688 0.000000
0.000000 0.550225 0.000000
0.026112 0.544762 0.000000
0.085876 0.539299 0.000000
0.145640 0.533836 0.000000
0.205403 0.528374 0.000000
0.268065 0.522646 0.000000
0.335072 0.516521 0.000000
0.402080 0.510396 0.000000
0.469088 0.504271 0.000000
0.536096 0.498146 0.000000
0.603104 0.492021 0.000000
0.670112 0.485896 0.000000
0.737119 0.479771 0.000000
0.804127 0.473646 0.000000
0.871135 0.467521 0.000000
0.917135 0.463316 0.000000
0.957883 0.459592 0.000000
0.998631 0.455867 0.000000
1.000000 0.452142 0.000000
1.000000 0.448418 0.000000
1.000000 0.444693 0.000000
1.000000 0.440968 0.000000
1.000000 0.437244 0.000000
1.000000 0.433519 0.000000
1.000000 0.429794 0.000000
1.000000 0.426070 0.000000
1.000000 0.422345 0.000000
1.000000 0.418620 0.000000
0.000000 0.630067 0.000000
0.000000 0.624604 0.000000
0.000000 0.619141 0.000000
0.000000 0.613678 0.000000
0.000000 0.608216 0.000000
0.000000 0.602753 0.000000
0.005507 0.597290 0.000000
0.065271 0.591827 0.000000
0.125035 0.586364 0.000000
0.184798 0.580902 0.000000
0.247460 0.575174 0.000000
0.314468 0.569049 0.000000
0.381475 0.562924 0.000000
0.448483 0.556799 0.000000
0.515491 0.550674 0.000000
0.582499 0.544549 0.000000
0.649507 0.538424 0.000000
0.716515 0.532299 0.000000
0.783522 0.526174 0.000000
0.850530 0.520049 0.000000
0.896530 0.515844 0.000000
0.937278 0.512120 0.000000
0.978026 0.508395 0.000000
1.000000 0.504670 0.000000
1.000000 0.500946 0.000000
1.000000 0.497221 0.000000
1.000000 0.493496 0.000000
1.000000 0.489772 0.000000
1.000000 0.486047 0.000000
1.000000 0.482322 0.000000
1.000000 0.478598 0.000000
1.000000 0.474873 0.000000
1.000000 0.471148 0.000000
0.000000 0.682595 0.000000
0.000000 0.677132 0.000000
0.000000 0.671669 0.000000
0.000000 0.666206 0.000000
0.000000 0.660744 0.000000
0.000000 0.655281 0.000000
0.000000 0.649818 0.000000
0.044666 0.644355 0.000000
0.104430 0.638892 0.000000
0.164194 0.633430 0.000000
0.226855 0.627702 0.000000
0.293863 0.621577 0.000000
0.360871 0.615452 0.000000
0.427878 0.609327 0.000000
0.494886 0.603202 0.000000
0.561894 0.597077 0.000000
0.628902 0.590952 0.000000
0.695910 0.584827 0.000000
0.762918 0.578702 0.000000
0.829925 0.572577 0.000000
0.875925 0.568372 0.000000
0.916673 0.564648 0.000000
0.957421 0.560923 0.000000
0.998169 0.557198 0.000000
1.000000 0.553474 0.000000
1.000000 0.549749 0.000000
1.000000 0.546024 0.000000
1.000000 0.542300 0.000000
1.000000 0.538575 0.000000
1.000000 0.534850 0.000000
1.000000 0.531126 0.000000
1.000000 0.527401 0.000000
1.000000 0.523676 0.000000
0.000000 0.735123 0.000000
0.000000 0.729660 0.000000
0.000000 0.724197 0.000000
0.000000 0.718734 0.000000
0.000000 0.713272 0.000000
0.000000 0.707809 0.000000
0.000000 0.702346 0.000000
0.024061 0.696883 0.000000
0.083825 0.691420 0.000000
0.143589 0.685957 0.000000
0.206250 0.680230 0.000000
0.273258 0.674105 0.000000
0.340266 0.667980 0.000000
0.407274 0.661855 0.000000
0.474281 0.655730 0.000000
0.541289 0.649605 0.000000
0.608297 0.643480 0.000000
0.675305 0.637355 0.000000
0.742313 0.631230 0.000000
0.809321 0.625105 0.000000
0.855321 0.620900 0.000000
0.896069 0.617176 0.000000
0.936817 0.613451 0.000000
0.977565 0.609726 0.000000
1.000000 0.606002 0.000000
1.000000 0.602277 0.000000
1.000000 0.598552 0.000000
1.000000 0.594828 0.000000
1.000000 0.591103 0.000000
1.000000 0.587378 0.000000
1.000000 0.583654 0.000000
1.000000 0.579929 0.000000
1.000000 0.576204 0.000000
0.000000 0.787651 0.000000
0.000000 0.782188 0.000000
0.000000 0.776725 0.000000
0.000000 0.771262 0.000000
0.000000 0.765800 0.000000
0.000000 0.760337 0.000000
0.000000 0.754874 0.000000
0.003456 0.749411 0.000000
0.063220 0.743948 0.000000
0.122984 0.738485 0.000000
0.185645 0.732758 0.000000
0.252653 0.726633 0.000000
0.319661 0.720508 0.000000
0.386669 0.714383 0.000000
0.453677 0.708258 0.000000
0.520684 0.702133 0.000000
0.587692 0.696008 0.000000
0.654700 0.689883 0.000000
0.721708 0.683758 0.000000
0.788716 0.677633 0.000000
0.834716 0.673428 0.000000
0.875464 0.669704 0.000000
0.916212 0.665979 0.000000
0.956960 0.662254 0.000000
0.997708 0.658530 0.000000
1.000000 0.654805 0.000000
1.000000 0.651080 0.000000
1.000000 0.647356 0.000000
1.000000 0.643631 0.000000
1.000000 0.639906 0.000000
1.000000 0.636182 0.000000
1.000000 0.632457 0.000000
1.000000 0.628732 0.000000
0.000000 0.840179 0.000000
0.000000 0.834716 0.000000
0.000000 0.829253 0.000000
0.000000 0.823790 0.000000
0.000000 0.818328 0.000000
0.000000 0.812865 0.000000
0.000000 0.807402 0.000000
0.000000 0.801939 0.000000
0.042615 0.796476 0.000000
0.102379 0.791013 0.000000
0.165040 0.785286 0.000000
0.232048 0.779161 0.000000
0.299056 0.773036 0.000000
0.366064 0.766911 0.000000
0.433072 0.760786 0.000000
0.500080 0.754661 0.000000
0.567087 0.748536 0.000000
0.634095 0.742411 0.000000
0.701103 0.736286 0.000000
0.768111 0.730161 0.000000
0.814111 0.725956 0.000000
0.854859 0.722232 0.000000
0.895607 0.718507 0.000000
0.936355 0.714782 0.000000
0.977103 0.711058 0.000000
1.000000 0.707333 0.000000
1.000000 0.703608 0.000000
1.000000 0.699884 0.000000
1.000000 0.696159 0.000000
1.000000 0.692434 0.000000
1.000000 0.688710 0.000000
1.000000 0.684985 0.000000
1.000000 0.681260 0.000000
0.000000 0.876239 0.000000
0.000000 0.870776 0.000000
0.000000 0.865313 0.000000
0.000000 0.859850 0.000000
0.000000 0.854387 0.000000
0.000000 0.848924 0.000000
0.000000 0.843462 0.000000
0.000000 0.837999 0.000000
0.028470 0.832536 0.000000
0.088234 0.827073 0.000000
0.150896 0.821346 0.000000
0.217903 0.815221 0.000000
0.284911 0.809096 0.000000
0.351919 0.802971 0.000000
0.418927 0.796846 0.000000
0.485935 0.790721 0.000000
0.552942 0.784596 0.000000
0.619950 0.778471 0.000000
0.686958 0.772346 0.000000
0.753966 0.766221 0.000000
0.799966 0.762016 0.000000
0.840714 0.758291 0.000000
0.881462 0.754567 0.000000
0.922210 0.750842 0.000000
0.962958 0.747117 0.000000
1.000000 0.743393 0.000000
1.000000 0.739668 0.000000
1.000000 0.735943 0.000000
1.000000 0.732219 0.000000
1.000000 0.728494 0.000000
1.000000 0.724769 0.000000
1.000000 0.721045 0.000000
1.000000 0.717320 0.000000
0.000000 0.908181 0.000000
0.000000 0.902718 0.000000
0.000000 0.897256 0.000000
0.000000 0.891793 0.000000
0.000000 0.886330 0.000000
0.000000 0.880867 0.000000
0.000000 0.875404 0.000000
0.000000 0.869942 0.000000
0.015940 0.864479 0.000000
0.075704 0.859016 0.000000
0.138366 0.853288 0.000000
0.205373 0.847163 0.000000
0.272381 0.841038 0.000000
0.339389 0.834913 0.000000
0.406397 0.828788 0.000000
0.473405 0.822663 0.000000
0.540413 0.816538 0.000000
0.607420 0.810413 0.000000
0.674428 0.804288 0.000000
0.741436 0.798163 0.000000
0.787436 0.793959 0.000000
0.828184 0.790234 0.000000
0.868932 0.786509 0.000000
0.909680 0.782785 0.000000
0.950428 0.779060 0.000000
0.991176 0.775335 0.000000
1.000000 0.771611 0.000000
1.000000 0.767886 0.000000
1.000000 0.764161 0.000000
1.000000 0.760437 0.000000
1.000000 0.756712 0.000000
1.000000 0.752987 0.000000
1.000000 0.749263 0.000000
0.000000 0.940124 0.000000
0.000000 0.934661 0.000000
0.000000 0.929198 0.000000
0.000000 0.923736 0.000000
0.000000 0.918273 0.000000
0.000000 0.912810 0.000000
0.000000 0.907347 0.000000
0.000000 0.901884 0.000000
0.003410 0.896421 0.000000
0.063174 0.890959 0.000000
0.125836 0.885231 0.000000
0.192843 0.879106 0.000000
0.259851 0.872981 0.000000
0.326859 0.866856 0.000000
0.393867 0.860731 0.000000
0.460875 0.854606 0.000000
0.527883 0.848481 0.000000
0.594890 0.842356 0.000000
0.661898 0.836231 0.000000
0.728906 0.830106 0.000000
0.774906 0.825901 0.000000
0.815654 0.822177 0.000000
0.856402 0.818452 0.000000
0.897150 0.814727 0.000000
0.937898 0.811003 0.000000
0.978646 0.807278 0.000000
1.000000 0.803553 0.000000
1.000000 0.799829 0.000000
1.000000 0.796104 0.000000
1.000000 0.792379 0.000000
1.000000 0.788655 0.000000
1.000000 0.784930 0.000000
1.000000 0.781205 0.000000
0.000000 0.972067 0.000000
0.000000 0.966604 0.000000
0.000000 0.961141 0.000000
0.000000 0.955678 0.000000
0.000000 0.950215 0.000000
0.000000 0.944753 0.000000
0.000000 0.939290 0.000000
0.000000 0.933827 0.000000
0.000000 0.928364 0.000000
0.050644 0.922901 0.000000
0.113306 0.917174 0.000000
0.180313 0.911049 0.000000
0.247321 0.904924 0.000000
0.314329 0.898799 0.000000
0.381337 0.892674 0.000000
0.448345 0.886549 0.000000
0.515353 0.880424 0.000000
0.582360 0.874299 0.000000
0.649368 0.868174 0.000000
0.716376 0.862049 0.000000
0.762376 0.857844 0.000000
0.803124 0.854119 0.000000
0.843872 0.850395 0.000000
0.884620 0.846670 0.000000
0.925368 0.842945 0.000000
0.966116 0.839221 0.000000
1.000000 0.835496 0.000000
1.000000 0.831771 0.000000
1.000000 0.828047 0.000000
1.000000 0.824322 0.000000
1.000000 0.820597 0.000000
1.000000 0.816873 0.000000
1.000000 0.813148 0.000000
0.000000 1.000000 0.000000
0.000000 0.998547 0.000000
0.000000 0.993084 0.000000
0.000000 0.987621 0.000000
0.000000 0.982158 0.000000
0.000000 0.976695 0.000000
0.000000 0.971232 0.000000
0.000000 0.965770 0.000000
0.000000 0.960307 0.000000
0.038114 0.954844 0.000000
0.100776 0.949116 0.000000
0.167783 0.942991 0.000000
0.234791 0.936866 0.000000
0.301799 0.930741 0.000000
0.368807 0.924616 0.000000
0.435815 0.918491 0.000000
0.502823 0.912366 0.000000
0.569830 0.906241 0.000000
0.636838 0.900116 0.000000
0.703846 0.893991 0.000000
0.749846 0.889787 0.000000
0.790594 0.886062 0.000000
0.831342 0.882337 0.000000
0.872090 0.878613 0.000000
0.912838 0.874888 0.000000
0.953586 0.871163 0.000000
0.994334 0.867439 0.000000
1.000000 0.863714 0.000000
1.000000 0.859989 0.000000
1.000000 0.856265 0.000000
1.000000 0.852540 0.000000
1.000000 0.848816 0.000000
1.000000 0.845091 0.000000
0.000000 1.000000 0.000000
0.000000 1.000000 0.000000
0.000000 1.000000 0.000000
0.000000 1.000000 0.000000
0.000000 1.000000 0.000000
0.000000 1.000000 0.000000
0.000000 1.000000 0.000000
0.000000 0.997712 0.000000
0.000000 0.992249 0.000000
0.025584 0.986787 0.000000
0.088246 0.981059 0.000000
0.155253 0.974934 0.000000
0.222261 0.968809 0.000000
0.289269 0.962684 0.000000
0.356277 0.956559 0.000000
0.423285 0.950434 0.000000
0.490293 0.944309 0.000000
0.557300 0.938184 0.000000
0.624308 0.932059 0.000000
0.691316 0.925934 0.000000
0.737316 0.921729 0.000000
0.778064 0.918005 0.000000
0.818812 0.914280 0.000000
0.859560 0.910555 0.000000
0.900308 0.906831 0.000000
0.941056 0.903106 0.000000
0.981804 0.899381 0.000000
1.000000 0.895657 0.000000
1.000000 0.891932 0.000000
1.000000 0.888207 0.000000
1.000000 0.884483 0.000000
1.000000 0.880758 0.000000
1.000000 0.877034 0.000000
0.000000 1.000000 0.000000
0.000000 1.000000 0.000000
0.000000 1.000000 0.000000
0.000000 1.000000 0.000000
0.000000 1.000000 0.000000
0.000000 1.000000 0.000000
0.000000 1.000000 0.000000
0.000000 1.000000 0.000000
0.000000 1.000000 0.000000
0.013054 1.000000 0.000000
0.075716 1.000000 0.000000
0.142724 1.000000 0.000000
0.209731 1.000000 0.000000
0.276739 0.994627 0.000000
0.343747 0.988502 0.000000
0.410755 0.982377 0.000000
0.477763 0.976252 0.000000
0.544770 0.970127 0.000000
0.611778 0.964002 0.000000
0.678786 0.957877 0.000000
0.724786 0.953672 0.000000
0.765534 0.949947 0.000000
0.806282 0.946223 0.000000
0.847030 0.942498 0.000000
0.887778 0.938773 0.000000
0.928526 0.935049 0.000000
0.969274 0.931324 0.000000
1.000000 0.927599 0.000000
1.000000 0.923875 0.000000
