luts/saturated_landscape_50.cube
TITLE "Fuji Velvia 50"
LUT_3D_SIZE 5
0.000000 0.000000 0.000000
0.402031 0.000000 0.000000
0.926503 0.000000 0.000000
1.000000 0.000000 0.000000
1.000000 0.000000 0.000000
0.000000 0.276000 0.000000
0.263922 0.232297 0.000000
0.788395 0.184357 0.000000
1.000000 0.146879 0.000000
1.000000 0.117082 0.000000
0.000000 0.682595 0.000000
0.104430 0.638892 0.000000
0.628902 0.590952 0.000000
1.000000 0.553474 0.000000
1.000000 0.523676 0.000000
0.000000 1.000000 0.000000
0.000000 0.960307 0.000000
0.502823 0.912366 0.000000
0.912838 0.874888 0.000000
1.000000 0.845091 0.000000
0.000000 1.000000 0.000000
0.000000 1.000000 0.000000
0.402583 1.000000 0.000000
0.812598 1.000000 0.000000
1.000000 1.000000 0.000000
0.000000 0.000000 0.484204
0.386739 0.000000 0.440502
0.911211 0.000000 0.392561
1.000000 0.000000 0.355083
1.000000 0.000000 0.325286
0.000000 0.260709 0.346096
0.248631 0.217006 0.302394
0.773103 0.169066 0.254453
1.000000 0.131587 0.216975
1.000000 0.101790 0.187178
0.000000 0.667304 0.186604
0.089138 0.623601 0.142901
0.613611 0.575661 0.094961
1.000000 0.538182 0.057482
1.000000 0.508385 0.027685
0.000000 0.988718 0.060524
0.000000 0.945015 0.016822
0.487531 0.897075 0.000000
0.897547 0.859597 0.000000
1.000000 0.829799 0.000000
0.000000 1.000000 0.000000
0.000000 1.000000 0.000000
0.387291 1.000000 0.000000
0.797307 1.000000 0.000000
1.000000 1.000000 0.000000
0.000000 0.000000 0.994248
0.371808 0.000000 0.950545
0.896280 0.000000 0.902605
1.000000 0.000000 0.865126
1.000000 0.000000 0.835329
0.000000 0.245777 0.856140
0.233700 0.202075 0.812437
0.758172 0.154134 0.764497
1.000000 0.116656 0.727018
1.000000 0.086859 0.697221
0.000000 0.652372 0.696647
0.074207 0.608669 0.652944
0.598679 0.560729 0.605004
1.000000 0.523251 0.567526
1.000000 0.493454 0.537729
0.000000 0.973786 0.570568
0.000000 0.930084 0.526865
0.472600 0.882143 0.478925
0.882615 0.844665 0.441446
1.000000 0.814868 0.411649
0.000000 1.000000 0.470328
0.000000 1.000000 0.426625
0.372360 1.000000 0.378685
0.782375 1.000000 0.341207
1.000000 1.000000 0.311409
0.000000 0.000000 1.000000
0.359597 0.000000 1.000000
0.884069 0.000000 1.000000
1.000000 0.000000 1.000000
1.000000 0.000000 1.000000
0.000000 0.233566 1.000000
0.221489 0.189864 1.000000
0.745961 0.141923 1.000000
1.000000 0.104445 1.000000
1.000000 0.074648 1.000000
0.000000 0.640161 1.000000
0.061996 0.596459 1.000000
0.586468 0.548518 1.000000
0.996484 0.511040 0.984625
1.000000 0.481243 0.954827
0.000000 0.961576 0.987666
0.000000 0.917873 0.943964
0.460389 0.869933 0.896023
0.870405 0.832455 0.858545
1.000000 0.802657 0.828748
0.000000 1.000000 0.887427
0.000000 1.000000 0.843724
0.360149 1.000000 0.795784
0.770165 1.000000 0.758305
1.000000 1.000000 0.728508
0.000000 0.000000 1.000000
0.349140 0.000000 1.000000
0.873612 0.000000 1.000000
1.000000 0.000000 1.000000
1.000000 0.000000 1.000000
0.000000 0.223110 1.000000
0.211032 0.179407 1.000000
0.735504 0.131467 1.000000
1.000000 0.093989 1.000000
1.000000 0.064191 1.000000
0.000000 0.629705 1.000000
0.051540 0.586002 1.000000
0.576012 0.538062 1.000000
0.986027 0.500584 1.000000
1.000000 0.470786 1.000000
0.000000 0.951119 1.000000
0.000000 0.907417 1.000000
0.449932 0.859476 1.000000
0.859948 0.821998 1.000000
1.000000 0.792201 1.000000
0.000000 1.000000 1.000000
0.000000 1.000000 1.000000
0.349693 1.000000 1.000000
0.759708 1.000000 1.000000
1.000000 1.000000 1.000000
