luts/steel_blue_thriller.cube
TITLE "Cinema Casino Royale"
LUT_3D_SIZE 9
0.000000 0.000000 0.053841
0.000000 0.000000 0.048921
0.128393 0.000000 0.045901
0.268963 0.000000 0.042725
0.414117 0.000000 0.039445
0.559271 0.000000 0.036166
0.686090 0.000000 0.033301
0.808325 0.000000 0.030539
0.930560 0.000000 0.027777
0.000000 0.097207 0.043648
0.019720 0.096408 0.039099
0.153415 0.097138 0.036078
0.293985 0.097905 0.032902
0.439139 0.098698 0.029623
0.584293 0.099490 0.026343
0.711112 0.100182 0.023478
0.833347 0.100849 0.020717
0.955582 0.101516 0.017955
0.000000 0.221009 0.033455
0.044742 0.220581 0.029276
0.178437 0.221311 0.026256
0.319007 0.222078 0.023080
0.464161 0.222871 0.019800
0.609315 0.223663 0.016521
0.736134 0.224355 0.013656
0.858369 0.225022 0.010894
0.980604 0.225689 0.008132
0.000000 0.347374 0.023051
0.070282 0.347323 0.019250
0.203977 0.348053 0.016230
0.344547 0.348820 0.013054
0.489701 0.349613 0.009774
0.634855 0.350405 0.006495
0.761674 0.351097 0.003630
0.883909 0.351764 0.000868
1.000000 0.352300 0.000000
0.000000 0.475445 0.012506
0.096167 0.475778 0.009089
0.229861 0.476508 0.006068
0.370432 0.477275 0.002893
0.515586 0.478067 0.000000
0.660740 0.478860 0.000000
0.787386 0.481302 0.000000
0.909357 0.484645 0.000000
1.000000 0.487504 0.002364
0.000000 0.603517 0.001962
0.122052 0.604233 0.000000
0.255746 0.604963 0.000000
0.396074 0.608195 0.000000
0.540915 0.612164 0.001291
0.685756 0.616133 0.004679
0.812301 0.619601 0.007639
0.934272 0.622944 0.010491
1.000000 0.625462 0.012520
0.011062 0.719532 0.000000
0.144468 0.723188 0.000800
0.277874 0.726844 0.003920
0.418141 0.730688 0.007200
0.562982 0.734657 0.010588
0.707823 0.738627 0.013976
0.834369 0.742095 0.016936
0.956340 0.745437 0.019788
1.000000 0.747654 0.021515
0.032417 0.838074 0.006676
0.165824 0.841730 0.009797
0.299230 0.845386 0.012917
0.439497 0.849230 0.016198
0.584338 0.853199 0.019585
0.729179 0.857169 0.022973
0.855724 0.860637 0.025933
0.977696 0.863979 0.028785
1.000000 0.865904 0.030220
0.053773 0.956616 0.015674
0.187179 0.960272 0.018794
0.320586 0.963928 0.021914
0.460853 0.967772 0.025195
0.605694 0.971741 0.028582
0.750535 0.975711 0.031970
0.877080 0.979179 0.034930
0.999052 0.982521 0.037783
1.000000 0.984154 0.038925
0.000000 0.000000 0.182941
0.000000 0.000000 0.178061
0.131093 0.000000 0.175041
0.271663 0.000000 0.171865
0.416817 0.000000 0.168585
0.561971 0.000000 0.165306
0.688790 0.000000 0.162441
0.811025 0.000000 0.159679
0.933260 0.000000 0.156917
0.000000 0.097423 0.172748
0.022421 0.096664 0.168239
0.156115 0.097394 0.165218
0.296685 0.098161 0.162042
0.441839 0.098954 0.158763
0.586993 0.099746 0.155483
0.713812 0.100438 0.152618
0.836047 0.101105 0.149857
0.958282 0.101772 0.147095
0.000000 0.221226 0.162555
0.047443 0.220837 0.158416
0.181137 0.221567 0.155396
0.321707 0.222334 0.152220
0.466861 0.223127 0.148940
0.612015 0.223919 0.145661
0.738834 0.224611 0.142796
0.861069 0.225278 0.140034
0.983304 0.225945 0.137272
0.000000 0.347590 0.152151
0.072982 0.347579 0.148390
0.206677 0.348309 0.145370
0.347247 0.349076 0.142194
0.492401 0.349869 0.138914
0.637555 0.350661 0.135635
0.764374 0.351353 0.132770
0.886609 0.352020 0.130008
1.000000 0.352516 0.127075
0.000000 0.475661 0.141606
0.098867 0.476034 0.138229
0.232562 0.476764 0.135208
0.373132 0.477531 0.132033
0.518286 0.478324 0.128753
0.663440 0.479117 0.125475
0.789956 0.482557 0.124849
0.911900 0.485872 0.124245
1.000000 0.488668 0.123122
0.000000 0.603759 0.131088
0.124752 0.604489 0.128068
0.258401 0.605629 0.125382
0.398637 0.609442 0.124688
0.543445 0.613378 0.123971
0.688253 0.617315 0.123254
0.814770 0.620755 0.122628
0.936714 0.624070 0.122025
1.000000 0.626525 0.120561
0.013627 0.720781 0.124735
0.147003 0.724407 0.124075
0.280379 0.728033 0.123415
0.420615 0.731845 0.122721
0.565423 0.735782 0.122004
0.710231 0.739719 0.121287
0.836748 0.743158 0.120661
0.958692 0.746473 0.120058
1.000000 0.748627 0.118292
0.034896 0.839237 0.122832
0.168272 0.842862 0.122172
0.301648 0.846488 0.121511
0.441884 0.850301 0.120817
0.586692 0.854237 0.120101
0.731500 0.858174 0.119384
0.858017 0.861613 0.118758
0.979961 0.864929 0.118154
1.000000 0.866790 0.116097
0.056165 0.957692 0.120928
0.189541 0.961318 0.120268
0.322917 0.964943 0.119608
0.463153 0.968756 0.118914
0.607961 0.972693 0.118197
0.752769 0.976629 0.117480
0.879286 0.980069 0.116854
1.000000 0.983384 0.116251
1.000000 0.984953 0.113902
0.000000 0.000000 0.312041
0.000099 0.000000 0.307201
0.133793 0.000000 0.304181
0.274364 0.000000 0.301005
0.419518 0.000000 0.297725
0.564672 0.000000 0.294446
0.691490 0.000000 0.291581
0.813725 0.000000 0.288819
0.935960 0.000000 0.286057
0.000000 0.097639 0.301848
0.025121 0.096920 0.297379
0.158815 0.097650 0.294358
0.299386 0.098417 0.291182
0.444540 0.099210 0.287903
0.589694 0.100002 0.284623
0.716512 0.100694 0.281758
0.838747 0.101361 0.278997
0.960982 0.102028 0.276235
0.000000 0.221442 0.291655
0.050143 0.221093 0.287556
0.183837 0.221823 0.284536
0.324408 0.222590 0.281360
0.469562 0.223383 0.278080
0.614716 0.224175 0.274801
0.741534 0.224867 0.271936
0.863769 0.225534 0.269174
0.986004 0.226201 0.266412
0.000000 0.347806 0.281251
0.075682 0.347836 0.277530
0.209377 0.348565 0.274510
0.349947 0.349333 0.271334
0.495101 0.350125 0.268054
0.640255 0.350917 0.264775
0.767074 0.351609 0.261910
0.889309 0.352276 0.259148
1.000000 0.352732 0.256175
0.000000 0.475877 0.270706
0.101567 0.476290 0.267369
0.235262 0.477020 0.264348
0.375832 0.477787 0.261173
0.520986 0.478580 0.257893
0.666028 0.480390 0.255443
0.792545 0.483829 0.254817
0.914489 0.487144 0.254214
1.000000 0.489905 0.253055
0.000000 0.604015 0.260228
0.127452 0.604745 0.257208
0.260990 0.606902 0.255350
0.401225 0.610714 0.254656
0.546034 0.614651 0.253939
0.690842 0.618588 0.253223
0.817359 0.622027 0.252596
0.939303 0.625342 0.251993
1.000000 0.627762 0.250494
0.016215 0.722054 0.254703
0.149591 0.725680 0.254043
0.282968 0.729306 0.253383
0.423203 0.733118 0.252689
0.568011 0.737055 0.251972
0.712820 0.740991 0.251256
0.839337 0.744431 0.250630
0.961281 0.747746 0.250026
1.000000 0.749864 0.248225
0.037484 0.840509 0.252800
0.170860 0.844135 0.252140
0.304237 0.847761 0.251480
0.444472 0.851573 0.250786
0.589281 0.855510 0.250069
0.734089 0.859446 0.249352
0.860606 0.862886 0.248726
0.982550 0.866201 0.248122
1.000000 0.868027 0.246030
0.058753 0.958964 0.250897
0.192129 0.962590 0.250236
0.325506 0.966216 0.249576
0.465741 0.970028 0.248882
0.610550 0.973965 0.248165
0.755358 0.977902 0.247449
0.881875 0.981341 0.246823
1.000000 0.984656 0.246219
1.000000 0.986190 0.243834
0.000000 0.000000 0.421508
0.002388 0.000000 0.416703
0.136083 0.000000 0.413682
0.276653 0.000000 0.410506
0.421807 0.000000 0.407227
0.566961 0.000000 0.403947
0.693780 0.000000 0.401082
0.816015 0.000000 0.398320
0.938250 0.000000 0.395559
0.000000 0.097822 0.411315
0.027410 0.097138 0.406880
0.161105 0.097867 0.403859
0.301675 0.098635 0.400683
0.446829 0.099427 0.397404
0.591983 0.100219 0.394125
0.718802 0.100911 0.391259
0.841037 0.101578 0.388498
0.963272 0.102246 0.385736
0.000000 0.221625 0.401122
0.052432 0.221311 0.397057
0.186127 0.222040 0.394037
0.326697 0.222808 0.390861
0.471851 0.223600 0.387581
0.617005 0.224392 0.384302
0.743824 0.225084 0.381437
0.866059 0.225751 0.378675
0.988294 0.226419 0.375913
0.000000 0.347989 0.390718
0.077972 0.348053 0.387031
0.211667 0.348782 0.384011
0.352237 0.349550 0.380835
0.497391 0.350342 0.377556
0.642545 0.351134 0.374276
0.769364 0.351826 0.371411
0.891599 0.352494 0.368649
1.000000 0.353096 0.365790
0.000000 0.476061 0.380174
0.103857 0.476507 0.376870
0.237551 0.477237 0.373850
0.378121 0.478004 0.370674
0.523276 0.478797 0.367394
0.668223 0.481469 0.365647
0.794740 0.484908 0.365021
0.916684 0.488223 0.364417
1.000000 0.490953 0.363229
0.000000 0.604233 0.369729
0.129742 0.604962 0.366709
0.263184 0.607981 0.365554
0.403420 0.611793 0.364860
0.548228 0.615730 0.364143
0.693037 0.619666 0.363426
0.819554 0.623106 0.362800
0.941497 0.626421 0.362196
1.000000 0.628810 0.360667
0.018410 0.723133 0.364907
0.151786 0.726759 0.364247
0.285162 0.730384 0.363587
0.425398 0.734197 0.362893
0.570206 0.738133 0.362176
0.715015 0.742070 0.361459
0.841532 0.745510 0.360833
0.963475 0.748825 0.360230
1.000000 0.750913 0.358399
0.039679 0.841588 0.363004
0.173055 0.845214 0.362343
0.306431 0.848840 0.361683
0.446667 0.852652 0.360989
0.591475 0.856589 0.360272
0.736284 0.860525 0.359556
0.862801 0.863965 0.358930
0.984744 0.867280 0.358326
1.000000 0.869076 0.356203
0.060948 0.960043 0.361100
0.194324 0.963669 0.360440
0.327700 0.967295 0.359780
0.467936 0.971107 0.359086
0.612744 0.975044 0.358369
0.757553 0.978981 0.357652
0.884070 0.982420 0.357026
1.000000 0.985735 0.356423
1.000000 0.987239 0.354008
0.000000 0.000000 0.517887
0.004404 0.000000 0.513111
0.138099 0.000000 0.510091
0.278669 0.000000 0.506915
0.423823 0.000000 0.503635
0.568977 0.000000 0.500356
0.695796 0.000000 0.497491
0.818031 0.000000 0.494729
0.940266 0.000000 0.491967
0.000000 0.097984 0.507694
0.029426 0.097329 0.503289
0.163121 0.098058 0.500268
0.303691 0.098826 0.497092
0.448845 0.099618 0.493813
0.593999 0.100410 0.490533
0.720818 0.101102 0.487668
0.843053 0.101770 0.484906
0.965288 0.102437 0.482145
0.000000 0.221786 0.497501
0.054448 0.221502 0.493466
0.188143 0.222231 0.490445
0.328713 0.222999 0.487270
0.473867 0.223791 0.483990
0.619021 0.224583 0.480711
0.745840 0.225275 0.477845
0.868075 0.225943 0.475084
0.990310 0.226610 0.472322
0.000000 0.348150 0.487097
0.079988 0.348244 0.483440
0.213682 0.348974 0.480420
0.354253 0.349741 0.477244
0.499407 0.350533 0.473964
0.644561 0.351325 0.470685
0.771379 0.352018 0.467820
0.893614 0.352685 0.465058
1.000000 0.354020 0.462790
0.000000 0.476222 0.476552
0.105873 0.476699 0.473279
0.239567 0.477428 0.470258
0.380137 0.478196 0.467082
0.525291 0.478988 0.463803
0.670155 0.482419 0.462674
0.796672 0.485858 0.462048
0.918616 0.489173 0.461444
1.000000 0.491877 0.460229
0.000000 0.604424 0.466138
0.131741 0.605305 0.463241
0.265117 0.608931 0.462581
0.405352 0.612743 0.461887
0.550161 0.616680 0.461170
0.694969 0.620616 0.460453
0.821486 0.624056 0.459827
0.943430 0.627371 0.459224
1.000000 0.629734 0.457668
0.020343 0.724083 0.461934
0.153719 0.727708 0.461274
0.287095 0.731334 0.460614
0.427330 0.735147 0.459920
0.572139 0.739083 0.459203
0.716947 0.743020 0.458486
0.843464 0.746459 0.457860
0.965408 0.749775 0.457257
1.000000 0.751836 0.455399
0.041612 0.842538 0.460031
0.174988 0.846164 0.459370
0.308364 0.849790 0.458710
0.448599 0.853602 0.458016
0.593408 0.857539 0.457300
0.738216 0.861475 0.456583
0.864733 0.864915 0.455957
0.986677 0.868230 0.455353
1.000000 0.869999 0.453204
0.062881 0.960993 0.458127
0.196257 0.964619 0.457467
0.329633 0.968245 0.456807
0.469868 0.972057 0.456113
0.614677 0.975994 0.455396
0.759485 0.979930 0.454679
0.886002 0.983370 0.454053
1.000000 0.986685 0.453450
1.000000 0.988162 0.451008
0.000000 0.000000 0.614266
0.006420 0.000000 0.609520
0.140115 0.000000 0.606499
0.280685 0.000000 0.603323
0.425839 0.000000 0.600044
0.570993 0.000000 0.596765
0.697812 0.000000 0.593899
0.820047 0.000000 0.591138
0.942282 0.000000 0.588376
0.000000 0.098145 0.604073
0.031442 0.097520 0.599697
0.165137 0.098250 0.596677
0.305707 0.099017 0.593501
0.450861 0.099809 0.590221
0.596015 0.100601 0.586942
0.722834 0.101294 0.584077
0.845069 0.101961 0.581315
0.967304 0.102628 0.578553
0.000000 0.221948 0.593880
0.056464 0.221693 0.589875
0.190158 0.222423 0.586854
0.330729 0.223190 0.583678
0.475883 0.223982 0.580399
0.621037 0.224774 0.577119
0.747856 0.225467 0.574254
0.870090 0.226134 0.571492
0.992325 0.226801 0.568731
0.000000 0.348312 0.583476
0.082004 0.348435 0.579849
0.215698 0.349165 0.576828
0.356268 0.349932 0.573652
0.501422 0.350724 0.570373
0.646576 0.351517 0.567094
0.773395 0.352209 0.564228
0.895630 0.352876 0.561467
1.000000 0.354943 0.559791
0.000000 0.476383 0.572931
0.107888 0.476890 0.569688
0.241583 0.477620 0.566667
0.382153 0.478387 0.563491
0.527279 0.479432 0.560418
0.672088 0.483369 0.559701
0.798605 0.486808 0.559075
0.920548 0.490123 0.558471
1.000000 0.492800 0.557230
0.000079 0.604615 0.562547
0.133673 0.606255 0.560268
0.267049 0.609881 0.559608
0.407285 0.613693 0.558914
0.552093 0.617630 0.558197
0.696902 0.621566 0.557480
0.823418 0.625006 0.556854
0.945362 0.628321 0.556251
1.000000 0.630657 0.554668
0.022275 0.725033 0.558961
0.155651 0.728658 0.558301
0.289027 0.732284 0.557641
0.429263 0.736097 0.556947
0.574071 0.740033 0.556230
0.718880 0.743970 0.555513
0.845396 0.747409 0.554887
0.967340 0.750725 0.554284
1.000000 0.752759 0.552400
0.043544 0.843488 0.557058
0.176920 0.847114 0.556398
0.310296 0.850739 0.555737
0.450532 0.854552 0.555043
0.595340 0.858489 0.554327
0.740149 0.862425 0.553610
0.866665 0.865865 0.552984
0.988609 0.869180 0.552380
1.000000 0.870923 0.550204
0.064813 0.961943 0.555154
0.198189 0.965569 0.554494
0.331565 0.969195 0.553834
0.471801 0.973007 0.553140
0.616609 0.976944 0.552423
0.761418 0.980880 0.551706
0.887934 0.984320 0.551080
1.000000 0.987635 0.550477
1.000000 0.989086 0.548009
0.000000 0.000000 0.710644
0.008436 0.000000 0.705929
0.142130 0.000000 0.702908
0.282701 0.000000 0.699732
0.427855 0.000000 0.696453
0.573009 0.000000 0.693173
0.699827 0.000000 0.690308
0.822062 0.000000 0.687546
0.944297 0.000000 0.684785
0.000000 0.098306 0.700451
0.033458 0.097711 0.696106
0.167152 0.098441 0.693085
0.307723 0.099208 0.689910
0.452877 0.100000 0.686630
0.598031 0.100793 0.683351
0.724849 0.101485 0.680485
0.847084 0.102152 0.677724
0.969319 0.102819 0.674962
0.000000 0.222109 0.690258
0.058480 0.221884 0.686283
0.192174 0.222614 0.683263
0.332745 0.223381 0.680087
0.477899 0.224173 0.676807
0.623053 0.224966 0.673528
0.749871 0.225658 0.670663
0.872106 0.226325 0.667901
0.994341 0.226992 0.665140
0.000000 0.348473 0.679855
0.084019 0.348626 0.676258
0.217714 0.349356 0.673237
0.358284 0.350123 0.670061
0.503438 0.350915 0.666782
0.648592 0.351708 0.663502
0.775411 0.352400 0.660637
0.897646 0.353067 0.657875
1.000000 0.355866 0.656792
0.000000 0.476545 0.669310
0.109904 0.477081 0.666096
0.243599 0.477811 0.663076
0.384169 0.478578 0.659900
0.529212 0.480382 0.657445
0.674020 0.484319 0.656728
0.800537 0.487758 0.656102
0.922481 0.491073 0.655498
1.000000 0.493724 0.654230
0.002094 0.604806 0.658955
0.135606 0.607205 0.657295
0.268982 0.610831 0.656635
0.409217 0.614643 0.655941
0.554026 0.618580 0.655224
0.698834 0.622516 0.654507
0.825351 0.625956 0.653881
0.947295 0.629271 0.653278
1.000000 0.631581 0.651669
0.024207 0.725982 0.655988
0.157584 0.729608 0.655328
0.290960 0.733234 0.654668
0.431195 0.737047 0.653974
0.576004 0.740983 0.653257
0.720812 0.744920 0.652540
0.847329 0.748359 0.651914
0.969273 0.751674 0.651311
1.000000 0.753683 0.649400
0.045476 0.844438 0.654085
0.178853 0.848063 0.653425
0.312229 0.851689 0.652764
0.452464 0.855502 0.652070
0.597273 0.859438 0.651354
0.742081 0.863375 0.650637
0.868598 0.866815 0.650011
0.990542 0.870130 0.649407
1.000000 0.871846 0.647205
0.066745 0.962893 0.652181
0.200122 0.966519 0.651521
0.333498 0.970145 0.650861
0.473733 0.973957 0.650167
0.618542 0.977894 0.649450
0.763350 0.981830 0.648733
0.889867 0.985270 0.648107
1.000000 0.988585 0.647504
1.000000 0.990009 0.645009
0.000000 0.000000 0.807023
0.010452 0.000000 0.802337
0.144146 0.000000 0.799317
0.284716 0.000000 0.796141
0.429870 0.000000 0.792861
0.575024 0.000000 0.789582
0.701843 0.000000 0.786717
0.824078 0.000000 0.783955
0.946313 0.000000 0.781193
0.000000 0.098468 0.796830
0.035474 0.097902 0.792515
0.169168 0.098632 0.789494
0.309738 0.099399 0.786318
0.454892 0.100192 0.783039
0.600046 0.100984 0.779759
0.726865 0.101676 0.776894
0.849100 0.102343 0.774132
0.971335 0.103010 0.771371
0.000000 0.222270 0.786637
0.060496 0.222075 0.782692
0.194190 0.222805 0.779671
0.334760 0.223572 0.776496
0.479914 0.224365 0.773216
0.625068 0.225157 0.769937
0.751887 0.225849 0.767071
0.874122 0.226516 0.764310
0.996357 0.227183 0.761548
0.000000 0.348634 0.776233
0.086035 0.348817 0.772666
0.219730 0.349547 0.769646
0.360300 0.350314 0.766470
0.505454 0.351107 0.763190
0.650608 0.351899 0.759911
0.777427 0.352591 0.757046
0.899599 0.353825 0.754746
1.000000 0.356790 0.753792
0.000000 0.476706 0.765689
0.111920 0.477272 0.762505
0.245615 0.478002 0.759484
0.386185 0.478769 0.756308
0.531144 0.481332 0.754472
0.675953 0.485268 0.753755
0.802469 0.488708 0.753129
0.924413 0.492023 0.752525
1.000000 0.494647 0.751231
0.004110 0.604997 0.755364
0.137538 0.608155 0.754322
0.270914 0.611780 0.753662
0.411150 0.615593 0.752968
0.555958 0.619529 0.752251
0.700766 0.623466 0.751534
0.827283 0.626906 0.750908
0.949227 0.630221 0.750305
1.000000 0.632504 0.748669
0.026140 0.726932 0.753015
0.159516 0.730558 0.752355
0.292892 0.734184 0.751695
0.433128 0.737996 0.751001
0.577936 0.741933 0.750284
0.722744 0.745870 0.749567
0.849261 0.749309 0.748941
0.971205 0.752624 0.748338
1.000000 0.754606 0.746401
0.047409 0.845388 0.751112
0.180785 0.849013 0.750452
0.314161 0.852639 0.749792
0.454397 0.856452 0.749097
0.599205 0.860388 0.748381
0.744013 0.864325 0.747664
0.870530 0.867764 0.747038
0.992474 0.871080 0.746434
1.000000 0.872769 0.744205
0.068678 0.963843 0.749208
0.202054 0.967469 0.748548
0.335430 0.971094 0.747888
0.475666 0.974907 0.747194
0.620474 0.978844 0.746477
0.765282 0.982780 0.745761
0.891799 0.986220 0.745134
1.000000 0.989535 0.744531
1.000000 0.990933 0.742010
0.000000 0.000000 0.903402
0.012468 0.000000 0.898746
0.146162 0.000000 0.895725
0.286732 0.000000 0.892549
0.431886 0.000000 0.889270
0.577040 0.000000 0.885991
0.703859 0.000000 0.883125
0.826094 0.000000 0.880364
0.948329 0.000000 0.877602
0.000000 0.098629 0.893209
0.037489 0.098093 0.888923
0.171184 0.098823 0.885903
0.311754 0.099590 0.882727
0.456908 0.100383 0.879447
0.602062 0.101175 0.876168
0.728881 0.101867 0.873303
0.851116 0.102534 0.870541
0.973351 0.103201 0.867779
0.000000 0.222432 0.883016
0.062511 0.222266 0.879101
0.196206 0.222996 0.876080
0.336776 0.223763 0.872904
0.481930 0.224556 0.869625
0.627084 0.225348 0.866345
0.753903 0.226040 0.863480
0.876138 0.226707 0.860719
0.997665 0.227358 0.857941
0.000000 0.348796 0.872612
0.088051 0.349009 0.869075
0.221746 0.349738 0.866054
0.362316 0.350506 0.862878
0.507470 0.351298 0.859599
0.652624 0.352090 0.856320
0.779443 0.352782 0.853454
0.901532 0.354775 0.851773
1.000000 0.357713 0.850793
0.000000 0.476867 0.862068
0.113936 0.477463 0.858914
0.247630 0.478193 0.855893
0.388201 0.478960 0.852717
0.533077 0.482282 0.851499
0.677885 0.486218 0.850782
0.804402 0.489658 0.850156
0.926346 0.492973 0.849552
1.000000 0.495570 0.848231
0.006094 0.605479 0.852009
0.139470 0.609104 0.851349
0.272847 0.612730 0.850689
0.413082 0.616543 0.849995
0.557890 0.620479 0.849278
0.702699 0.624416 0.848561
0.829216 0.627855 0.847935
0.951160 0.631171 0.847332
1.000000 0.633427 0.845670
0.028072 0.727882 0.850042
0.161448 0.731508 0.849382
0.294824 0.735134 0.848722
0.435060 0.738946 0.848028
0.579868 0.742883 0.847311
0.724677 0.746820 0.846595
0.851194 0.750259 0.845968
0.973137 0.753574 0.845365
1.000000 0.755529 0.843401
0.049341 0.846337 0.848139
0.182717 0.849963 0.847479
0.316094 0.853589 0.846819
0.456329 0.857402 0.846125
0.601137 0.861338 0.845408
0.745946 0.865275 0.844691
0.872463 0.868714 0.844065
0.994406 0.872029 0.843461
1.000000 0.873693 0.841206
0.070610 0.964793 0.846235
0.203986 0.968419 0.845575
0.337363 0.972044 0.844915
0.477598 0.975857 0.844221
0.622406 0.979793 0.843504
0.767215 0.983730 0.842788
0.893732 0.987170 0.842161
1.000000 0.990485 0.841558
1.000000 0.991856 0.839011
