luts/steel_blue_thriller.cube
TITLE "Cinema Casino Royale"
LUT_3D_SIZE 5
0.000000 0.000000 0.053841
0.128393 0.000000 0.045901
0.414117 0.000000 0.039445
0.686090 0.000000 0.033301
0.930560 0.000000 0.027777
0.000000 0.221009 0.033455
0.178437 0.221311 0.026256
0.464161 0.222871 0.019800
0.736134 0.224355 0.013656
0.980604 0.225689 0.008132
0.000000 0.475445 0.012506
0.229861 0.476508 0.006068
0.515586 0.478067 0.000000
0.787386 0.481302 0.000000
1.000000 0.487504 0.002364
0.011062 0.719532 0.000000
0.277874 0.726844 0.003920
0.562982 0.734657 0.010588
0.834369 0.742095 0.016936
1.000000 0.747654 0.021515
0.053773 0.956616 0.015674
0.320586 0.963928 0.021914
0.605694 0.971741 0.028582
0.877080 0.979179 0.034930
1.000000 0.984154 0.038925
0.000000 0.000000 0.312041
0.133793 0.000000 0.304181
0.419518 0.000000 0.297725
0.691490 0.000000 0.291581
0.935960 0.000000 0.286057
0.000000 0.221442 0.291655
0.183837 0.221823 0.284536
0.469562 0.223383 0.278080
0.741534 0.224867 0.271936
0.986004 0.226201 0.266412
0.000000 0.475877 0.270706
0.235262 0.477020 0.264348
0.520986 0.478580 0.257893
0.792545 0.483829 0.254817
1.000000 0.489905 0.253055
0.016215 0.722054 0.254703
0.282968 0.729306 0.253383
0.568011 0.737055 0.251972
0.839337 0.744431 0.250630
1.000000 0.749864 0.248225
0.058753 0.958964 0.250897
0.325506 0.966216 0.249576
0.610550 0.973965 0.248165
0.881875 0.981341 0.246823
1.000000 0.986190 0.243834
0.000000 0.000000 0.517887
0.138099 0.000000 0.510091
0.423823 0.000000 0.503635
0.695796 0.000000 0.497491
0.940266 0.000000 0.491967
0.000000 0.221786 0.497501
0.188143 0.222231 0.490445
0.473867 0.223791 0.483990
0.745840 0.225275 0.477845
0.990310 0.226610 0.472322
0.000000 0.476222 0.476552
0.239567 0.477428 0.470258
0.525291 0.478988 0.463803
0.796672 0.485858 0.462048
1.000000 0.491877 0.460229
0.020343 0.724083 0.461934
0.287095 0.731334 0.460614
0.572139 0.739083 0.459203
0.843464 0.746459 0.457860
1.000000 0.751836 0.455399
0.062881 0.960993 0.458127
0.329633 0.968245 0.456807
0.614677 0.975994 0.455396
0.886002 0.983370 0.454053
1.000000 0.988162 0.451008
0.000000 0.000000 0.710644
0.142130 0.000000 0.702908
0.427855 0.000000 0.696453
0.699827 0.000000 0.690308
0.944297 0.000000 0.684785
0.000000 0.222109 0.690258
0.192174 0.222614 0.683263
0.477899 0.224173 0.676807
0.749871 0.225658 0.670663
0.994341 0.226992 0.665140
0.000000 0.476545 0.669310
0.243599 0.477811 0.663076
0.529212 0.480382 0.657445
0.800537 0.487758 0.656102
1.000000 0.493724 0.654230
0.024207 0.725982 0.655988
0.290960 0.733234 0.654668
0.576004 0.740983 0.653257
0.847329 0.748359 0.651914
1.000000 0.753683 0.649400
0.066745 0.962893 0.652181
0.333498 0.970145 0.650861
0.618542 0.977894 0.649450
0.889867 0.985270 0.648107
1.000000 0.990009 0.645009
0.000000 0.000000 0.903402
0.146162 0.000000 0.895725
0.431886 0.000000 0.889270
0.703859 0.000000 0.883125
0.948329 0.000000 0.877602
0.000000 0.222432 0.883016
0.196206 0.222996 0.876080
0.481930 0.224556 0.869625
0.753903 0.226040 0.863480
0.997665 0.227358 0.857941
0.000000 0.476867 0.862068
0.247630 0.478193 0.855893
0.533077 0.482282 0.851499
0.804402 0.489658 0.850156
1.000000 0.495570 0.848231
0.028072 0.727882 0.850042
0.294824 0.735134 0.848722
0.579868 0.742883 0.847311
0.851194 0.750259 0.845968
1.000000 0.755529 0.843401
0.070610 0.964793 0.846235
0.337363 0.972044 0.844915
0.622406 0.979793 0.843504
0.893732 0.987170 0.842161
1.000000 0.991856 0.839011
