luts/steel_blue_thriller.cube
TITLE "Cinema Casino Royale"
LUT_3D_SIZE 33
0.000000 0.000000 0.053841
0.000000 0.000000 0.052313
0.000000 0.000000 0.050785
0.000000 0.000000 0.049676
0.000000 0.000000 0.048921
0.028122 0.000000 0.048166
0.061546 0.000000 0.047411
0.094969 0.000000 0.046656
0.128393 0.000000 0.045901
0.161817 0.000000 0.045146
0.196386 0.000000 0.044365
0.232675 0.000000 0.043545
0.268963 0.000000 0.042725
0.305252 0.000000 0.041905
0.341540 0.000000 0.041085
0.377829 0.000000 0.040265
0.414117 0.000000 0.039445
0.450406 0.000000 0.038626
0.486694 0.000000 0.037806
0.522983 0.000000 0.036986
0.559271 0.000000 0.036166
0.594414 0.000000 0.035372
0.624973 0.000000 0.034682
0.655531 0.000000 0.033991
0.686090 0.000000 0.033301
0.716649 0.000000 0.032610
0.747208 0.000000 0.031920
0.777766 0.000000 0.031230
0.808325 0.000000 0.030539
0.838884 0.000000 0.029849
0.869443 0.000000 0.029158
0.900001 0.000000 0.028468
0.930560 0.000000 0.027777
0.000000 0.004355 0.051292
0.000000 0.003765 0.049765
0.000000 0.003175 0.048237
0.000000 0.003096 0.047221
0.000954 0.003279 0.046466
0.034378 0.003461 0.045710
0.067801 0.003643 0.044955
0.101225 0.003826 0.044200
0.134649 0.004008 0.043445
0.168072 0.004191 0.042690
0.202642 0.004379 0.041909
0.238930 0.004577 0.041089
0.275219 0.004776 0.040269
0.311507 0.004974 0.039449
0.347796 0.005172 0.038629
0.384084 0.005370 0.037810
0.420373 0.005568 0.036990
0.456661 0.005766 0.036170
0.492950 0.005964 0.035350
0.529238 0.006162 0.034530
0.565527 0.006360 0.033710
0.600669 0.006552 0.032916
0.631228 0.006719 0.032226
0.661787 0.006885 0.031536
0.692346 0.007052 0.030845
0.722904 0.007219 0.030155
0.753463 0.007386 0.029464
0.784022 0.007553 0.028774
0.814581 0.007719 0.028083
0.845139 0.007886 0.027393
0.875698 0.008053 0.026703
0.906257 0.008220 0.026012
0.936815 0.008387 0.025322
0.000000 0.035306 0.048744
0.000000 0.034715 0.047216
0.000000 0.034125 0.045689
0.000000 0.034139 0.044765
0.007210 0.034322 0.044010
0.040633 0.034504 0.043255
0.074057 0.034687 0.042500
0.107480 0.034869 0.041745
0.140904 0.035052 0.040989
0.174328 0.035234 0.040234
0.208897 0.035423 0.039453
0.245186 0.035621 0.038633
0.281474 0.035819 0.037814
0.317763 0.036017 0.036994
0.354051 0.036215 0.036174
0.390340 0.036413 0.035354
0.426628 0.036611 0.034534
0.462917 0.036809 0.033714
0.499205 0.037007 0.032894
0.535494 0.037205 0.032075
0.571782 0.037403 0.031255
0.606925 0.037595 0.030461
0.637484 0.037762 0.029770
0.668042 0.037929 0.029080
0.698601 0.038096 0.028389
0.729160 0.038262 0.027699
0.759719 0.038429 0.027009
0.790277 0.038596 0.026318
0.820836 0.038763 0.025628
0.851395 0.038929 0.024937
0.881953 0.039096 0.024247
0.912512 0.039263 0.023557
0.943071 0.039430 0.022866
0.000000 0.066256 0.046196
0.000000 0.065666 0.044668
0.000000 0.065076 0.043140
0.000000 0.065183 0.042309
0.013465 0.065365 0.041554
0.046889 0.065547 0.040799
0.080312 0.065730 0.040044
0.113736 0.065912 0.039289
0.147159 0.066095 0.038534
0.180583 0.066277 0.037779
0.215153 0.066466 0.036998
0.251441 0.066664 0.036178
0.287730 0.066862 0.035358
0.324018 0.067060 0.034538
0.360307 0.067258 0.033718
0.396595 0.067456 0.032898
0.432884 0.067654 0.032078
0.469172 0.067852 0.031259
0.505461 0.068050 0.030439
0.541749 0.068248 0.029619
0.578038 0.068447 0.028799
0.613180 0.068638 0.028005
0.643739 0.068805 0.027315
0.674298 0.068972 0.026624
0.704857 0.069139 0.025934
0.735415 0.069306 0.025243
0.765974 0.069472 0.024553
0.796533 0.069639 0.023863
0.827091 0.069806 0.023172
0.857650 0.069973 0.022482
0.888209 0.070140 0.021791
0.918768 0.070306 0.021101
0.949326 0.070473 0.020411
0.000000 0.097207 0.043648
0.000000 0.096617 0.042120
0.000000 0.096043 0.040609
0.000000 0.096226 0.039854
0.019720 0.096408 0.039099
0.053144 0.096591 0.038344
0.086568 0.096773 0.037588
0.119991 0.096956 0.036833
0.153415 0.097138 0.036078
0.186839 0.097320 0.035323
0.221408 0.097509 0.034542
0.257697 0.097707 0.033722
0.293985 0.097905 0.032902
0.330274 0.098103 0.032082
0.366562 0.098301 0.031263
0.402851 0.098499 0.030443
0.439139 0.098698 0.029623
0.475428 0.098896 0.028803
0.511716 0.099094 0.027983
0.548005 0.099292 0.027163
0.584293 0.099490 0.026343
0.619436 0.099682 0.025549
0.649995 0.099848 0.024859
0.680553 0.100015 0.024169
0.711112 0.100182 0.023478
0.741671 0.100349 0.022788
0.772229 0.100516 0.022097
0.802788 0.100682 0.021407
0.833347 0.100849 0.020717
0.863906 0.101016 0.020026
0.894464 0.101183 0.019336
0.925023 0.101350 0.018645
0.955582 0.101516 0.017955
0.000000 0.128158 0.041099
0.000000 0.127567 0.039572
0.000000 0.127087 0.038153
0.000000 0.127269 0.037398
0.025976 0.127452 0.036643
0.059400 0.127634 0.035888
0.092823 0.127816 0.035133
0.126247 0.127999 0.034378
0.159670 0.128181 0.033622
0.193094 0.128364 0.032867
0.227664 0.128552 0.032086
0.263952 0.128750 0.031266
0.300241 0.128949 0.030447
0.336529 0.129147 0.029627
0.372818 0.129345 0.028807
0.409106 0.129543 0.027987
0.445395 0.129741 0.027167
0.481683 0.129939 0.026347
0.517972 0.130137 0.025527
0.554260 0.130335 0.024708
0.590549 0.130533 0.023888
0.625691 0.130725 0.023094
0.656250 0.130892 0.022403
0.686809 0.131058 0.021713
0.717367 0.131225 0.021022
0.747926 0.131392 0.020332
0.778485 0.131559 0.019642
0.809044 0.131726 0.018951
0.839602 0.131892 0.018261
0.870161 0.132059 0.017570
0.900720 0.132226 0.016880
0.931279 0.132393 0.016190
0.961837 0.132560 0.015499
0.000000 0.159108 0.038551
0.000000 0.158518 0.037023
0.000000 0.158130 0.035698
0.000000 0.158312 0.034943
0.032231 0.158495 0.034187
0.065655 0.158677 0.033432
0.099079 0.158860 0.032677
0.132502 0.159042 0.031922
0.165926 0.159225 0.031167
0.199350 0.159407 0.030412
0.233919 0.159596 0.029631
0.270208 0.159794 0.028811
0.306496 0.159992 0.027991
0.342785 0.160190 0.027171
0.379073 0.160388 0.026351
0.415362 0.160586 0.025531
0.451650 0.160784 0.024711
0.487939 0.160982 0.023892
0.524227 0.161180 0.023072
0.560516 0.161378 0.022252
0.596804 0.161576 0.021432
0.631947 0.161768 0.020638
0.662506 0.161935 0.019948
0.693064 0.162102 0.019257
0.723623 0.162268 0.018567
0.754182 0.162435 0.017876
0.784740 0.162602 0.017186
0.815299 0.162769 0.016496
0.845858 0.162936 0.015805
0.876417 0.163102 0.015115
0.906975 0.163269 0.014424
0.937534 0.163436 0.013734
0.968093 0.163603 0.013044
0.000000 0.190059 0.036003
0.000000 0.189469 0.034475
0.000000 0.189173 0.033242
0.005063 0.189356 0.032487
0.038487 0.189538 0.031732
0.071911 0.189720 0.030977
0.105334 0.189903 0.030221
0.138758 0.190085 0.029466
0.172181 0.190268 0.028711
0.205605 0.190450 0.027956
0.240175 0.190639 0.027175
0.276463 0.190837 0.026355
0.312752 0.191035 0.025535
0.349040 0.191233 0.024715
0.385329 0.191431 0.023896
0.421617 0.191629 0.023076
0.457906 0.191827 0.022256
0.494194 0.192025 0.021436
0.530483 0.192223 0.020616
0.566771 0.192421 0.019796
0.603060 0.192620 0.018976
0.638202 0.192811 0.018182
0.668761 0.192978 0.017492
0.699320 0.193145 0.016802
0.729878 0.193312 0.016111
0.760437 0.193479 0.015421
0.790996 0.193645 0.014730
0.821555 0.193812 0.014040
0.852113 0.193979 0.013350
0.882672 0.194146 0.012659
0.913231 0.194312 0.011969
0.943790 0.194479 0.011278
0.974348 0.194646 0.010588
0.000000 0.221009 0.033455
0.000000 0.220419 0.031927
0.000000 0.220216 0.030786
0.011319 0.220399 0.030031
0.044742 0.220581 0.029276
0.078166 0.220764 0.028521
0.111590 0.220946 0.027766
0.145013 0.221129 0.027011
0.178437 0.221311 0.026256
0.211861 0.221493 0.025500
0.246430 0.221682 0.024719
0.282719 0.221880 0.023900
0.319007 0.222078 0.023080
0.355296 0.222276 0.022260
0.391584 0.222474 0.021440
0.427873 0.222672 0.020620
0.464161 0.222871 0.019800
0.500450 0.223069 0.018980
0.536738 0.223267 0.018160
0.573027 0.223465 0.017341
0.609315 0.223663 0.016521
0.644458 0.223855 0.015727
0.675016 0.224021 0.015036
0.705575 0.224188 0.014346
0.736134 0.224355 0.013656
0.766693 0.224522 0.012965
0.797251 0.224689 0.012275
0.827810 0.224855 0.011584
0.858369 0.225022 0.010894
0.888928 0.225189 0.010203
0.919486 0.225356 0.009513
0.950045 0.225523 0.008823
0.980604 0.225689 0.008132
0.000000 0.251960 0.030906
0.000000 0.251370 0.029379
0.000000 0.251260 0.028331
0.017574 0.251442 0.027576
0.050998 0.251625 0.026820
0.084422 0.251807 0.026065
0.117845 0.251989 0.025310
0.151269 0.252172 0.024555
0.184692 0.252354 0.023800
0.218116 0.252537 0.023045
0.252686 0.252725 0.022264
0.288974 0.252923 0.021444
0.325263 0.253122 0.020624
0.361551 0.253320 0.019804
0.397840 0.253518 0.018984
0.434128 0.253716 0.018164
0.470417 0.253914 0.017345
0.506705 0.254112 0.016525
0.542994 0.254310 0.015705
0.579282 0.254508 0.014885
0.615571 0.254706 0.014065
0.650713 0.254898 0.013271
0.681272 0.255065 0.012581
0.711831 0.255231 0.011890
0.742389 0.255398 0.011200
0.772948 0.255565 0.010509
0.803507 0.255732 0.009819
0.834066 0.255899 0.009129
0.864624 0.256065 0.008438
0.895183 0.256232 0.007748
0.925742 0.256399 0.007057
0.956301 0.256566 0.006367
0.986859 0.256733 0.005677
0.000000 0.283338 0.028323
0.000000 0.282748 0.026795
0.000000 0.282731 0.025841
0.023916 0.282914 0.025086
0.057340 0.283096 0.024331
0.090763 0.283278 0.023576
0.124187 0.283461 0.022821
0.157611 0.283643 0.022065
0.191034 0.283826 0.021310
0.224458 0.284008 0.020555
0.259027 0.284197 0.019774
0.295316 0.284395 0.018954
0.331604 0.284593 0.018134
0.367893 0.284791 0.017315
0.404181 0.284989 0.016495
0.440470 0.285187 0.015675
0.476758 0.285385 0.014855
0.513047 0.285583 0.014035
0.549335 0.285781 0.013215
0.585624 0.285979 0.012395
0.621912 0.286177 0.011576
0.657055 0.286369 0.010782
0.687614 0.286536 0.010091
0.718172 0.286703 0.009401
0.748731 0.286870 0.008710
0.779290 0.287036 0.008020
0.809849 0.287203 0.007330
0.840407 0.287370 0.006639
0.870966 0.287537 0.005949
0.901525 0.287704 0.005258
0.932084 0.287870 0.004568
0.962642 0.288037 0.003877
0.993201 0.288204 0.003187
0.000000 0.315356 0.025687
0.000000 0.314765 0.024159
0.000000 0.314845 0.023301
0.030387 0.315027 0.022546
0.063811 0.315210 0.021791
0.097234 0.315392 0.021035
0.130658 0.315575 0.020280
0.164082 0.315757 0.019525
0.197505 0.315939 0.018770
0.230929 0.316122 0.018015
0.265499 0.316311 0.017234
0.301787 0.316509 0.016414
0.338076 0.316707 0.015594
0.374364 0.316905 0.014774
0.410653 0.317103 0.013954
0.446941 0.317301 0.013135
0.483230 0.317499 0.012315
0.519518 0.317697 0.011495
0.555807 0.317895 0.010675
0.592095 0.318093 0.009855
0.628384 0.318291 0.009035
0.663526 0.318483 0.008241
0.694085 0.318650 0.007551
0.724644 0.318817 0.006860
0.755202 0.318983 0.006170
0.785761 0.319150 0.005480
0.816320 0.319317 0.004789
0.846879 0.319484 0.004099
0.877437 0.319651 0.003408
0.907996 0.319817 0.002718
0.938555 0.319984 0.002028
0.969114 0.320151 0.001337
0.998131 0.320282 0.000611
0.000000 0.347374 0.023051
0.000000 0.346783 0.021523
0.003435 0.346959 0.020761
0.036858 0.347141 0.020005
0.070282 0.347323 0.019250
0.103706 0.347506 0.018495
0.137129 0.347688 0.017740
0.170553 0.347871 0.016985
0.203977 0.348053 0.016230
0.237400 0.348236 0.015475
0.271970 0.348424 0.014694
0.308258 0.348622 0.013874
0.344547 0.348820 0.013054
0.380835 0.349018 0.012234
0.417124 0.349216 0.011414
0.453412 0.349415 0.010594
0.489701 0.349613 0.009774
0.525989 0.349811 0.008955
0.562278 0.350009 0.008135
0.598566 0.350207 0.007315
0.634855 0.350405 0.006495
0.669997 0.350597 0.005701
0.700556 0.350763 0.005011
0.731115 0.350930 0.004320
0.761674 0.351097 0.003630
0.792232 0.351264 0.002939
0.822791 0.351431 0.002249
0.853350 0.351597 0.001558
0.883909 0.351764 0.000868
0.914467 0.351931 0.000178
0.945026 0.352098 0.000000
0.975585 0.352265 0.000000
1.000000 0.352300 0.000000
0.000000 0.379391 0.020415
0.000000 0.378890 0.018975
0.009906 0.379072 0.018220
0.043330 0.379255 0.017465
0.076753 0.379437 0.016710
0.110177 0.379620 0.015955
0.143601 0.379802 0.015200
0.177024 0.379984 0.014445
0.210448 0.380167 0.013689
0.243871 0.380349 0.012934
0.278441 0.380538 0.012153
0.314729 0.380736 0.011333
0.351018 0.380934 0.010513
0.387306 0.381132 0.009694
0.423595 0.381330 0.008874
0.459883 0.381528 0.008054
0.496172 0.381726 0.007234
0.532460 0.381924 0.006414
0.568749 0.382122 0.005594
0.605038 0.382321 0.004774
0.641326 0.382519 0.003955
0.676469 0.382710 0.003161
0.707027 0.382877 0.002470
0.737586 0.383044 0.001780
0.768145 0.383211 0.001089
0.798704 0.383378 0.000399
0.829262 0.383544 0.000000
0.859821 0.383711 0.000000
0.890380 0.383878 0.000000
0.920938 0.384045 0.000000
0.951497 0.384212 0.000000
0.982056 0.384378 0.000000
1.000000 0.384318 0.000000
0.000000 0.411409 0.017778
0.000000 0.411004 0.016435
0.016377 0.411186 0.015680
0.049801 0.411368 0.014925
0.083224 0.411551 0.014170
0.116648 0.411733 0.013414
0.150072 0.411916 0.012659
0.183495 0.412098 0.011904
0.216919 0.412281 0.011149
0.250343 0.412463 0.010394
0.284912 0.412652 0.009613
0.321201 0.412850 0.008793
0.357489 0.413048 0.007973
0.393778 0.413246 0.007153
0.430066 0.413444 0.006333
0.466355 0.413642 0.005514
0.502643 0.413840 0.004694
0.538932 0.414038 0.003874
0.575220 0.414236 0.003054
0.611509 0.414434 0.002234
0.647797 0.414632 0.001414
0.682940 0.414824 0.000620
0.713498 0.414991 0.000000
0.744057 0.415158 0.000000
0.774616 0.415324 0.000000
0.805175 0.415491 0.000000
0.835733 0.415658 0.000000
0.866292 0.415825 0.000000
0.896851 0.415992 0.000000
0.927393 0.416331 0.000000
0.957886 0.417167 0.000000
0.988378 0.418003 0.000000
1.000000 0.418525 0.000000
0.000000 0.443427 0.015142
0.000000 0.443117 0.013895
0.022848 0.443300 0.013140
0.056272 0.443482 0.012384
0.089696 0.443665 0.011629
0.123119 0.443847 0.010874
0.156543 0.444029 0.010119
0.189967 0.444212 0.009364
0.223390 0.444394 0.008609
0.256814 0.444577 0.007854
0.291383 0.444765 0.007073
0.327672 0.444963 0.006253
0.363960 0.445161 0.005433
0.400249 0.445360 0.004613
0.436537 0.445558 0.003793
0.472826 0.445756 0.002973
0.509114 0.445954 0.002153
0.545403 0.446152 0.001334
0.581691 0.446350 0.000514
0.617980 0.446548 0.000000
0.654268 0.446746 0.000000
0.689411 0.446938 0.000000
0.719970 0.447105 0.000000
0.750528 0.447271 0.000000
0.781087 0.447438 0.000000
0.811646 0.447605 0.000000
0.842143 0.448399 0.000000
0.872636 0.449235 0.000000
0.903129 0.450070 0.000000
0.933621 0.450906 0.000000
0.964114 0.451742 0.000000
0.994607 0.452577 0.000000
1.000000 0.453014 0.000000
0.000000 0.475445 0.012506
0.000000 0.475231 0.011354
0.029320 0.475413 0.010599
0.062743 0.475596 0.009844
0.096167 0.475778 0.009089
0.129590 0.475961 0.008334
0.163014 0.476143 0.007579
0.196438 0.476325 0.006824
0.229861 0.476508 0.006068
0.263285 0.476690 0.005313
0.297855 0.476879 0.004532
0.334143 0.477077 0.003712
0.370432 0.477275 0.002893
0.406720 0.477473 0.002073
0.443009 0.477671 0.001253
0.479297 0.477869 0.000433
0.515586 0.478067 0.000000
0.551874 0.478266 0.000000
0.588163 0.478464 0.000000
0.624451 0.478662 0.000000
0.660740 0.478860 0.000000
0.695882 0.479052 0.000000
0.726400 0.479631 0.000000
0.756893 0.480467 0.000000
0.787386 0.481302 0.000000
0.817879 0.482138 0.000000
0.848372 0.482974 0.000000
0.878864 0.483809 0.000000
0.909357 0.484645 0.000000
0.939850 0.485481 0.000708
0.970343 0.486316 0.001421
1.000000 0.487152 0.002134
1.000000 0.487504 0.002364
0.000000 0.507463 0.009870
0.002367 0.507345 0.008814
0.035791 0.507527 0.008059
0.069214 0.507709 0.007304
0.102638 0.507892 0.006549
0.136062 0.508074 0.005793
0.169485 0.508257 0.005038
0.202909 0.508439 0.004283
0.236333 0.508622 0.003528
0.269756 0.508804 0.002773
0.304326 0.508993 0.001992
0.340614 0.509191 0.001172
0.376903 0.509389 0.000352
0.413191 0.509587 0.000000
0.449480 0.509785 0.000000
0.485768 0.509983 0.000000
0.522057 0.510181 0.000000
0.558345 0.510379 0.000000
0.594634 0.510577 0.000000
0.630859 0.511417 0.000000
0.667069 0.512409 0.000000
0.702136 0.513370 0.000000
0.732629 0.514206 0.000000
0.763122 0.515042 0.000000
0.793615 0.515877 0.000000
0.824108 0.516713 0.000479
0.854600 0.517548 0.001192
0.885093 0.518384 0.001906
0.915586 0.519220 0.002619
0.946079 0.520055 0.003332
0.976572 0.520891 0.004045
1.000000 0.521727 0.004758
1.000000 0.521993 0.004903
0.000000 0.539481 0.007234
0.008838 0.539458 0.006274
0.042262 0.539641 0.005519
0.075686 0.539823 0.004763
0.109109 0.540006 0.004008
0.142533 0.540188 0.003253
0.175956 0.540370 0.002498
0.209380 0.540553 0.001743
0.242804 0.540735 0.000988
0.276227 0.540918 0.000233
0.310797 0.541106 0.000000
0.347085 0.541305 0.000000
0.383374 0.541503 0.000000
0.419662 0.541701 0.000000
0.455951 0.541899 0.000000
0.492239 0.542097 0.000000
0.528457 0.543015 0.000000
0.564667 0.544007 0.000000
0.600878 0.544999 0.000000
0.637088 0.545992 0.000000
0.673298 0.546984 0.000000
0.708365 0.547945 0.000251
0.738858 0.548781 0.000964
0.769351 0.549616 0.001677
0.799843 0.550452 0.002390
0.830336 0.551288 0.003103
0.860829 0.552123 0.003817
0.891322 0.552959 0.004530
0.921815 0.553795 0.005243
0.952308 0.554630 0.005956
0.982801 0.555466 0.006669
1.000000 0.556301 0.007383
1.000000 0.556483 0.007442
0.000000 0.571499 0.004598
0.015310 0.571572 0.003733
0.048733 0.571754 0.002978
0.082157 0.571937 0.002223
0.115580 0.572119 0.001468
0.149004 0.572302 0.000713
0.182428 0.572484 0.000000
0.215851 0.572667 0.000000
0.249275 0.572849 0.000000
0.282699 0.573031 0.000000
0.317268 0.573220 0.000000
0.353557 0.573418 0.000000
0.389845 0.573620 0.000000
0.426055 0.574612 0.000000
0.462265 0.575605 0.000000
0.498476 0.576597 0.000000
0.534686 0.577589 0.000000
0.570896 0.578582 0.000000
0.607106 0.579574 0.000361
0.643317 0.580566 0.001208
0.679527 0.581559 0.002055
0.714594 0.582520 0.002875
0.745087 0.583355 0.003588
0.775579 0.584191 0.004301
0.806072 0.585027 0.005014
0.836565 0.585862 0.005728
0.867058 0.586698 0.006441
0.897551 0.587534 0.007154
0.928044 0.588369 0.007867
0.958536 0.589205 0.008580
0.989029 0.590041 0.009294
1.000000 0.590840 0.009971
1.000000 0.590973 0.009981
0.000000 0.603517 0.001962
0.021781 0.603686 0.001193
0.055204 0.603868 0.000438
0.088628 0.604051 0.000000
0.122052 0.604233 0.000000
0.155475 0.604415 0.000000
0.188899 0.604598 0.000000
0.222322 0.604780 0.000000
0.255746 0.604963 0.000000
0.289158 0.605265 0.000000
0.323653 0.606210 0.000000
0.359863 0.607202 0.000000
0.396074 0.608195 0.000000
0.432284 0.609187 0.000000
0.468494 0.610179 0.000000
0.504704 0.611172 0.000444
0.540915 0.612164 0.001291
0.577125 0.613156 0.002138
0.613335 0.614149 0.002985
0.649545 0.615141 0.003832
0.685756 0.616133 0.004679
0.720822 0.617094 0.005499
0.751315 0.617930 0.006212
0.781808 0.618766 0.006925
0.812301 0.619601 0.007639
0.842794 0.620437 0.008352
0.873287 0.621273 0.009065
0.903780 0.622108 0.009778
0.934272 0.622944 0.010491
0.964765 0.623780 0.011205
0.995258 0.624615 0.011918
1.000000 0.625330 0.012510
1.000000 0.625462 0.012520
0.000000 0.634699 0.000000
0.028067 0.634882 0.000000
0.061491 0.635064 0.000000
0.094914 0.635247 0.000000
0.128338 0.635429 0.000000
0.161762 0.635612 0.000000
0.195154 0.636110 0.000000
0.228506 0.637024 0.000000
0.261857 0.637938 0.000000
0.295209 0.638852 0.000000
0.329704 0.639797 0.000000
0.365914 0.640789 0.000000
0.402124 0.641782 0.000453
0.438335 0.642774 0.001300
0.474545 0.643766 0.002146
0.510755 0.644759 0.002993
0.546965 0.645751 0.003840
0.583176 0.646743 0.004687
0.619386 0.647736 0.005534
0.655596 0.648728 0.006381
0.691806 0.649720 0.007228
0.726873 0.650681 0.008048
0.757366 0.651517 0.008761
0.787859 0.652353 0.009475
0.818352 0.653188 0.010188
0.848845 0.654024 0.010901
0.879337 0.654860 0.011614
0.909830 0.655695 0.012327
0.940323 0.656531 0.013041
0.970816 0.657366 0.013754
1.000000 0.658202 0.014467
1.000000 0.658834 0.014976
1.000000 0.658966 0.014986
0.000190 0.662226 0.000000
0.033614 0.662408 0.000000
0.067037 0.662590 0.000000
0.100438 0.663003 0.000000
0.133790 0.663917 0.000000
0.167141 0.664831 0.000000
0.200493 0.665745 0.000000
0.233845 0.666659 0.000000
0.267196 0.667573 0.000000
0.300548 0.668487 0.000201
0.335043 0.669432 0.001008
0.371253 0.670425 0.001855
0.407463 0.671417 0.002702
0.443674 0.672409 0.003549
0.479884 0.673402 0.004396
0.516094 0.674394 0.005243
0.552304 0.675386 0.006090
0.588515 0.676379 0.006937
0.624725 0.677371 0.007783
0.660935 0.678363 0.008630
0.697145 0.679356 0.009477
0.732212 0.680317 0.010297
0.762705 0.681152 0.011011
0.793198 0.681988 0.011724
0.823691 0.682824 0.012437
0.854184 0.683659 0.013150
0.884676 0.684495 0.013863
0.915169 0.685331 0.014577
0.945662 0.686166 0.015290
0.976155 0.687002 0.016003
1.000000 0.687838 0.016716
1.000000 0.688397 0.017153
1.000000 0.688529 0.017162
0.005723 0.689897 0.000000
0.039074 0.690811 0.000000
0.072426 0.691725 0.000000
0.105777 0.692639 0.000000
0.139129 0.693553 0.000000
0.172480 0.694467 0.000000
0.205832 0.695381 0.000110
0.239184 0.696295 0.000890
0.272535 0.697209 0.001671
0.305887 0.698123 0.002451
0.340382 0.699068 0.003257
0.376592 0.700060 0.004104
0.412802 0.701053 0.004951
0.449012 0.702045 0.005798
0.485223 0.703037 0.006645
0.521433 0.704030 0.007492
0.557643 0.705022 0.008339
0.593854 0.706014 0.009186
0.630064 0.707007 0.010033
0.666274 0.707999 0.010880
0.702484 0.708991 0.011727
0.737551 0.709952 0.012547
0.768044 0.710788 0.013260
0.798537 0.711624 0.013973
0.829030 0.712459 0.014686
0.859523 0.713295 0.015399
0.890015 0.714131 0.016113
0.920508 0.714966 0.016826
0.951001 0.715802 0.017539
0.981494 0.716637 0.018252
1.000000 0.717473 0.018965
1.000000 0.717959 0.019329
1.000000 0.718091 0.019339
0.011062 0.719532 0.000000
0.044413 0.720446 0.000000
0.077765 0.721360 0.000000
0.111116 0.722274 0.000020
0.144468 0.723188 0.000800
0.177819 0.724102 0.001580
0.211171 0.725016 0.002360
0.244522 0.725930 0.003140
0.277874 0.726844 0.003920
0.311226 0.727758 0.004700
0.345721 0.728703 0.005507
0.381931 0.729696 0.006354
0.418141 0.730688 0.007200
0.454351 0.731680 0.008047
0.490562 0.732673 0.008894
0.526772 0.733665 0.009741
0.562982 0.734657 0.010588
0.599192 0.735650 0.011435
0.635403 0.736642 0.012282
0.671613 0.737634 0.013129
0.707823 0.738627 0.013976
0.742890 0.739588 0.014796
0.773383 0.740423 0.015509
0.803876 0.741259 0.016222
0.834369 0.742095 0.016936
0.864861 0.742930 0.017649
0.895354 0.743766 0.018362
0.925847 0.744602 0.019075
0.956340 0.745437 0.019788
0.986833 0.746273 0.020502
1.000000 0.747109 0.021215
1.000000 0.747522 0.021505
1.000000 0.747654 0.021515
0.016400 0.749168 0.000000
0.049752 0.750082 0.000709
0.083104 0.750996 0.001489
0.116455 0.751910 0.002269
0.149807 0.752824 0.003049
0.183158 0.753738 0.003829
0.216510 0.754652 0.004609
0.249861 0.755566 0.005389
0.283213 0.756480 0.006169
0.316565 0.757394 0.006949
0.351060 0.758339 0.007756
0.387270 0.759331 0.008603
0.423480 0.760324 0.009450
0.459690 0.761316 0.010297
0.495901 0.762308 0.011144
0.532111 0.763301 0.011991
0.568321 0.764293 0.012837
0.604531 0.765285 0.013684
0.640742 0.766278 0.014531
0.676952 0.767270 0.015378
0.713162 0.768262 0.016225
0.748229 0.769223 0.017045
0.778722 0.770059 0.017758
0.809215 0.770895 0.018472
0.839708 0.771730 0.019185
0.870200 0.772566 0.019898
0.900693 0.773401 0.020611
0.931186 0.774237 0.021324
0.961679 0.775073 0.022038
0.992172 0.775908 0.022751
1.000000 0.776744 0.023464
1.000000 0.777084 0.023682
1.000000 0.777216 0.023691
0.021739 0.778803 0.002178
0.055091 0.779717 0.002958
0.088443 0.780631 0.003738
0.121794 0.781545 0.004518
0.155146 0.782459 0.005298
0.188497 0.783373 0.006078
0.221849 0.784287 0.006858
0.255200 0.785201 0.007638
0.288552 0.786115 0.008418
0.321903 0.787029 0.009198
0.356398 0.787974 0.010005
0.392609 0.788967 0.010852
0.428819 0.789959 0.011699
0.465029 0.790951 0.012546
0.501240 0.791944 0.013393
0.537450 0.792936 0.014240
0.573660 0.793928 0.015087
0.609870 0.794921 0.015934
0.646081 0.795913 0.016781
0.682291 0.796905 0.017627
0.718501 0.797898 0.018474
0.753568 0.798859 0.019295
0.784061 0.799694 0.020008
0.814554 0.800530 0.020721
0.845046 0.801366 0.021434
0.875539 0.802201 0.022147
0.906032 0.803037 0.022861
0.936525 0.803873 0.023574
0.967018 0.804708 0.024287
