luts/storybook_warmth.cube
TITLE "Cinema Amelie"
LUT_3D_SIZE 33
0.000000 0.000000 0.000000
0.037622 0.000000 0.000000
0.080371 0.000000 0.000000
0.123121 0.000000 0.000000
0.165870 0.000000 0.000000
0.208620 0.000000 0.000000
0.251369 0.000000 0.000000
0.294119 0.000000 0.000000
0.336868 0.000000 0.000000
0.379618 0.000000 0.000000
0.421331 0.000000 0.000000
0.461490 0.000000 0.000000
0.501648 0.000000 0.000000
0.541807 0.000000 0.000000
0.581966 0.000000 0.000000
0.622124 0.000000 0.000000
0.662283 0.000000 0.000000
0.702441 0.000000 0.000000
0.742600 0.000000 0.000000
0.782759 0.000000 0.000000
0.818150 0.000000 0.000000
0.852350 0.000000 0.000000
0.886549 0.000000 0.000000
0.920749 0.000000 0.000000
0.954948 0.000000 0.000000
0.989148 0.000000 0.000000
1.000000 0.000000 0.000000
1.000000 0.000000 0.000000
1.000000 0.000000 0.000000
1.000000 0.000000 0.000000
1.000000 0.000000 0.000000
1.000000 0.000000 0.000000
1.000000 0.000000 0.000000
0.000000 0.006556 0.000000
0.032062 0.004851 0.000000
0.074812 0.003147 0.000000
0.117561 0.001443 0.000000
0.160311 0.000000 0.000000
0.203060 0.000000 0.000000
0.245810 0.000000 0.000000
0.288559 0.000000 0.000000
0.331309 0.000000 0.000000
0.374058 0.000000 0.000000
0.415772 0.000000 0.000000
0.455930 0.000000 0.000000
0.496089 0.000000 0.000000
0.536247 0.000000 0.000000
0.576406 0.000000 0.000000
0.616565 0.000000 0.000000
0.656723 0.000000 0.000000
0.696882 0.000000 0.000000
0.737040 0.000000 0.000000
0.777199 0.000000 0.000000
0.812590 0.000000 0.000000
0.846790 0.000000 0.000000
0.880990 0.000000 0.000000
0.915189 0.000000 0.000000
0.949389 0.000000 0.000000
0.983588 0.000000 0.000000
1.000000 0.000000 0.000000
1.000000 0.000000 0.000000
1.000000 0.000000 0.000000
1.000000 0.000000 0.000000
1.000000 0.000000 0.000000
1.000000 0.000000 0.000000
1.000000 0.000000 0.000000
0.000000 0.044103 0.000000
0.026503 0.042399 0.000000
0.069252 0.040694 0.000000
0.112002 0.038990 0.000000
0.154751 0.037286 0.000000
0.197501 0.035582 0.000000
0.240250 0.033877 0.000000
0.283000 0.032173 0.000000
0.325749 0.030469 0.000000
0.368499 0.028764 0.000000
0.410212 0.027102 0.000000
0.450371 0.025501 0.000000
0.490529 0.023900 0.000000
0.530688 0.022299 0.000000
0.570847 0.020698 0.000000
0.611005 0.019097 0.000000
0.651164 0.017496 0.000000
0.691322 0.015895 0.000000
0.731481 0.014294 0.000000
0.771640 0.012693 0.000000
0.807031 0.011282 0.000000
0.841231 0.009919 0.000000
0.875430 0.008555 0.000000
0.909630 0.007192 0.000000
0.943829 0.005828 0.000000
0.978029 0.004465 0.000000
1.000000 0.003102 0.000000
1.000000 0.001738 0.000000
1.000000 0.000639 0.000000
1.000000 0.000000 0.000000
1.000000 0.000000 0.000000
1.000000 0.000000 0.000000
1.000000 0.000000 0.000000
0.000000 0.081650 0.000000
0.020943 0.079946 0.000000
0.063693 0.078241 0.000000
0.106442 0.076537 0.000000
0.149192 0.074833 0.000000
0.191941 0.073129 0.000000
0.234691 0.071424 0.000000
0.277440 0.069720 0.000000
0.320190 0.068016 0.000000
0.362939 0.066312 0.000000
0.404653 0.064649 0.000000
0.444811 0.063048 0.000000
0.484970 0.061447 0.000000
0.525128 0.059846 0.000000
0.565287 0.058245 0.000000
0.605446 0.056644 0.000000
0.645604 0.055043 0.000000
0.685763 0.053442 0.000000
0.725922 0.051841 0.000000
0.766080 0.050240 0.000000
0.801472 0.048829 0.000000
0.835671 0.047466 0.000000
0.869871 0.046102 0.000000
0.904070 0.044739 0.000000
0.938270 0.043376 0.000000
0.972470 0.042012 0.000000
1.000000 0.040649 0.000000
1.000000 0.039285 0.000000
1.000000 0.038186 0.000000
1.000000 0.037153 0.000000
1.000000 0.036121 0.000000
1.000000 0.035088 0.000000
1.000000 0.034055 0.000000
0.000000 0.119197 0.000000
0.015384 0.117493 0.000000
0.058133 0.115789 0.000000
0.100883 0.114084 0.000000
0.143632 0.112380 0.000000
0.186382 0.110676 0.000000
0.229131 0.108972 0.000000
0.271881 0.107267 0.000000
0.314630 0.105563 0.000000
0.357380 0.103859 0.000000
0.399093 0.102196 0.000000
0.439252 0.100595 0.000000
0.479410 0.098994 0.000000
0.519569 0.097393 0.000000
0.559728 0.095792 0.000000
0.599886 0.094191 0.000000
0.640045 0.092590 0.000000
0.680203 0.090989 0.000000
0.720362 0.089388 0.000000
0.760521 0.087787 0.000000
0.795912 0.086376 0.000000
0.830112 0.085013 0.000000
0.864311 0.083649 0.000000
0.898511 0.082286 0.000000
0.932710 0.080923 0.000000
0.966910 0.079559 0.000000
1.000000 0.078196 0.000000
1.000000 0.076832 0.000000
1.000000 0.075733 0.000000
1.000000 0.074701 0.000000
1.000000 0.073668 0.000000
1.000000 0.072635 0.000000
1.000000 0.071602 0.000000
0.000000 0.156744 0.000000
0.009824 0.155040 0.000000
0.052574 0.153336 0.000000
0.095323 0.151632 0.000000
0.138073 0.149927 0.000000
0.180822 0.148223 0.000000
0.223572 0.146519 0.000000
0.266321 0.144815 0.000000
0.309071 0.143110 0.000000
0.351820 0.141406 0.000000
0.393534 0.139743 0.000000
0.433692 0.138142 0.000000
0.473851 0.136541 0.000000
0.514009 0.134940 0.000000
0.554168 0.133339 0.000000
0.594327 0.131738 0.000000
0.634485 0.130137 0.000000
0.674644 0.128536 0.000000
0.714803 0.126935 0.000000
0.754961 0.125334 0.000000
0.790353 0.123923 0.000000
0.824552 0.122560 0.000000
0.858752 0.121197 0.000000
0.892951 0.119833 0.000000
0.927151 0.118470 0.000000
0.961351 0.117106 0.000000
0.995550 0.115743 0.000000
1.000000 0.114380 0.000000
1.000000 0.113281 0.000000
1.000000 0.112248 0.000000
1.000000 0.111215 0.000000
1.000000 0.110182 0.000000
1.000000 0.109149 0.000000
0.000000 0.194292 0.000000
0.004265 0.192587 0.000000
0.047014 0.190883 0.000000
0.089764 0.189179 0.000000
0.132513 0.187474 0.000000
0.175263 0.185770 0.000000
0.218012 0.184066 0.000000
0.260762 0.182362 0.000000
0.303511 0.180657 0.000000
0.346261 0.178953 0.000000
0.387974 0.177290 0.000000
0.428133 0.175689 0.000000
0.468291 0.174088 0.000000
0.508450 0.172487 0.000000
0.548609 0.170886 0.000000
0.588767 0.169285 0.000000
0.628926 0.167684 0.000000
0.669084 0.166084 0.000000
0.709243 0.164483 0.000000
0.749402 0.162882 0.000000
0.784793 0.161471 0.000000
0.818993 0.160107 0.000000
0.853192 0.158744 0.000000
0.887392 0.157380 0.000000
0.921591 0.156017 0.000000
0.955791 0.154654 0.000000
0.989991 0.153290 0.000000
1.000000 0.151927 0.000000
1.000000 0.150828 0.000000
1.000000 0.149795 0.000000
1.000000 0.148762 0.000000
1.000000 0.147729 0.000000
1.000000 0.146696 0.000000
0.000000 0.231839 0.000000
0.000000 0.230134 0.000000
0.041455 0.228430 0.000000
0.084205 0.226726 0.000000
0.126954 0.225022 0.000000
0.169703 0.223317 0.000000
0.212453 0.221613 0.000000
0.255202 0.219909 0.000000
0.297952 0.218205 0.000000
0.340701 0.216500 0.000000
0.382415 0.214837 0.000000
0.422573 0.213236 0.000000
0.462732 0.211636 0.000000
0.502890 0.210035 0.000000
0.543049 0.208434 0.000000
0.583208 0.206833 0.000000
0.623366 0.205232 0.000000
0.663525 0.203631 0.000000
0.703684 0.202030 0.000000
0.743842 0.200429 0.000000
0.779234 0.199018 0.000000
0.813433 0.197654 0.000000
0.847633 0.196291 0.000000
0.881832 0.194928 0.000000
0.916032 0.193564 0.000000
0.950232 0.192201 0.000000
0.984431 0.190837 0.000000
1.000000 0.189474 0.000000
1.000000 0.188375 0.000000
1.000000 0.187342 0.000000
1.000000 0.186309 0.000000
1.000000 0.185276 0.000000
1.000000 0.184243 0.000000
0.000000 0.269386 0.000000
0.000000 0.267682 0.000000
0.035896 0.265977 0.000000
0.078645 0.264273 0.000000
0.121395 0.262569 0.000000
0.164144 0.260865 0.000000
0.206894 0.259160 0.000000
0.249643 0.257456 0.000000
0.292392 0.255752 0.000000
0.335142 0.254048 0.000000
0.376855 0.252385 0.000000
0.417014 0.250784 0.000000
0.457172 0.249183 0.000000
0.497331 0.247582 0.000000
0.537490 0.245981 0.000000
0.577648 0.244380 0.000000
0.617807 0.242779 0.000000
0.657965 0.241178 0.000000
0.698124 0.239577 0.000000
0.738283 0.237976 0.000000
0.773674 0.236565 0.000000
0.807874 0.235202 0.000000
0.842073 0.233838 0.000000
0.876273 0.232475 0.000000
0.910472 0.231111 0.000000
0.944672 0.229748 0.000000
0.978872 0.228385 0.000000
1.000000 0.227021 0.000000
1.000000 0.225922 0.000000
1.000000 0.224889 0.000000
1.000000 0.223856 0.000000
1.000000 0.222824 0.000000
1.000000 0.221791 0.000000
0.000000 0.306933 0.000000
0.000000 0.305229 0.000000
0.030336 0.303525 0.000000
0.073086 0.301820 0.000000
0.115835 0.300116 0.000000
0.158585 0.298412 0.000000
0.201334 0.296708 0.000000
0.244084 0.295003 0.000000
0.286833 0.293299 0.000000
0.329582 0.291595 0.000000
0.371296 0.289932 0.000000
0.411454 0.288331 0.000000
0.451613 0.286730 0.000000
0.491771 0.285129 0.000000
0.531930 0.283528 0.000000
0.572089 0.281927 0.000000
0.612247 0.280326 0.000000
0.652406 0.278725 0.000000
0.692565 0.277124 0.000000
0.732723 0.275523 0.000000
0.768115 0.274112 0.000000
0.802314 0.272749 0.000000
0.836514 0.271385 0.000000
0.870713 0.270022 0.000000
0.904913 0.268659 0.000000
0.939113 0.267295 0.000000
0.973312 0.265932 0.000000
1.000000 0.264568 0.000000
1.000000 0.263469 0.000000
1.000000 0.262436 0.000000
1.000000 0.261404 0.000000
1.000000 0.260371 0.000000
1.000000 0.259338 0.000000
0.000000 0.344480 0.000000
0.000000 0.342776 0.000000
0.024777 0.341072 0.000000
0.067526 0.339367 0.000000
0.110276 0.337663 0.000000
0.153025 0.335959 0.000000
0.195775 0.334255 0.000000
0.238524 0.332550 0.000000
0.281274 0.330846 0.000000
0.324023 0.329142 0.000000
0.365736 0.327479 0.000000
0.405895 0.325878 0.000000
0.446053 0.324277 0.000000
0.486212 0.322676 0.000000
0.526371 0.321075 0.000000
0.566529 0.319474 0.000000
0.606688 0.317873 0.000000
0.646846 0.316272 0.000000
0.687005 0.314671 0.000000
0.727164 0.313070 0.000000
0.762555 0.311659 0.000000
0.796755 0.310296 0.000000
0.830954 0.308933 0.000000
0.865154 0.307569 0.000000
0.899353 0.306206 0.000000
0.933553 0.304842 0.000000
0.967753 0.303479 0.000000
1.000000 0.302116 0.000000
1.000000 0.301017 0.000000
1.000000 0.299984 0.000000
1.000000 0.298951 0.000000
1.000000 0.297918 0.000000
1.000000 0.296885 0.000000
0.000000 0.382027 0.000000
0.000000 0.380323 0.000000
0.019217 0.378619 0.000000
0.061967 0.376915 0.000000
0.104716 0.375210 0.000000
0.147466 0.373506 0.000000
0.190215 0.371802 0.000000
0.232965 0.370098 0.000000
0.275714 0.368393 0.000000
0.318464 0.366689 0.000000
0.360177 0.365026 0.000000
0.400335 0.363425 0.000000
0.440494 0.361824 0.000000
0.480653 0.360223 0.000000
0.520811 0.358622 0.000000
0.560970 0.357021 0.000000
0.601128 0.355420 0.000000
0.641287 0.353819 0.000000
0.681446 0.352218 0.000000
0.721604 0.350617 0.000000
0.756996 0.349207 0.000000
0.791195 0.347843 0.000000
0.825395 0.346480 0.000000
0.859594 0.345116 0.000000
0.893794 0.343753 0.000000
0.927994 0.342390 0.000000
0.962193 0.341026 0.000000
0.996393 0.339663 0.000000
1.000000 0.338564 0.000000
1.000000 0.337531 0.000000
1.000000 0.336498 0.000000
1.000000 0.335465 0.000000
1.000000 0.334432 0.000000
0.000000 0.419575 0.000000
0.000000 0.417870 0.000000
0.013658 0.416166 0.000000
0.056407 0.414462 0.000000
0.099157 0.412758 0.000000
0.141906 0.411053 0.000000
0.184656 0.409349 0.000000
0.227405 0.407645 0.000000
0.270155 0.405941 0.000000
0.312904 0.404236 0.000000
0.354617 0.402573 0.000000
0.394776 0.400972 0.000000
0.434934 0.399371 0.000000
0.475093 0.397770 0.000000
0.515252 0.396169 0.000000
0.555410 0.394569 0.000000
0.595569 0.392968 0.000000
0.635727 0.391367 0.000000
0.675886 0.389766 0.000000
0.716045 0.388165 0.000000
0.751436 0.386754 0.000000
0.785636 0.385390 0.000000
0.819835 0.384027 0.000000
0.854035 0.382664 0.000000
0.888235 0.381300 0.000000
0.922434 0.379937 0.000000
0.956634 0.378573 0.000000
0.990833 0.377210 0.000000
1.000000 0.376111 0.000000
1.000000 0.375078 0.000000
1.000000 0.374045 0.000000
1.000000 0.373012 0.000000
1.000000 0.371979 0.000000
0.000000 0.457122 0.000000
0.000000 0.455418 0.000000
0.008098 0.453713 0.000000
0.050848 0.452009 0.000000
0.093597 0.450305 0.000000
0.136347 0.448600 0.000000
0.179096 0.446896 0.000000
0.221846 0.445192 0.000000
0.264595 0.443488 0.000000
0.307345 0.441783 0.000000
0.349058 0.440121 0.000000
0.389216 0.438520 0.000000
0.429375 0.436919 0.000000
0.469534 0.435318 0.000000
0.509692 0.433717 0.000000
0.549851 0.432116 0.000000
0.590009 0.430515 0.000000
0.630168 0.428914 0.000000
0.670327 0.427313 0.000000
0.710485 0.425712 0.000000
0.745877 0.424301 0.000000
0.780076 0.422938 0.000000
0.814276 0.421574 0.000000
0.848475 0.420211 0.000000
0.882675 0.418847 0.000000
0.916875 0.417484 0.000000
0.951074 0.416120 0.000000
0.985274 0.414757 0.000000
1.000000 0.413658 0.000000
1.000000 0.412625 0.000000
1.000000 0.411592 0.000000
1.000000 0.410559 0.000000
1.000000 0.409527 0.000000
0.000000 0.494669 0.000000
0.000000 0.492965 0.000000
0.002539 0.491260 0.000000
0.045288 0.489556 0.000000
0.088038 0.487852 0.000000
0.130787 0.486148 0.000000
0.173537 0.484443 0.000000
0.216286 0.482739 0.000000
0.259036 0.481035 0.000000
0.301785 0.479331 0.000000
0.343498 0.477668 0.000000
0.383657 0.476067 0.000000
0.423815 0.474466 0.000000
0.463974 0.472865 0.000000
0.504133 0.471264 0.000000
0.544291 0.469663 0.000000
0.584450 0.468062 0.000000
0.624609 0.466461 0.000000
0.664767 0.464860 0.000000
0.704926 0.463259 0.000000
0.740317 0.461848 0.000000
0.774517 0.460485 0.000000
0.808716 0.459121 0.000000
0.842916 0.457758 0.000000
0.877116 0.456394 0.000000
0.911315 0.455031 0.000000
0.945515 0.453668 0.000000
0.979714 0.452304 0.000000
1.000000 0.451205 0.000000
1.000000 0.450172 0.000000
1.000000 0.449140 0.000000
1.000000 0.448107 0.000000
1.000000 0.447074 0.000000
0.000000 0.532216 0.000000
0.000000 0.530512 0.000000
0.000000 0.528808 0.000000
0.039729 0.527103 0.000000
0.082478 0.525399 0.000000
0.125228 0.523695 0.000000
0.167977 0.521991 0.000000
0.210727 0.520286 0.000000
0.253476 0.518582 0.000000
0.296226 0.516878 0.000000
0.337939 0.515215 0.000000
0.378097 0.513614 0.000000
0.418256 0.512013 0.000000
0.458415 0.510412 0.000000
0.498573 0.508811 0.000000
0.538732 0.507210 0.000000
0.578890 0.505609 0.000000
0.619049 0.504008 0.000000
0.659208 0.502407 0.000000
0.699366 0.500806 0.000000
0.734758 0.499395 0.000000
0.768957 0.498032 0.000000
0.803157 0.496668 0.000000
0.837356 0.495305 0.000000
0.871556 0.493942 0.000000
0.905756 0.492578 0.000000
0.939955 0.491215 0.000000
0.974155 0.489851 0.000000
1.000000 0.488752 0.000000
1.000000 0.487720 0.000000
1.000000 0.486687 0.000000
1.000000 0.485654 0.000000
1.000000 0.484621 0.000000
0.000000 0.569763 0.000000
0.000000 0.568059 0.000000
0.000000 0.566355 0.000000
0.034169 0.564651 0.000000
0.076919 0.562946 0.000000
0.119668 0.561242 0.000000
0.162418 0.559538 0.000000
0.205167 0.557834 0.000000
0.247917 0.556129 0.000000
0.290666 0.554425 0.000000
0.332379 0.552762 0.000000
0.372538 0.551161 0.000000
0.412696 0.549560 0.000000
0.452855 0.547959 0.000000
0.493014 0.546358 0.000000
0.533172 0.544757 0.000000
0.573331 0.543156 0.000000
0.613490 0.541555 0.000000
0.653648 0.539954 0.000000
0.693807 0.538353 0.000000
0.729198 0.536942 0.000000
0.763398 0.535579 0.000000
0.797597 0.534216 0.000000
0.831797 0.532852 0.000000
0.865997 0.531489 0.000000
0.900196 0.530125 0.000000
0.934396 0.528762 0.000000
0.968595 0.527399 0.000000
0.996162 0.526300 0.000000
1.000000 0.525267 0.000000
1.000000 0.524234 0.000000
1.000000 0.523201 0.000000
1.000000 0.522168 0.000000
0.000000 0.607310 0.000000
0.000000 0.605606 0.000000
0.000000 0.603902 0.000000
0.028610 0.602198 0.000000
0.071359 0.600493 0.000000
0.114109 0.598789 0.000000
0.156858 0.597085 0.000000
0.199608 0.595381 0.000000
0.242357 0.593676 0.000000
0.285107 0.591972 0.000000
0.326820 0.590309 0.000000
0.366978 0.588708 0.000000
0.407137 0.587107 0.000000
0.447296 0.585506 0.000000
0.487454 0.583905 0.000000
0.527613 0.582304 0.000000
0.567771 0.580703 0.000000
0.607930 0.579102 0.000000
0.648089 0.577502 0.000000
0.688247 0.575901 0.000000
0.723639 0.574490 0.000000
0.757838 0.573126 0.000000
0.792038 0.571763 0.000000
0.826237 0.570399 0.000000
0.860437 0.569036 0.000000
0.894637 0.567673 0.000000
0.928836 0.566309 0.000000
0.963036 0.564946 0.000000
0.990603 0.563847 0.000000
1.000000 0.562814 0.000000
1.000000 0.561781 0.000000
1.000000 0.560748 0.000000
1.000000 0.559715 0.000000
0.000000 0.644858 0.000000
0.000000 0.643153 0.000000
0.000000 0.641449 0.000000
0.023050 0.639745 0.000000
0.065800 0.638041 0.000000
0.108549 0.636336 0.000000
0.151299 0.634632 0.000000
0.194048 0.632928 0.000000
0.236798 0.631224 0.000000
0.279547 0.629519 0.000000
0.321260 0.627856 0.000000
0.361419 0.626255 0.000000
0.401577 0.624654 0.000000
0.441736 0.623054 0.000000
0.481895 0.621453 0.000000
0.522053 0.619852 0.000000
0.562212 0.618251 0.000000
0.602371 0.616650 0.000000
0.642529 0.615049 0.000000
0.682688 0.613448 0.000000
0.718079 0.612037 0.000000
0.752279 0.610673 0.000000
0.786478 0.609310 0.000000
0.820678 0.607947 0.000000
0.854878 0.606583 0.000000
0.889077 0.605220 0.000000
0.923277 0.603856 0.000000
0.957476 0.602493 0.000000
0.985043 0.601394 0.000000
1.000000 0.600361 0.000000
1.000000 0.599328 0.000000
1.000000 0.598295 0.000000
1.000000 0.597262 0.000000
0.000000 0.682405 0.000000
0.000000 0.680701 0.000000
0.000000 0.678996 0.000000
0.017491 0.677292 0.000000
0.060240 0.675588 0.000000
0.102990 0.673884 0.000000
0.145739 0.672179 0.000000
0.188489 0.670475 0.000000
0.231238 0.668771 0.000000
0.273988 0.667067 0.000000
0.315701 0.665404 0.000000
0.355859 0.663803 0.000000
0.396018 0.662202 0.000000
0.436177 0.660601 0.000000
0.476335 0.659000 0.000000
0.516494 0.657399 0.000000
0.556652 0.655798 0.000000
0.596811 0.654197 0.000000
0.636970 0.652596 0.000000
0.677128 0.650995 0.000000
0.712520 0.649584 0.000000
0.746719 0.648221 0.000000
0.780919 0.646857 0.000000
0.815119 0.645494 0.000000
0.849318 0.644130 0.000000
0.883518 0.642767 0.000000
0.917717 0.641404 0.000000
0.951917 0.640040 0.000000
0.979484 0.638941 0.000000
1.000000 0.637908 0.000000
1.000000 0.636875 0.000000
1.000000 0.635843 0.000000
1.000000 0.634810 0.000000
0.000000 0.716948 0.000000
0.000000 0.715244 0.000000
0.000000 0.713540 0.000000
0.012376 0.711835 0.000000
0.055125 0.710131 0.000000
0.097875 0.708427 0.000000
0.140624 0.706723 0.000000
0.183374 0.705018 0.000000
0.226123 0.703314 0.000000
0.268873 0.701610 0.000000
0.310586 0.699947 0.000000
0.350745 0.698346 0.000000
0.390903 0.696745 0.000000
0.431062 0.695144 0.000000
0.471221 0.693543 0.000000
0.511379 0.691942 0.000000
0.551538 0.690341 0.000000
0.591696 0.688740 0.000000
0.631855 0.687139 0.000000
0.672014 0.685538 0.000000
0.707405 0.684127 0.000000
0.741605 0.682764 0.000000
0.775804 0.681401 0.000000
0.810004 0.680037 0.000000
0.844203 0.678674 0.000000
0.878403 0.677310 0.000000
0.912603 0.675947 0.000000
0.946802 0.674584 0.000000
0.974369 0.673485 0.000000
1.000000 0.672452 0.000000
1.000000 0.671419 0.000000
1.000000 0.670386 0.000000
1.000000 0.669353 0.000000
0.000000 0.750741 0.000000
0.000000 0.749036 0.000000
0.000000 0.747332 0.000000
0.007372 0.745628 0.000000
0.050122 0.743924 0.000000
0.092871 0.742219 0.000000
0.135621 0.740515 0.000000
0.178370 0.738811 0.000000
0.221120 0.737107 0.000000
0.263869 0.735402 0.000000
0.305582 0.733739 0.000000
0.345741 0.732138 0.000000
0.385900 0.730538 0.000000
0.426058 0.728937 0.000000
0.466217 0.727336 0.000000
0.506376 0.725735 0.000000
0.546534 0.724134 0.000000
0.586693 0.722533 0.000000
0.626851 0.720932 0.000000
0.667010 0.719331 0.000000
0.702401 0.717920 0.000000
0.736601 0.716556 0.000000
0.770801 0.715193 0.000000
0.805000 0.713830 0.000000
0.839200 0.712466 0.000000
0.873399 0.711103 0.000000
0.907599 0.709739 0.000000
0.941799 0.708376 0.000000
0.969366 0.707277 0.000000
0.995274 0.706244 0.000000
1.000000 0.705211 0.000000
1.000000 0.704178 0.000000
1.000000 0.703146 0.000000
0.000000 0.784533 0.000000
0.000000 0.782829 0.000000
0.000000 0.781125 0.000000
0.002369 0.779420 0.000000
0.045118 0.777716 0.000000
0.087868 0.776012 0.000000
0.130617 0.774308 0.000000
0.173367 0.772603 0.000000
0.216116 0.770899 0.000000
0.258866 0.769195 0.000000
0.300579 0.767532 0.000000
0.340738 0.765931 0.000000
0.380896 0.764330 0.000000
0.421055 0.762729 0.000000
0.461213 0.761128 0.000000
0.501372 0.759527 0.000000
0.541531 0.757926 0.000000
0.581689 0.756325 0.000000
0.621848 0.754724 0.000000
0.662007 0.753123 0.000000
0.697398 0.751712 0.000000
0.731598 0.750349 0.000000
0.765797 0.748985 0.000000
0.799997 0.747622 0.000000
0.834196 0.746259 0.000000
0.868396 0.744895 0.000000
0.902595 0.743532 0.000000
0.936795 0.742168 0.000000
0.964362 0.741069 0.000000
0.990271 0.740037 0.000000
1.000000 0.739004 0.000000
1.000000 0.737971 0.000000
1.000000 0.736938 0.000000
0.000000 0.818326 0.000000
0.000000 0.816621 0.000000
0.000000 0.814917 0.000000
0.000000 0.813213 0.000000
0.040115 0.811509 0.000000
0.082864 0.809804 0.000000
0.125614 0.808100 0.000000
0.168363 0.806396 0.000000
0.211113 0.804692 0.000000
0.253862 0.802987 0.000000
0.295575 0.801324 0.000000
0.335734 0.799723 0.000000
0.375893 0.798122 0.000000
0.416051 0.796521 0.000000
0.456210 0.794921 0.000000
0.496368 0.793320 0.000000
0.536527 0.791719 0.000000
0.576686 0.790118 0.000000
0.616844 0.788517 0.000000
0.657003 0.786916 0.000000
0.692394 0.785505 0.000000
0.726594 0.784141 0.000000
0.760794 0.782778 0.000000
0.794993 0.781415 0.000000
0.829193 0.780051 0.000000
0.863392 0.778688 0.000000
0.897592 0.777324 0.000000
0.931792 0.775961 0.000000
0.959358 0.774862 0.000000
0.985267 0.773829 0.000000
1.000000 0.772796 0.000000
1.000000 0.771763 0.000000
1.000000 0.770730 0.000000
0.000000 0.852118 0.000000
0.000000 0.850414 0.000000
0.000000 0.848710 0.000000
0.000000 0.847005 0.000000
0.035111 0.845301 0.000000
0.077861 0.843597 0.000000
0.120610 0.841893 0.000000
0.163360 0.840188 0.000000
0.206109 0.838484 0.000000
0.248859 0.836780 0.000000
0.290572 0.835117 0.000000
0.330730 0.833516 0.000000
0.370889 0.831915 0.000000
0.411048 0.830314 0.000000
0.451206 0.828713 0.000000
0.491365 0.827112 0.000000
0.531524 0.825511 0.000000
0.571682 0.823910 0.000000
0.611841 0.822309 0.000000
0.651999 0.820708 0.000000
0.687391 0.819297 0.000000
0.721590 0.817934 0.000000
0.755790 0.816570 0.000000
0.789990 0.815207 0.000000
0.824189 0.813844 0.000000
0.858389 0.812480 0.000000
0.892588 0.811117 0.000000
0.926788 0.809753 0.000000
0.954355 0.808654 0.000000
0.980264 0.807622 0.000000
1.000000 0.806589 0.000000
1.000000 0.805556 0.000000
1.000000 0.804523 0.000000
0.000000 0.885911 0.000000
0.000000 0.884206 0.000000
0.000000 0.882502 0.000000
0.000000 0.880798 0.000000
0.030108 0.879094 0.000000
0.072857 0.877389 0.000000
0.115607 0.875685 0.000000
0.158356 0.873981 0.000000
0.201106 0.872276 0.000000
0.243855 0.870572 0.000000
0.285568 0.868909 0.000000
0.325727 0.867308 0.000000
0.365886 0.865707 0.000000
0.406044 0.864106 0.000000
0.446203 0.862505 0.000000
0.486361 0.860904 0.000000
0.526520 0.859304 0.000000
0.566679 0.857703 0.000000
0.606837 0.856102 0.000000
0.646996 0.854501 0.000000
0.682387 0.853090 0.000000
0.716587 0.851726 0.000000
0.750786 0.850363 0.000000
0.784986 0.848999 0.000000
0.819186 0.847636 0.000000
0.853385 0.846273 0.000000
0.887585 0.844909 0.000000
0.921784 0.843546 0.000000
0.949351 0.842447 0.000000
0.975260 0.841414 0.000000
1.000000 0.840381 0.000000
1.000000 0.839348 0.000000
1.000000 0.838315 0.000000
0.000000 0.919703 0.000000
0.000000 0.917999 0.000000
0.000000 0.916294 0.000000
0.000000 0.914590 0.000000
0.025104 0.912886 0.000000
0.067854 0.911182 0.000000
0.110603 0.909477 0.000000
0.153353 0.907773 0.000000
0.196102 0.906069 0.000000
0.238852 0.904365 0.000000
0.280565 0.902702 0.000000
0.320723 0.901101 0.000000
0.360882 0.899500 0.000000
0.401041 0.897899 0.000000
0.441199 0.896298 0.000000
0.481358 0.894697 0.000000
0.521516 0.893096 0.000000
0.561675 0.891495 0.000000
0.601834 0.889894 0.000000
0.641992 0.888293 0.000000
0.677384 0.886882 0.000000
0.711583 0.885519 0.000000
0.745783 0.884155 0.000000
0.779983 0.882792 0.000000
0.814182 0.881429 0.000000
0.848382 0.880065 0.000000
0.882581 0.878702 0.000000
0.916781 0.877338 0.000000
0.944348 0.876239 0.000000
