luts/storybook_warmth.cube
TITLE "Cinema Amelie"
LUT_3D_SIZE 9
0.000000 0.000000 0.000000
0.165870 0.000000 0.000000
0.336868 0.000000 0.000000
0.501648 0.000000 0.000000
0.662283 0.000000 0.000000
0.818150 0.000000 0.000000
0.954948 0.000000 0.000000
1.000000 0.000000 0.000000
1.000000 0.000000 0.000000
0.000000 0.119197 0.000000
0.143632 0.112380 0.000000
0.314630 0.105563 0.000000
0.479410 0.098994 0.000000
0.640045 0.092590 0.000000
0.795912 0.086376 0.000000
0.932710 0.080923 0.000000
1.000000 0.075733 0.000000
1.000000 0.071602 0.000000
0.000000 0.269386 0.000000
0.121395 0.262569 0.000000
0.292392 0.255752 0.000000
0.457172 0.249183 0.000000
0.617807 0.242779 0.000000
0.773674 0.236565 0.000000
0.910472 0.231111 0.000000
1.000000 0.225922 0.000000
1.000000 0.221791 0.000000
0.000000 0.419575 0.000000
0.099157 0.412758 0.000000
0.270155 0.405941 0.000000
0.434934 0.399371 0.000000
0.595569 0.392968 0.000000
0.751436 0.386754 0.000000
0.888235 0.381300 0.000000
1.000000 0.376111 0.000000
1.000000 0.371979 0.000000
0.000000 0.569763 0.000000
0.076919 0.562946 0.000000
0.247917 0.556129 0.000000
0.412696 0.549560 0.000000
0.573331 0.543156 0.000000
0.729198 0.536942 0.000000
0.865997 0.531489 0.000000
0.996162 0.526300 0.000000
1.000000 0.522168 0.000000
0.000000 0.716948 0.000000
0.055125 0.710131 0.000000
0.226123 0.703314 0.000000
0.390903 0.696745 0.000000
0.551538 0.690341 0.000000
0.707405 0.684127 0.000000
0.844203 0.678674 0.000000
0.974369 0.673485 0.000000
1.000000 0.669353 0.000000
0.000000 0.852118 0.000000
0.035111 0.845301 0.000000
0.206109 0.838484 0.000000
0.370889 0.831915 0.000000
0.531524 0.825511 0.000000
0.687391 0.819297 0.000000
0.824189 0.813844 0.000000
0.954355 0.808654 0.000000
1.000000 0.804523 0.000000
0.000000 0.975273 0.000000
0.016876 0.968456 0.000000
0.187874 0.961639 0.000000
0.352654 0.955070 0.000000
0.513288 0.948666 0.000000
0.669156 0.942452 0.000000
0.805954 0.936998 0.000000
0.936120 0.931809 0.000000
1.000000 0.927678 0.000000
0.000000 1.000000 0.000000
0.005757 1.000000 0.000000
0.176755 1.000000 0.000000
0.341535 1.000000 0.000000
0.502169 1.000000 0.000000
0.658037 1.000000 0.000000
0.794835 1.000000 0.000000
0.925001 1.000000 0.000000
1.000000 1.000000 0.000000
0.000000 0.000000 0.107281
0.164046 0.000000 0.100464
0.335044 0.000000 0.093647
0.499824 0.000000 0.087078
0.660459 0.000000 0.080674
0.816326 0.000000 0.074460
0.953124 0.000000 0.069007
1.000000 0.000000 0.063817
1.000000 0.000000 0.059686
0.000000 0.117373 0.085043
0.141808 0.110556 0.078226
0.312806 0.103739 0.071409
0.477586 0.097170 0.064840
0.638221 0.090766 0.058436
0.794088 0.084552 0.052222
0.930886 0.079099 0.046769
1.000000 0.073909 0.041579
1.000000 0.069778 0.037448
0.000000 0.267562 0.062805
0.119570 0.260745 0.055988
0.290568 0.253928 0.049171
0.455348 0.247359 0.042602
0.615983 0.240955 0.036198
0.771850 0.234741 0.029984
0.908648 0.229287 0.024531
1.000000 0.224098 0.019342
1.000000 0.219967 0.015210
0.000000 0.417751 0.040567
0.097333 0.410934 0.033750
0.268331 0.404117 0.026933
0.433110 0.397547 0.020364
0.593745 0.391144 0.013960
0.749612 0.384930 0.007746
0.886411 0.379476 0.002293
1.000000 0.374287 0.000000
1.000000 0.370155 0.000000
0.000000 0.567939 0.018329
0.075095 0.561122 0.011512
0.246093 0.554305 0.004695
0.410872 0.547736 0.000000
0.571507 0.541332 0.000000
0.727374 0.535118 0.000000
0.864173 0.529665 0.000000
0.994338 0.524476 0.000000
1.000000 0.520344 0.000000
0.000000 0.715124 0.000000
0.053301 0.708307 0.000000
0.224299 0.701490 0.000000
0.389079 0.694921 0.000000
0.549714 0.688517 0.000000
0.705581 0.682303 0.000000
0.842379 0.676850 0.000000
0.972545 0.671661 0.000000
1.000000 0.667529 0.000000
0.000000 0.850294 0.000000
0.033287 0.843477 0.000000
0.204285 0.836660 0.000000
0.369065 0.830091 0.000000
0.529700 0.823687 0.000000
0.685567 0.817473 0.000000
0.822365 0.812020 0.000000
0.952531 0.806830 0.000000
1.000000 0.802699 0.000000
0.000000 0.973449 0.000000
0.015052 0.966632 0.000000
0.186050 0.959815 0.000000
0.350830 0.953246 0.000000
0.511464 0.946842 0.000000
0.667332 0.940628 0.000000
0.804130 0.935174 0.000000
0.934296 0.929985 0.000000
1.000000 0.925854 0.000000
0.000000 1.000000 0.000000
0.003933 1.000000 0.000000
0.174931 1.000000 0.000000
0.339711 1.000000 0.000000
0.500345 1.000000 0.000000
0.656213 1.000000 0.000000
0.793011 1.000000 0.000000
0.923177 1.000000 0.000000
1.000000 1.000000 0.000000
0.000000 0.000000 0.245554
0.162222 0.000000 0.238737
0.333220 0.000000 0.231920
0.498000 0.000000 0.225351
0.658635 0.000000 0.218947
0.814502 0.000000 0.212733
0.951300 0.000000 0.207279
1.000000 0.000000 0.202090
1.000000 0.000000 0.197959
0.000000 0.115549 0.223316
0.139984 0.108732 0.216499
0.310982 0.101915 0.209682
0.475762 0.095346 0.203113
0.636397 0.088942 0.196709
0.792264 0.082728 0.190495
0.929062 0.077275 0.185041
1.000000 0.072085 0.179852
1.000000 0.067954 0.175721
0.000000 0.265738 0.201078
0.117746 0.258921 0.194261
0.288744 0.252104 0.187444
0.453524 0.245535 0.180875
0.614159 0.239131 0.174471
0.770026 0.232917 0.168257
0.906824 0.227463 0.162803
1.000000 0.222274 0.157614
1.000000 0.218143 0.153483
0.000000 0.415927 0.178840
0.095509 0.409110 0.172023
0.266507 0.402293 0.165206
0.431286 0.395723 0.158637
0.591921 0.389320 0.152233
0.747788 0.383106 0.146019
0.884586 0.377652 0.140565
1.000000 0.372463 0.135376
1.000000 0.368331 0.131245
0.000000 0.566115 0.156602
0.073271 0.559298 0.149785
0.244269 0.552481 0.142968
0.409048 0.545912 0.136399
0.569683 0.539508 0.129995
0.725550 0.533294 0.123781
0.862349 0.527841 0.118327
0.992514 0.522652 0.113138
1.000000 0.518520 0.109007
0.000000 0.713300 0.134809
0.051477 0.706483 0.127992
0.222475 0.699666 0.121175
0.387255 0.693097 0.114606
0.547890 0.686693 0.108202
0.703757 0.680479 0.101988
0.840555 0.675026 0.096534
0.970721 0.669837 0.091345
1.000000 0.665705 0.087214
0.000000 0.848470 0.114795
0.031463 0.841653 0.107978
0.202461 0.834836 0.101161
0.367241 0.828267 0.094591
0.527876 0.821863 0.088188
0.683743 0.815649 0.081974
0.820541 0.810196 0.076520
0.950707 0.805006 0.071331
1.000000 0.800875 0.067199
0.000000 0.971625 0.096559
0.013228 0.964808 0.089742
0.184226 0.957991 0.082925
0.349006 0.951422 0.076356
0.509640 0.945018 0.069952
0.665508 0.938804 0.063739
0.802306 0.933350 0.058285
0.932472 0.928161 0.053096
1.000000 0.924030 0.048964
0.000000 1.000000 0.085440
0.002109 1.000000 0.078623
0.173107 1.000000 0.071806
0.337887 1.000000 0.065237
0.498521 1.000000 0.058833
0.654389 1.000000 0.052620
0.791187 1.000000 0.047166
0.921353 1.000000 0.041977
1.000000 0.999124 0.037845
0.000000 0.000000 0.383826
0.160398 0.000000 0.377009
0.331396 0.000000 0.370192
0.496176 0.000000 0.363623
0.656811 0.000000 0.357219
0.812678 0.000000 0.351006
0.949476 0.000000 0.345552
1.000000 0.000000 0.340363
1.000000 0.000000 0.336231
0.000000 0.113725 0.361588
0.138160 0.106908 0.354771
0.309158 0.100091 0.347954
0.473938 0.093522 0.341385
0.634573 0.087118 0.334981
0.790440 0.080904 0.328768
0.927238 0.075451 0.323314
1.000000 0.070261 0.318125
1.000000 0.066130 0.313993
0.000000 0.263914 0.339350
0.115922 0.257097 0.332533
0.286920 0.250280 0.325716
0.451700 0.243711 0.319147
0.612335 0.237307 0.312743
0.768202 0.231093 0.306530
0.905000 0.225639 0.301076
1.000000 0.220450 0.295887
1.000000 0.216319 0.291755
0.000000 0.414103 0.317113
0.093685 0.407286 0.310296
0.264683 0.400469 0.303479
0.429462 0.393899 0.296909
0.590097 0.387496 0.290506
0.745964 0.381282 0.284292
0.882762 0.375828 0.278838
1.000000 0.370639 0.273649
1.000000 0.366507 0.269517
0.000000 0.564291 0.294875
0.071447 0.557474 0.288058
0.242445 0.550657 0.281241
0.407224 0.544088 0.274671
0.567859 0.537684 0.268268
0.723726 0.531470 0.262054
0.860525 0.526017 0.256600
0.990690 0.520828 0.251411
1.000000 0.516696 0.247279
0.000000 0.711476 0.273081
0.049653 0.704659 0.266264
0.220651 0.697842 0.259447
0.385431 0.691273 0.252878
0.546066 0.684869 0.246474
0.701933 0.678655 0.240261
0.838731 0.673202 0.234807
0.968897 0.668013 0.229618
1.000000 0.663881 0.225486
0.000000 0.846646 0.253067
0.029639 0.839829 0.246250
0.200637 0.833012 0.239433
0.365417 0.826443 0.232864
0.526052 0.820039 0.226460
0.681919 0.813825 0.220246
0.818717 0.808372 0.214793
0.948883 0.803182 0.209604
1.000000 0.799051 0.205472
0.000000 0.969801 0.234832
0.011404 0.962984 0.228015
0.182402 0.956167 0.221198
0.347182 0.949598 0.214629
0.507816 0.943194 0.208225
0.663684 0.936980 0.202011
0.800482 0.931526 0.196558
0.930648 0.926337 0.191368
1.000000 0.922206 0.187237
0.000000 1.000000 0.223713
0.000285 1.000000 0.216896
0.171283 1.000000 0.210079
0.336063 1.000000 0.203510
0.496697 1.000000 0.197106
0.652565 1.000000 0.190892
0.789363 1.000000 0.185439
0.919529 1.000000 0.180249
1.000000 0.997300 0.176118
0.000000 0.000000 0.522099
0.158574 0.000000 0.515282
0.329572 0.000000 0.508465
0.494352 0.000000 0.501896
0.654987 0.000000 0.495492
0.810854 0.000000 0.489278
0.947652 0.000000 0.483825
1.000000 0.000000 0.478635
1.000000 0.000000 0.474504
0.000000 0.111901 0.499861
0.136336 0.105084 0.493044
0.307334 0.098267 0.486227
0.472114 0.091698 0.479658
0.632749 0.085294 0.473254
0.788616 0.079080 0.467040
0.925414 0.073627 0.461587
1.000000 0.068437 0.456397
1.000000 0.064306 0.452266
0.000000 0.262090 0.477623
0.114098 0.255273 0.470806
0.285096 0.248456 0.463989
0.449876 0.241887 0.457420
0.610511 0.235483 0.451016
0.766378 0.229269 0.444802
0.903176 0.223815 0.439349
1.000000 0.218626 0.434159
1.000000 0.214495 0.430028
0.000000 0.412279 0.455385
0.091861 0.405462 0.448568
0.262858 0.398644 0.441751
0.427638 0.392075 0.435182
0.588273 0.385671 0.428778
0.744140 0.379458 0.422564
0.880938 0.374004 0.417111
1.000000 0.368815 0.411922
1.000000 0.364683 0.407790
0.000000 0.562467 0.433147
0.069623 0.555650 0.426330
0.240621 0.548833 0.419513
0.405400 0.542264 0.412944
0.566035 0.535860 0.406540
0.721902 0.529646 0.400326
0.858701 0.524193 0.394873
0.988866 0.519004 0.389684
1.000000 0.514872 0.385552
0.000000 0.709652 0.411354
0.047829 0.702835 0.404537
0.218827 0.696018 0.397720
0.383607 0.689449 0.391151
0.544242 0.683045 0.384747
0.700109 0.676831 0.378533
0.836907 0.671378 0.373080
0.967073 0.666189 0.367890
1.000000 0.662057 0.363759
0.000000 0.844822 0.391340
0.027815 0.838005 0.384523
0.198813 0.831188 0.377706
0.363593 0.824619 0.371137
0.524228 0.818215 0.364733
0.680095 0.812001 0.358519
0.816893 0.806548 0.353065
0.947059 0.801358 0.347876
1.000000 0.797227 0.343745
0.000000 0.967977 0.373105
0.009580 0.961160 0.366288
0.180578 0.954343 0.359471
0.345358 0.947774 0.352902
0.505992 0.941370 0.346498
0.661860 0.935156 0.340284
0.798658 0.929702 0.334830
0.928824 0.924513 0.329641
1.000000 0.920382 0.325510
0.000000 1.000000 0.361986
0.000000 1.000000 0.355169
0.169459 1.000000 0.348352
0.334239 1.000000 0.341783
0.494873 1.000000 0.335379
0.650741 1.000000 0.329165
0.787539 1.000000 0.323711
0.917705 0.999607 0.318522
1.000000 0.995476 0.314391
0.000000 0.000000 0.655692
0.156812 0.000000 0.648875
0.327810 0.000000 0.642058
0.492590 0.000000 0.635489
0.653224 0.000000 0.629085
0.809092 0.000000 0.622871
0.945890 0.000000 0.617417
1.000000 0.000000 0.612228
1.000000 0.000000 0.608097
0.000000 0.110139 0.633454
0.134574 0.103322 0.626637
0.305572 0.096505 0.619820
0.470352 0.089936 0.613251
0.630986 0.083532 0.606847
0.786854 0.077318 0.600633
0.923652 0.071864 0.595179
1.000000 0.066675 0.589990
1.000000 0.062544 0.585859
0.000000 0.260328 0.611216
0.112336 0.253511 0.604399
0.283334 0.246693 0.597582
0.448114 0.240124 0.591013
0.608749 0.233721 0.584609
0.764616 0.227507 0.578395
0.901414 0.222053 0.572941
1.000000 0.216864 0.567752
1.000000 0.212732 0.563621
0.000000 0.410516 0.588978
0.090098 0.403699 0.582161
0.261096 0.396882 0.575344
0.425876 0.390313 0.568775
0.586511 0.383909 0.562371
0.742378 0.377695 0.556157
0.879176 0.372242 0.550703
1.000000 0.367053 0.545514
1.000000 0.362921 0.541383
0.000000 0.560705 0.566740
0.067860 0.553888 0.559923
0.238858 0.547071 0.553106
0.403638 0.540502 0.546537
0.564273 0.534098 0.540133
0.720140 0.527884 0.533919
0.856938 0.522431 0.528465
0.987104 0.517241 0.523276
1.000000 0.513110 0.519145
0.000000 0.707890 0.544947
0.046067 0.701073 0.538130
0.217065 0.694256 0.531313
0.381845 0.687687 0.524744
0.542479 0.681283 0.518340
0.698347 0.675069 0.512126
0.835145 0.669615 0.506672
0.965311 0.664426 0.501483
1.000000 0.660295 0.497352
0.000000 0.843060 0.524933
0.026053 0.836243 0.518116
0.197051 0.829426 0.511299
0.361831 0.822857 0.504729
0.522465 0.816453 0.498326
0.678333 0.810239 0.492112
0.815131 0.804785 0.486658
0.945297 0.799596 0.481469
1.000000 0.795465 0.477337
0.000000 0.966214 0.506697
0.007818 0.959397 0.499880
0.178816 0.952580 0.493063
0.343596 0.946011 0.486494
0.504230 0.939607 0.480090
0.660097 0.933394 0.473877
0.796896 0.927940 0.468423
0.927062 0.922751 0.463234
1.000000 0.918619 0.459102
0.000000 1.000000 0.495578
0.000000 1.000000 0.488761
0.167697 1.000000 0.481944
0.332477 1.000000 0.475375
0.493111 1.000000 0.468971
0.648978 1.000000 0.462758
0.785777 1.000000 0.457304
0.915943 0.997845 0.452115
1.000000 0.993714 0.447983
0.000000 0.000000 0.770564
0.155297 0.000000 0.763747
0.326295 0.000000 0.756930
0.491075 0.000000 0.750361
0.651709 0.000000 0.743957
0.807576 0.000000 0.737744
0.944375 0.000000 0.732290
1.000000 0.000000 0.727101
1.000000 0.000000 0.722969
0.000000 0.108623 0.748326
0.133059 0.101806 0.741509
0.304057 0.094989 0.734692
0.468837 0.088420 0.728123
0.629471 0.082016 0.721719
0.785338 0.075803 0.715506
0.922137 0.070349 0.710052
1.000000 0.065160 0.704863
1.000000 0.061028 0.700731
0.000000 0.258812 0.726088
0.110821 0.251995 0.719271
0.281819 0.245178 0.712454
0.446599 0.238609 0.705885
0.607233 0.232205 0.699481
0.763100 0.225991 0.693268
0.899899 0.220538 0.687814
1.000000 0.215349 0.682625
1.000000 0.211217 0.678493
0.000000 0.409001 0.703851
0.088583 0.402184 0.697033
0.259581 0.395367 0.690216
0.424361 0.388798 0.683647
0.584995 0.382394 0.677243
0.740862 0.376180 0.671030
0.877661 0.370726 0.665576
1.000000 0.365537 0.660387
1.000000 0.361406 0.656255
0.000000 0.559190 0.681613
0.066345 0.552373 0.674796
0.237343 0.545556 0.667979
0.402123 0.538986 0.661409
0.562757 0.532583 0.655006
0.718625 0.526369 0.648792
0.855423 0.520915 0.643338
0.985589 0.515726 0.638149
1.000000 0.511594 0.634017
0.000000 0.706375 0.659819
0.044552 0.699558 0.653002
0.215550 0.692741 0.646185
0.380330 0.686171 0.639616
0.540964 0.679768 0.633212
0.696831 0.673554 0.626999
0.833630 0.668100 0.621545
0.963795 0.662911 0.616356
1.000000 0.658779 0.612224
0.000000 0.841544 0.639805
0.024538 0.834727 0.632988
0.195536 0.827910 0.626171
0.360315 0.821341 0.619602
0.520950 0.814937 0.613198
0.676817 0.808724 0.606984
0.813616 0.803270 0.601531
0.943781 0.798081 0.596342
1.000000 0.793949 0.592210
0.000000 0.964699 0.621570
0.006302 0.957882 0.614753
0.177300 0.951065 0.607936
0.342080 0.944496 0.601367
0.502715 0.938092 0.594963
0.658582 0.931878 0.588749
0.795380 0.926425 0.583296
0.925546 0.921236 0.578106
1.000000 0.917104 0.573975
0.000000 1.000000 0.610451
0.000000 1.000000 0.603634
0.166181 1.000000 0.596817
0.330961 1.000000 0.590248
0.491596 1.000000 0.583844
0.647463 1.000000 0.577630
0.784261 1.000000 0.572177
0.914427 0.996330 0.566987
1.000000 0.992198 0.562856
0.000000 0.000000 0.887990
0.153748 0.000000 0.881173
0.324746 0.000000 0.874356
0.489526 0.000000 0.867787
0.650160 0.000000 0.861383
0.806027 0.000000 0.855169
0.942826 0.000000 0.849715
1.000000 0.000000 0.844526
1.000000 0.000000 0.840395
0.000000 0.107074 0.865752
0.131510 0.100257 0.858935
0.302508 0.093440 0.852118
0.467288 0.086871 0.845549
0.627922 0.080467 0.839145
0.783789 0.074254 0.832931
0.920588 0.068800 0.827477
1.000000 0.063611 0.822288
1.000000 0.059479 0.818157
0.000000 0.257263 0.843514
0.109272 0.250446 0.836697
0.280270 0.243629 0.829880
0.445050 0.237060 0.823311
0.605684 0.230656 0.816907
0.761551 0.224442 0.810693
0.898350 0.218989 0.805239
1.000000 0.213800 0.800050
1.000000 0.209668 0.795919
0.000000 0.407452 0.821276
0.087034 0.400635 0.814459
0.258032 0.393818 0.807642
0.422812 0.387249 0.801073
0.583446 0.380845 0.794669
0.739313 0.374631 0.788455
0.876112 0.369177 0.783001
1.000000 0.363988 0.777812
1.000000 0.359857 0.773681
0.000000 0.557641 0.799038
0.064796 0.550824 0.792221
0.235794 0.544007 0.785404
0.400574 0.537437 0.778835
0.561208 0.531034 0.772431
0.717076 0.524820 0.766217
0.853874 0.519366 0.760763
0.984040 0.514177 0.755574
1.000000 0.510045 0.751443
0.000000 0.704826 0.777245
0.043003 0.698009 0.770428
0.214001 0.691192 0.763611
0.378781 0.684622 0.757042
0.539415 0.678219 0.750638
0.695282 0.672005 0.744424
0.832081 0.666551 0.738970
0.962246 0.661362 0.733781
1.000000 0.657230 0.729650
0.000000 0.839995 0.757231
0.022989 0.833178 0.750414
0.193987 0.826361 0.743597
0.358766 0.819792 0.737027
0.519401 0.813388 0.730624
0.675268 0.807175 0.724410
0.812067 0.801721 0.718956
0.942232 0.796532 0.713767
1.000000 0.792400 0.709635
0.000000 0.963150 0.738995
0.004753 0.956333 0.732178
0.175751 0.949516 0.725361
0.340531 0.942947 0.718792
0.501166 0.936543 0.712388
0.657033 0.930329 0.706175
0.793831 0.924876 0.700721
0.923997 0.919686 0.695532
1.000000 0.915555 0.691400
0.000000 1.000000 0.727877
0.000000 1.000000 0.721059
0.164632 1.000000 0.714242
0.329412 1.000000 0.707673
0.490047 1.000000 0.701269
0.645914 1.000000 0.695056
0.782712 0.999970 0.689602
0.912878 0.994781 0.684413
1.000000 0.990649 0.680281
0.000000 0.000000 1.000000
0.152064 0.000000 1.000000
0.323062 0.000000 1.000000
0.487842 0.000000 0.995423
0.648476 0.000000 0.989019
0.804344 0.000000 0.982805
0.941142 0.000000 0.977352
1.000000 0.000000 0.972162
1.000000 0.000000 0.968031
0.000000 0.105391 0.993388
0.129826 0.098574 0.986571
0.300824 0.091757 0.979754
0.465604 0.085188 0.973185
0.626238 0.078784 0.966781
0.782106 0.072570 0.960567
0.918904 0.067116 0.955114
1.000000 0.061927 0.949924
1.000000 0.057796 0.945793
0.000000 0.255579 0.971150
0.107588 0.248762 0.964333
0.278586 0.241945 0.957516
0.443366 0.235376 0.950947
0.604000 0.228972 0.944543
0.759868 0.222759 0.938329
0.896666 0.217305 0.932876
1.000000 0.212116 0.927686
1.000000 0.207984 0.923555
0.000000 0.405768 0.948912
0.085350 0.398951 0.942095
0.256348 0.392134 0.935278
0.421128 0.385565 0.928709
0.581763 0.379161 0.922305
0.737630 0.372947 0.916091
0.874428 0.367494 0.910638
1.000000 0.362305 0.905449
1.000000 0.358173 0.901317
0.000000 0.555957 0.926674
0.063112 0.549140 0.919857
0.234110 0.542323 0.913040
0.398890 0.535754 0.906471
0.559525 0.529350 0.900067
0.715392 0.523136 0.893853
0.852190 0.517682 0.888400
0.982356 0.512493 0.883211
1.000000 0.508362 0.879079
0.000000 0.703142 0.904881
0.041319 0.696325 0.898064
0.212317 0.689508 0.891247
0.377097 0.682939 0.884678
0.537731 0.676535 0.878274
0.693599 0.670321 0.872060
0.830397 0.664867 0.866607
0.960563 0.659678 0.861417
1.000000 0.655547 0.857286
0.000000 0.838312 0.884867
0.021305 0.831495 0.878050
0.192303 0.824678 0.871233
0.357083 0.818109 0.864664
0.517717 0.811705 0.858260
0.673584 0.805491 0.852046
0.810383 0.800037 0.846592
0.940549 0.794848 0.841403
1.000000 0.790717 0.837272
0.000000 0.961466 0.866632
0.003070 0.954649 0.859815
0.174068 0.947832 0.852998
0.338848 0.941263 0.846429
0.499482 0.934859 0.840025
0.655349 0.928646 0.833811
0.792148 0.923192 0.828357
0.922313 0.918003 0.823168
1.000000 0.913871 0.819037
0.000000 1.000000 0.855513
0.000000 1.000000 0.848696
0.162949 1.000000 0.841879
0.327729 1.000000 0.835310
0.488363 1.000000 0.828906
0.644230 1.000000 0.822692
0.781029 0.998286 0.817238
0.911194 0.993097 0.812049
1.000000 0.988966 0.807918
