luts/storybook_warmth.cube
TITLE "Cinema Amelie"
LUT_3D_SIZE 5
0.000000 0.000000 0.000000
0.336868 0.000000 0.000000
0.662283 0.000000 0.000000
0.954948 0.000000 0.000000
1.000000 0.000000 0.000000
0.000000 0.269386 0.000000
0.292392 0.255752 0.000000
0.617807 0.242779 0.000000
0.910472 0.231111 0.000000
1.000000 0.221791 0.000000
0.000000 0.569763 0.000000
0.247917 0.556129 0.000000
0.573331 0.543156 0.000000
0.865997 0.531489 0.000000
1.000000 0.522168 0.000000
0.000000 0.852118 0.000000
0.206109 0.838484 0.000000
0.531524 0.825511 0.000000
0.824189 0.813844 0.000000
1.000000 0.804523 0.000000
0.000000 1.000000 0.000000
0.176755 1.000000 0.000000
0.502169 1.000000 0.000000
0.794835 1.000000 0.000000
1.000000 1.000000 0.000000
0.000000 0.000000 0.245554
0.333220 0.000000 0.231920
0.658635 0.000000 0.218947
0.951300 0.000000 0.207279
1.000000 0.000000 0.197959
0.000000 0.265738 0.201078
0.288744 0.252104 0.187444
0.614159 0.239131 0.174471
0.906824 0.227463 0.162803
1.000000 0.218143 0.153483
0.000000 0.566115 0.156602
0.244269 0.552481 0.142968
0.569683 0.539508 0.129995
0.862349 0.527841 0.118327
1.000000 0.518520 0.109007
0.000000 0.848470 0.114795
0.202461 0.834836 0.101161
0.527876 0.821863 0.088188
0.820541 0.810196 0.076520
1.000000 0.800875 0.067199
0.000000 1.000000 0.085440
0.173107 1.000000 0.071806
0.498521 1.000000 0.058833
0.791187 1.000000 0.047166
1.000000 0.999124 0.037845
0.000000 0.000000 0.522099
0.329572 0.000000 0.508465
0.654987 0.000000 0.495492
0.947652 0.000000 0.483825
1.000000 0.000000 0.474504
0.000000 0.262090 0.477623
0.285096 0.248456 0.463989
0.610511 0.235483 0.451016
0.903176 0.223815 0.439349
1.000000 0.214495 0.430028
0.000000 0.562467 0.433147
0.240621 0.548833 0.419513
0.566035 0.535860 0.406540
0.858701 0.524193 0.394873
1.000000 0.514872 0.385552
0.000000 0.844822 0.391340
0.198813 0.831188 0.377706
0.524228 0.818215 0.364733
0.816893 0.806548 0.353065
1.000000 0.797227 0.343745
0.000000 1.000000 0.361986
0.169459 1.000000 0.348352
0.494873 1.000000 0.335379
0.787539 1.000000 0.323711
1.000000 0.995476 0.314391
0.000000 0.000000 0.770564
0.326295 0.000000 0.756930
0.651709 0.000000 0.743957
0.944375 0.000000 0.732290
1.000000 0.000000 0.722969
0.000000 0.258812 0.726088
0.281819 0.245178 0.712454
0.607233 0.232205 0.699481
0.899899 0.220538 0.687814
1.000000 0.211217 0.678493
0.000000 0.559190 0.681613
0.237343 0.545556 0.667979
0.562757 0.532583 0.655006
0.855423 0.520915 0.643338
1.000000 0.511594 0.634017
0.000000 0.841544 0.639805
0.195536 0.827910 0.626171
0.520950 0.814937 0.613198
0.813616 0.803270 0.601531
1.000000 0.793949 0.592210
0.000000 1.000000 0.610451
0.166181 1.000000 0.596817
0.491596 1.000000 0.583844
0.784261 1.000000 0.572177
1.000000 0.992198 0.562856
0.000000 0.000000 1.000000
0.323062 0.000000 1.000000
0.648476 0.000000 0.989019
0.941142 0.000000 0.977352
1.000000 0.000000 0.968031
0.000000 0.255579 0.971150
0.278586 0.241945 0.957516
0.604000 0.228972 0.944543
0.896666 0.217305 0.932876
1.000000 0.207984 0.923555
0.000000 0.555957 0.926674
0.234110 0.542323 0.913040
0.559525 0.529350 0.900067
0.852190 0.517682 0.888400
1.000000 0.508362 0.879079
0.000000 0.838312 0.884867
0.192303 0.824678 0.871233
0.517717 0.811705 0.858260
0.810383 0.800037 0.846592
1.000000 0.790717 0.837272
0.000000 1.000000 0.855513
0.162949 1.000000 0.841879
0.488363 1.000000 0.828906
0.781029 0.998286 0.817238
1.000000 0.988966 0.807918
