luts/tungsten_cinema_500.cube
TITLE "Kodak Vision3 500T"
LUT_3D_SIZE 9
0.094894 0.045286 0.019678
0.206900 0.048442 0.022834
0.318905 0.051597 0.025989
0.430911 0.054753 0.029145
0.542917 0.057909 0.032301
0.649323 0.060907 0.035299
0.733327 0.063273 0.037665
0.817332 0.065640 0.040032
0.895844 0.067852 0.042244
0.100209 0.154461 0.029267
0.212215 0.157617 0.032422
0.324221 0.160773 0.035578
0.436226 0.163928 0.038734
0.548232 0.167084 0.041889
0.654638 0.170082 0.044887
0.738642 0.172449 0.047254
0.822647 0.174815 0.049621
0.905557 0.177151 0.051957
0.105524 0.263636 0.038855
0.217530 0.266792 0.042011
0.329536 0.269948 0.045166
0.441541 0.273103 0.048322
0.553547 0.276259 0.051478
0.659953 0.279257 0.054476
0.743957 0.281624 0.056842
0.827962 0.283990 0.059209
0.911966 0.286357 0.061576
0.110953 0.375151 0.048649
0.222959 0.378307 0.051805
0.334965 0.381462 0.054960
0.446970 0.384618 0.058116
0.558976 0.387774 0.061272
0.665382 0.390772 0.064270
0.749386 0.393138 0.066636
0.833391 0.395505 0.069003
0.917395 0.397872 0.071370
0.116458 0.488225 0.058580
0.228464 0.491381 0.061736
0.340469 0.494537 0.064891
0.452475 0.497692 0.068047
0.564481 0.500848 0.071203
0.670992 0.503851 0.074406
0.755365 0.506235 0.077493
0.839738 0.508619 0.080580
0.924111 0.511002 0.083667
0.121801 0.597985 0.068220
0.233807 0.601141 0.071376
0.345969 0.604304 0.074837
0.458467 0.607483 0.078953
0.570965 0.610661 0.083069
0.677837 0.613681 0.086980
0.762210 0.616064 0.090067
0.846583 0.618448 0.093154
0.930957 0.620832 0.096241
0.126993 0.694511 0.077660
0.239490 0.697690 0.081776
0.351988 0.700868 0.085892
0.464486 0.704047 0.090008
0.576983 0.707225 0.094124
0.683856 0.710245 0.098035
0.768229 0.712629 0.101122
0.852602 0.715013 0.104209
0.936975 0.717397 0.107296
0.133012 0.791076 0.088715
0.245509 0.794254 0.092831
0.358007 0.797433 0.096947
0.470504 0.800611 0.101063
0.583002 0.803790 0.105180
0.689874 0.806809 0.109090
0.774247 0.809193 0.112177
0.858621 0.811577 0.115264
0.942994 0.813961 0.118351
0.139030 0.887640 0.099770
0.251528 0.890819 0.103886
0.364025 0.893997 0.108002
0.476523 0.897176 0.112119
0.589020 0.900354 0.116235
0.695893 0.903374 0.120145
0.780266 0.905758 0.123232
0.864639 0.908141 0.126319
0.949012 0.910525 0.129406
0.095063 0.045840 0.077663
0.207087 0.049014 0.082712
0.319111 0.052189 0.087762
0.431136 0.055363 0.092811
0.543160 0.058537 0.097861
0.649583 0.061552 0.102657
0.733602 0.063933 0.106445
0.817620 0.066313 0.110232
0.896542 0.068550 0.113875
0.100434 0.155072 0.093006
0.212458 0.158246 0.098055
0.324483 0.161420 0.103104
0.436507 0.164594 0.108154
0.548531 0.167768 0.113203
0.654954 0.170784 0.118000
0.738973 0.173164 0.121787
0.822991 0.175545 0.125574
0.906311 0.177906 0.129341
0.105805 0.264303 0.108348
0.217829 0.267477 0.113398
0.329854 0.270651 0.118447
0.441878 0.273825 0.123496
0.553903 0.276999 0.128546
0.660326 0.280015 0.133343
0.744344 0.282395 0.137130
0.828362 0.284776 0.140917
0.912380 0.287157 0.144704
0.111291 0.375875 0.124020
0.223316 0.379049 0.129069
0.335340 0.382223 0.134118
0.447364 0.385397 0.139168
0.559389 0.388571 0.144217
0.665812 0.391587 0.149014
0.749830 0.393967 0.152801
0.833848 0.396348 0.156588
0.917867 0.398729 0.160375
0.116854 0.489007 0.139910
0.228879 0.492181 0.144959
0.340903 0.495356 0.150009
0.452927 0.498530 0.155058
0.564952 0.501704 0.160108
0.671606 0.504721 0.164450
0.755979 0.507105 0.167537
0.840352 0.509489 0.170624
0.924725 0.511873 0.173711
0.122254 0.598824 0.155335
0.234279 0.601998 0.160384
0.346583 0.605175 0.164881
0.459081 0.608353 0.168997
0.571578 0.611532 0.173113
0.678451 0.614551 0.177023
0.762824 0.616935 0.180111
0.847197 0.619319 0.183198
0.931570 0.621703 0.186285
0.127607 0.695382 0.167704
0.240104 0.698560 0.171820
0.352602 0.701739 0.175936
0.465099 0.704917 0.180052
0.577597 0.708096 0.184168
0.684469 0.711115 0.188079
0.768843 0.713499 0.191166
0.853216 0.715883 0.194253
0.937589 0.718267 0.197340
0.133625 0.791946 0.178759
0.246123 0.795125 0.182875
0.358620 0.798303 0.186991
0.471118 0.801482 0.191107
0.583615 0.804660 0.195224
0.690488 0.807680 0.199134
0.774861 0.810064 0.202221
0.859234 0.812448 0.205308
0.943607 0.814831 0.208395
0.139644 0.888511 0.189814
0.252141 0.891689 0.193930
0.364639 0.894868 0.198046
0.477136 0.898046 0.202163
0.589634 0.901225 0.206279
0.696507 0.904244 0.210189
0.780880 0.906628 0.213276
0.865253 0.909012 0.216363
0.949626 0.911396 0.219450
0.095547 0.046710 0.167963
0.207571 0.049884 0.173012
0.319596 0.053058 0.178061
0.431620 0.056232 0.183111
0.543644 0.059406 0.188160
0.650067 0.062422 0.192957
0.734086 0.064802 0.196744
0.818104 0.067183 0.200531
0.897423 0.069431 0.204186
0.100918 0.155941 0.183305
0.212942 0.159115 0.188355
0.324967 0.162289 0.193404
0.436991 0.165463 0.198453
0.549015 0.168637 0.203503
0.655439 0.171653 0.208300
0.739457 0.174033 0.212087
0.823475 0.176414 0.215874
0.907191 0.178786 0.219652
0.106289 0.265172 0.198648
0.218314 0.268346 0.203697
0.330338 0.271520 0.208747
0.442362 0.274695 0.213796
0.554387 0.277869 0.218845
0.660810 0.280884 0.223642
0.744828 0.283265 0.227429
0.828846 0.285645 0.231216
0.912865 0.288026 0.235003
0.111775 0.376744 0.214319
0.223800 0.379918 0.219369
0.335824 0.383092 0.224418
0.447849 0.386267 0.229467
0.559873 0.389441 0.234517
0.666296 0.392456 0.239314
0.750314 0.394837 0.243101
0.834333 0.397217 0.246888
0.918351 0.399598 0.250675
0.117338 0.489877 0.230210
0.229363 0.493051 0.235259
0.341387 0.496225 0.240308
0.453412 0.499399 0.245358
0.565436 0.502573 0.250407
0.672219 0.505592 0.254494
0.756592 0.507976 0.257581
0.840966 0.510360 0.260668
0.925339 0.512743 0.263755
0.122738 0.599693 0.245634
0.234763 0.602867 0.250684
0.347197 0.606045 0.254925
0.459694 0.609224 0.259041
0.572192 0.612402 0.263157
0.679065 0.615422 0.267067
0.763438 0.617805 0.270155
0.847811 0.620189 0.273242
0.932184 0.622573 0.276329
0.128220 0.696252 0.257748
0.240718 0.699431 0.261864
0.353215 0.702609 0.265980
0.465713 0.705788 0.270096
0.578211 0.708966 0.274212
0.685083 0.711986 0.278123
0.769456 0.714370 0.281210
0.853829 0.716754 0.284297
0.938203 0.719138 0.287384
0.134239 0.792817 0.268803
0.246736 0.795995 0.272919
0.359234 0.799174 0.277035
0.471732 0.802352 0.281151
0.584229 0.805531 0.285267
0.691102 0.808550 0.289178
0.775475 0.810934 0.292265
0.859848 0.813318 0.295352
0.944221 0.815702 0.298439
0.140258 0.889381 0.279858
0.252755 0.892560 0.283974
0.365253 0.895738 0.288090
0.477750 0.898917 0.292207
0.590248 0.902095 0.296323
0.697120 0.905115 0.300233
0.781493 0.907499 0.303320
0.865867 0.909882 0.306407
0.950240 0.912266 0.309494
0.096066 0.047642 0.264764
0.208090 0.050816 0.269813
0.320115 0.053990 0.274863
0.432139 0.057164 0.279912
0.544163 0.060338 0.284961
0.650586 0.063353 0.289758
0.734605 0.065734 0.293545
0.818623 0.068115 0.297332
0.898367 0.070375 0.300999
0.101437 0.156873 0.280106
0.213461 0.160047 0.285156
0.325486 0.163221 0.290205
0.437510 0.166395 0.295254
0.549534 0.169569 0.300304
0.655958 0.172585 0.305101
0.739976 0.174965 0.308888
0.823994 0.177346 0.312675
0.908012 0.179727 0.316462
0.106808 0.266104 0.295449
0.218833 0.269278 0.300498
0.330857 0.272452 0.305548
0.442881 0.275627 0.310597
0.554906 0.278801 0.315646
0.661329 0.281816 0.320443
0.745347 0.284197 0.324230
0.829365 0.286577 0.328017
0.913384 0.288958 0.331804
0.112294 0.377676 0.311120
0.224319 0.380850 0.316170
0.336343 0.384024 0.321219
0.448368 0.387198 0.326268
0.560392 0.390373 0.331318
0.666815 0.393388 0.336115
0.750833 0.395769 0.339902
0.834852 0.398149 0.343689
0.918945 0.400530 0.347328
0.117857 0.490808 0.327011
0.229882 0.493983 0.332060
0.341906 0.497157 0.337110
0.453931 0.500331 0.342159
0.566004 0.503505 0.347110
0.672877 0.506525 0.351021
0.757250 0.508909 0.354108
0.841623 0.511293 0.357195
0.925997 0.513677 0.360282
0.123257 0.600625 0.342436
0.235357 0.603800 0.347336
0.347855 0.606978 0.351452
0.460352 0.610157 0.355568
0.572850 0.613335 0.359684
0.679723 0.616355 0.363595
0.764096 0.618739 0.366682
0.848469 0.621123 0.369769
0.932842 0.623506 0.372856
0.128878 0.697186 0.354275
0.241376 0.700364 0.358391
0.353873 0.703543 0.362507
0.466371 0.706721 0.366623
0.578868 0.709900 0.370739
0.685741 0.712919 0.374650
0.770114 0.715303 0.377737
0.854487 0.717687 0.380824
0.938861 0.720071 0.383911
0.134897 0.793750 0.365330
0.247394 0.796929 0.369446
0.359892 0.800107 0.373562
0.472389 0.803285 0.377678
0.584887 0.806464 0.381795
0.691760 0.809484 0.385705
0.776133 0.811867 0.388792
0.860506 0.814251 0.391879
0.944879 0.816635 0.394966
0.140915 0.890314 0.376385
0.253413 0.893493 0.380501
0.365911 0.896671 0.384618
0.478408 0.899850 0.388734
0.590906 0.903028 0.392850
0.697778 0.906048 0.396760
0.782151 0.908432 0.399847
0.866525 0.910816 0.402934
0.950898 0.913200 0.406021
0.096608 0.048615 0.365899
0.208632 0.051789 0.370949
0.320657 0.054963 0.375998
0.432681 0.058138 0.381047
0.544706 0.061312 0.386097
0.651129 0.064327 0.390894
0.735147 0.066708 0.394681
0.819165 0.069088 0.398468
0.899353 0.071361 0.402147
0.101979 0.157846 0.381242
0.214004 0.161021 0.386291
0.326028 0.164195 0.391341
0.438052 0.167369 0.396390
0.550077 0.170543 0.401439
0.656500 0.173558 0.406236
0.740518 0.175939 0.410023
0.824536 0.178320 0.413810
0.908555 0.180700 0.417597
0.107350 0.267078 0.396584
0.219375 0.270252 0.401634
0.331399 0.273426 0.406683
0.443423 0.276600 0.411733
0.555448 0.279774 0.416782
0.661871 0.282790 0.421579
0.745889 0.285170 0.425366
0.829908 0.287551 0.429153
0.913926 0.289931 0.432940
0.112837 0.378650 0.412256
0.224861 0.381824 0.417305
0.336885 0.384998 0.422355
0.448910 0.388172 0.427404
0.560934 0.391346 0.432453
0.667357 0.394362 0.437250
0.751376 0.396742 0.441037
0.835394 0.399123 0.444824
0.919632 0.401505 0.448178
0.118400 0.491782 0.428146
0.230424 0.494956 0.433196
0.342448 0.498130 0.438245
0.454473 0.501305 0.443294
0.566692 0.504480 0.447960
0.673564 0.507500 0.451870
0.757938 0.509884 0.454957
0.842311 0.512268 0.458044
0.926684 0.514652 0.461131
0.123800 0.601599 0.443571
0.236045 0.604775 0.448185
0.348542 0.607953 0.452301
0.461040 0.611132 0.456417
0.573537 0.614310 0.460534
0.680410 0.617330 0.464444
0.764783 0.619714 0.467531
0.849156 0.622098 0.470618
0.933529 0.624481 0.473705
0.129566 0.698161 0.455124
0.242063 0.701339 0.459240
0.354561 0.704518 0.463356
0.467058 0.707696 0.467473
0.579556 0.710875 0.471589
0.686428 0.713894 0.475499
0.770802 0.716278 0.478586
0.855175 0.718662 0.481673
0.939548 0.721046 0.484760
0.135584 0.794725 0.466179
0.248082 0.797903 0.470296
0.360579 0.801082 0.474412
0.473077 0.804260 0.478528
0.585574 0.807439 0.482644
0.692447 0.810459 0.486554
0.776820 0.812842 0.489641
0.861193 0.815226 0.492728
0.945566 0.817610 0.495815
0.141603 0.891289 0.477235
0.254100 0.894468 0.481351
0.366598 0.897646 0.485467
0.479095 0.900825 0.489583
0.591593 0.904003 0.493699
0.698466 0.907023 0.497609
0.782839 0.909407 0.500696
0.867212 0.911791 0.503783
0.951585 0.914174 0.506871
0.097135 0.049561 0.464145
0.209159 0.052735 0.469195
0.321184 0.055909 0.474244
0.433208 0.059083 0.479293
0.545232 0.062257 0.484343
0.651655 0.065273 0.489140
0.735674 0.067654 0.492927
0.819692 0.070034 0.496714
0.900311 0.072319 0.500405
0.102506 0.158792 0.479488
0.214530 0.161966 0.484537
0.326555 0.165141 0.489587
0.438579 0.168315 0.494636
0.550603 0.171489 0.499685
0.657027 0.174504 0.504482
0.741045 0.176885 0.508269
0.825063 0.179265 0.512056
0.909081 0.181646 0.515843
0.107877 0.268024 0.494830
0.219901 0.271198 0.499880
0.331926 0.274372 0.504929
0.443950 0.277546 0.509978
0.555975 0.280720 0.515028
0.662398 0.283736 0.519825
0.746416 0.286116 0.523612
0.830434 0.288497 0.527399
0.914453 0.290877 0.531186
0.113363 0.379596 0.510502
0.225388 0.382770 0.515551
0.337412 0.385944 0.520600
0.449436 0.389118 0.525650
0.561461 0.392292 0.530699
0.667884 0.395307 0.535496
0.751902 0.397688 0.539283
0.835926 0.400069 0.543058
0.920300 0.402453 0.546146
0.118926 0.492728 0.526392
0.230951 0.495902 0.531442
0.342975 0.499076 0.536491
0.454999 0.502250 0.541540
0.567360 0.505428 0.545928
0.674232 0.508447 0.549838
0.758605 0.510831 0.552925
0.842979 0.513215 0.556012
0.927352 0.515599 0.559099
0.124326 0.602544 0.541817
0.236712 0.605722 0.546153
0.349210 0.608900 0.550269
0.461707 0.612079 0.554385
0.574205 0.615257 0.558501
0.681078 0.618277 0.562412
0.765451 0.620661 0.565499
0.849824 0.623045 0.568586
0.934197 0.625428 0.571673
0.130233 0.699108 0.553092
0.242731 0.702286 0.557208
0.355228 0.705465 0.561324
0.467726 0.708643 0.565440
0.580224 0.711822 0.569557
0.687096 0.714841 0.573467
0.771469 0.717225 0.576554
0.855842 0.719609 0.579641
0.940216 0.721993 0.582728
0.136252 0.795672 0.564147
0.248749 0.798851 0.568263
0.361247 0.802029 0.572379
0.473745 0.805208 0.576496
0.586242 0.808386 0.580612
0.693115 0.811406 0.584522
0.777488 0.813789 0.587609
0.861861 0.816173 0.590696
0.946234 0.818557 0.593783
0.142271 0.892236 0.575202
0.254768 0.895415 0.579319
0.367266 0.898593 0.583435
0.479763 0.901772 0.587551
0.592261 0.904950 0.591667
0.699133 0.907970 0.595577
0.783506 0.910354 0.598664
0.867880 0.912738 0.601751
0.952253 0.915122 0.604838
0.097600 0.050396 0.550833
0.209624 0.053570 0.555882
0.321648 0.056744 0.560932
0.433673 0.059918 0.565981
0.545697 0.063092 0.571030
0.652120 0.066107 0.575827
0.736138 0.068488 0.579614
0.820157 0.070869 0.583401
0.901156 0.073164 0.587103
0.102971 0.159627 0.566175
0.214995 0.162801 0.571225
0.327019 0.165975 0.576274
0.439044 0.169149 0.581323
0.551068 0.172323 0.586373
0.657491 0.175339 0.591170
0.741510 0.177719 0.594957
0.825528 0.180100 0.598744
0.909546 0.182481 0.602531
0.108342 0.268858 0.581518
0.220366 0.272032 0.586567
0.332391 0.275206 0.591617
0.444415 0.278380 0.596666
0.556439 0.281555 0.601715
0.662862 0.284570 0.606512
0.746881 0.286951 0.610299
0.830899 0.289331 0.614086
0.914917 0.291712 0.617873
0.113828 0.380430 0.597189
0.225853 0.383604 0.602239
0.337877 0.386778 0.607288
0.449901 0.389952 0.612337
0.561926 0.393127 0.617387
0.668349 0.396142 0.622184
0.752367 0.398523 0.625971
0.836516 0.400904 0.629501
0.920889 0.403288 0.632588
0.119391 0.493562 0.613080
0.231415 0.496737 0.618129
0.343440 0.499911 0.623179
0.455464 0.503085 0.628228
0.567949 0.506263 0.632370
0.674821 0.509283 0.636280
0.759195 0.511667 0.639367
0.843568 0.514051 0.642454
0.927941 0.516434 0.645541
0.124804 0.603379 0.628479
0.237302 0.606558 0.632595
0.349799 0.609736 0.636711
0.462297 0.612915 0.640827
0.574794 0.616093 0.644944
0.681667 0.619113 0.648854
0.766040 0.621496 0.651941
0.850413 0.623880 0.655028
0.934786 0.626264 0.658115
0.130823 0.699943 0.639534
0.243320 0.703122 0.643650
0.355818 0.706300 0.647767
0.468315 0.709479 0.651883
0.580813 0.712657 0.655999
0.687685 0.715677 0.659909
0.772058 0.718061 0.662996
0.856432 0.720445 0.666083
0.940805 0.722829 0.669170
0.136841 0.796508 0.650589
0.249339 0.799686 0.654706
0.361836 0.802865 0.658822
0.474334 0.806043 0.662938
0.586831 0.809222 0.667054
0.693704 0.812241 0.670964
0.778077 0.814625 0.674051
0.862450 0.817009 0.677138
0.946823 0.819393 0.680225
0.142860 0.893072 0.661645
0.255357 0.896251 0.665761
0.367855 0.899429 0.669877
0.480352 0.902608 0.673993
0.592850 0.905786 0.678109
0.699722 0.908806 0.682019
0.784096 0.911190 0.685106
0.868469 0.913573 0.688194
0.952842 0.915957 0.691281
0.098064 0.051230 0.637520
0.210089 0.054404 0.642570
0.322113 0.057578 0.647619
0.434137 0.060752 0.652668
0.546162 0.063927 0.657718
0.652585 0.066942 0.662515
0.736603 0.069323 0.666302
0.820621 0.071703 0.670089
0.902001 0.074009 0.673802
0.103435 0.160461 0.652863
0.215460 0.163635 0.657912
0.327484 0.166810 0.662962
0.439509 0.169984 0.668011
0.551533 0.173158 0.673060
0.657956 0.176173 0.677857
0.741974 0.178554 0.681644
0.825993 0.180934 0.685431
0.910011 0.183315 0.689218
0.108807 0.269693 0.668206
0.220831 0.272867 0.673255
0.332855 0.276041 0.678304
0.444880 0.279215 0.683354
0.556904 0.282389 0.688403
0.663327 0.285405 0.693200
0.747346 0.287785 0.696987
0.831364 0.290166 0.700774
0.915382 0.292546 0.704561
0.114293 0.381265 0.683877
0.226317 0.384439 0.688926
0.338342 0.387613 0.693976
0.450366 0.390787 0.699025
0.562390 0.393961 0.704074
0.668814 0.396977 0.708871
0.752832 0.399357 0.712658
0.837105 0.401740 0.715943
0.921478 0.404124 0.719030
0.119856 0.494397 0.699767
0.231880 0.497571 0.704817
0.343905 0.500745 0.709866
0.456040 0.503920 0.714696
0.568538 0.507099 0.718812
0.675411 0.510118 0.722722
0.759784 0.512502 0.725809
0.844157 0.514886 0.728896
0.928530 0.517270 0.731983
0.125393 0.604215 0.714921
0.237891 0.607393 0.719037
0.350388 0.610572 0.723154
0.462886 0.613750 0.727270
0.575383 0.616929 0.731386
0.682256 0.619948 0.735296
0.766629 0.622332 0.738383
0.851002 0.624716 0.741470
0.935375 0.627100 0.744557
0.131412 0.700779 0.725976
0.243909 0.703958 0.730093
0.356407 0.707136 0.734209
0.468904 0.710315 0.738325
0.581402 0.713493 0.742441
0.688275 0.716513 0.746351
0.772648 0.718896 0.749438
0.857021 0.721280 0.752525
0.941394 0.723664 0.755612
0.137430 0.797343 0.737032
0.249928 0.800522 0.741148
0.362425 0.803700 0.745264
0.474923 0.806879 0.749380
0.587420 0.810057 0.753496
0.694293 0.813077 0.757406
0.778666 0.815461 0.760493
0.863039 0.817845 0.763581
0.947413 0.820229 0.766668
0.143449 0.893908 0.748087
0.255946 0.897086 0.752203
0.368444 0.900265 0.756319
0.480941 0.903443 0.760435
0.593439 0.906622 0.764551
0.700312 0.909641 0.768462
0.784685 0.912025 0.771549
0.869058 0.914409 0.774636
0.953431 0.916793 0.777723
0.098529 0.052065 0.724208
0.210553 0.055239 0.729257
0.322578 0.058413 0.734307
0.434602 0.061587 0.739356
0.546627 0.064761 0.744405
0.653050 0.067777 0.749202
0.737068 0.070157 0.752989
0.821086 0.072538 0.756776
0.902847 0.074855 0.760500
0.103900 0.161296 0.739551
0.215925 0.164470 0.744600
0.327949 0.167644 0.749649
0.439973 0.170818 0.754699
0.551998 0.173992 0.759748
0.658421 0.177008 0.764545
0.742439 0.179388 0.768332
0.826457 0.181769 0.772119
0.910476 0.184150 0.775906
0.109271 0.270527 0.754893
0.221296 0.273701 0.759942
0.333320 0.276875 0.764992
0.445344 0.280050 0.770041
0.557369 0.283224 0.775091
0.663792 0.286239 0.779888
0.747810 0.288620 0.783675
0.831829 0.291000 0.787462
0.915847 0.293381 0.791249
0.114758 0.382099 0.770564
0.226782 0.385273 0.775614
0.338806 0.388447 0.780663
0.450831 0.391622 0.785713
0.562855 0.394796 0.790762
0.669278 0.397811 0.795559
0.753321 0.400192 0.799298
0.837694 0.402576 0.802385
0.922067 0.404960 0.805472
0.120321 0.495232 0.786455
0.232345 0.498406 0.791504
0.344369 0.501580 0.796554
0.456630 0.504756 0.801138
0.569127 0.507935 0.805254
0.676000 0.510954 0.809164
0.760373 0.513338 0.812252
0.844746 0.515722 0.815339
0.929119 0.518106 0.818426
0.125982 0.605050 0.801364
0.238480 0.608229 0.805480
0.350977 0.611407 0.809596
0.463475 0.614586 0.813712
0.575972 0.617764 0.817828
0.682845 0.620784 0.821738
0.767218 0.623168 0.824825
0.851591 0.625552 0.827912
0.935965 0.627936 0.831000
0.132001 0.701615 0.812419
0.244498 0.704793 0.816535
0.356996 0.707972 0.820651
0.469493 0.711150 0.824767
0.581991 0.714329 0.828883
0.688864 0.717348 0.832793
0.773237 0.719732 0.835881
0.857610 0.722116 0.838968
0.941983 0.724500 0.842055
0.138019 0.798179 0.823474
0.250517 0.801358 0.827590
0.363015 0.804536 0.831706
0.475512 0.807715 0.835822
0.588010 0.810893 0.839938
0.694882 0.813913 0.843849
0.779255 0.816297 0.846936
0.863629 0.818680 0.850023
0.948002 0.821064 0.853110
0.144038 0.894744 0.834529
0.256536 0.897922 0.838645
0.369033 0.901101 0.842761
0.481531 0.904279 0.846877
0.594028 0.907457 0.850993
0.700901 0.910477 0.854904
0.785274 0.912861 0.857991
0.869647 0.915245 0.861078
0.954020 0.917629 0.864165
