luts/tungsten_cinema_500.cube
TITLE "Kodak Vision3 500T"
LUT_3D_SIZE 5
0.094894 0.045286 0.019678
0.318905 0.051597 0.025989
0.542917 0.057909 0.032301
0.733327 0.063273 0.037665
0.895844 0.067852 0.042244
0.105524 0.263636 0.038855
0.329536 0.269948 0.045166
0.553547 0.276259 0.051478
0.743957 0.281624 0.056842
0.911966 0.286357 0.061576
0.116458 0.488225 0.058580
0.340469 0.494537 0.064891
0.564481 0.500848 0.071203
0.755365 0.506235 0.077493
0.924111 0.511002 0.083667
0.126993 0.694511 0.077660
0.351988 0.700868 0.085892
0.576983 0.707225 0.094124
0.768229 0.712629 0.101122
0.936975 0.717397 0.107296
0.139030 0.887640 0.099770
0.364025 0.893997 0.108002
0.589020 0.900354 0.116235
0.780266 0.905758 0.123232
0.949012 0.910525 0.129406
0.095547 0.046710 0.167963
0.319596 0.053058 0.178061
0.543644 0.059406 0.188160
0.734086 0.064802 0.196744
0.897423 0.069431 0.204186
0.106289 0.265172 0.198648
0.330338 0.271520 0.208747
0.554387 0.277869 0.218845
0.744828 0.283265 0.227429
0.912865 0.288026 0.235003
0.117338 0.489877 0.230210
0.341387 0.496225 0.240308
0.565436 0.502573 0.250407
0.756592 0.507976 0.257581
0.925339 0.512743 0.263755
0.128220 0.696252 0.257748
0.353215 0.702609 0.265980
0.578211 0.708966 0.274212
0.769456 0.714370 0.281210
0.938203 0.719138 0.287384
0.140258 0.889381 0.279858
0.365253 0.895738 0.288090
0.590248 0.902095 0.296323
0.781493 0.907499 0.303320
0.950240 0.912266 0.309494
0.096608 0.048615 0.365899
0.320657 0.054963 0.375998
0.544706 0.061312 0.386097
0.735147 0.066708 0.394681
0.899353 0.071361 0.402147
0.107350 0.267078 0.396584
0.331399 0.273426 0.406683
0.555448 0.279774 0.416782
0.745889 0.285170 0.425366
0.913926 0.289931 0.432940
0.118400 0.491782 0.428146
0.342448 0.498130 0.438245
0.566692 0.504480 0.447960
0.757938 0.509884 0.454957
0.926684 0.514652 0.461131
0.129566 0.698161 0.455124
0.354561 0.704518 0.463356
0.579556 0.710875 0.471589
0.770802 0.716278 0.478586
0.939548 0.721046 0.484760
0.141603 0.891289 0.477235
0.366598 0.897646 0.485467
0.591593 0.904003 0.493699
0.782839 0.909407 0.500696
0.951585 0.914174 0.506871
0.097600 0.050396 0.550833
0.321648 0.056744 0.560932
0.545697 0.063092 0.571030
0.736138 0.068488 0.579614
0.901156 0.073164 0.587103
0.108342 0.268858 0.581518
0.332391 0.275206 0.591617
0.556439 0.281555 0.601715
0.746881 0.286951 0.610299
0.914917 0.291712 0.617873
0.119391 0.493562 0.613080
0.343440 0.499911 0.623179
0.567949 0.506263 0.632370
0.759195 0.511667 0.639367
0.927941 0.516434 0.645541
0.130823 0.699943 0.639534
0.355818 0.706300 0.647767
0.580813 0.712657 0.655999
0.772058 0.718061 0.662996
0.940805 0.722829 0.669170
0.142860 0.893072 0.661645
0.367855 0.899429 0.669877
0.592850 0.905786 0.678109
0.784096 0.911190 0.685106
0.952842 0.915957 0.691281
0.098529 0.052065 0.724208
0.322578 0.058413 0.734307
0.546627 0.064761 0.744405
0.737068 0.070157 0.752989
0.902847 0.074855 0.760500
0.109271 0.270527 0.754893
0.333320 0.276875 0.764992
0.557369 0.283224 0.775091
0.747810 0.288620 0.783675
0.915847 0.293381 0.791249
0.120321 0.495232 0.786455
0.344369 0.501580 0.796554
0.569127 0.507935 0.805254
0.760373 0.513338 0.812252
0.929119 0.518106 0.818426
0.132001 0.701615 0.812419
0.356996 0.707972 0.820651
0.581991 0.714329 0.828883
0.773237 0.719732 0.835881
0.941983 0.724500 0.842055
0.144038 0.894744 0.834529
0.369033 0.901101 0.842761
0.594028 0.907457 0.850993
0.785274 0.912861 0.857991
0.954020 0.917629 0.864165
