luts/tungsten_cinema_500.cube
TITLE "Kodak Vision3 500T"
LUT_3D_SIZE 33
0.094894 0.045286 0.019678
0.122895 0.046075 0.020467
0.150897 0.046864 0.021256
0.178898 0.047653 0.022045
0.206900 0.048442 0.022834
0.234901 0.049231 0.023623
0.262903 0.050020 0.024412
0.290904 0.050808 0.025200
0.318905 0.051597 0.025989
0.346907 0.052386 0.026778
0.374908 0.053175 0.027567
0.402910 0.053964 0.028356
0.430911 0.054753 0.029145
0.458913 0.055542 0.029934
0.486914 0.056331 0.030723
0.514916 0.057120 0.031512
0.542917 0.057909 0.032301
0.570919 0.058698 0.033090
0.598920 0.059487 0.033879
0.626922 0.060275 0.034667
0.649323 0.060907 0.035299
0.670324 0.061498 0.035890
0.691325 0.062090 0.036482
0.712326 0.062682 0.037074
0.733327 0.063273 0.037665
0.754328 0.063865 0.038257
0.775330 0.064457 0.038849
0.796331 0.065048 0.039440
0.817332 0.065640 0.040032
0.838333 0.066232 0.040624
0.859334 0.066823 0.041215
0.880335 0.067415 0.041807
0.895844 0.067852 0.042244
0.096222 0.072580 0.022075
0.124224 0.073369 0.022864
0.152225 0.074158 0.023653
0.180227 0.074947 0.024442
0.208228 0.075736 0.025231
0.236230 0.076524 0.026020
0.264231 0.077313 0.026809
0.292233 0.078102 0.027598
0.320234 0.078891 0.028387
0.348236 0.079680 0.029175
0.376237 0.080469 0.029964
0.404239 0.081258 0.030753
0.432240 0.082047 0.031542
0.460242 0.082836 0.032331
0.488243 0.083625 0.033120
0.516245 0.084414 0.033909
0.544246 0.085203 0.034698
0.572247 0.085991 0.035487
0.600249 0.086780 0.036276
0.628250 0.087569 0.037065
0.650652 0.088200 0.037696
0.671653 0.088792 0.038287
0.692654 0.089384 0.038879
0.713655 0.089975 0.039471
0.734656 0.090567 0.040062
0.755657 0.091159 0.040654
0.776658 0.091751 0.041246
0.797659 0.092342 0.041838
0.818660 0.092934 0.042429
0.839662 0.093526 0.043021
0.860663 0.094117 0.043613
0.881664 0.094709 0.044204
0.898272 0.095177 0.044672
0.097551 0.099874 0.024472
0.125553 0.100663 0.025261
0.153554 0.101451 0.026050
0.181556 0.102240 0.026839
0.209557 0.103029 0.027628
0.237559 0.103818 0.028417
0.265560 0.104607 0.029206
0.293562 0.105396 0.029995
0.321563 0.106185 0.030784
0.349564 0.106974 0.031573
0.377566 0.107763 0.032361
0.405567 0.108552 0.033150
0.433569 0.109341 0.033939
0.461570 0.110130 0.034728
0.489572 0.110918 0.035517
0.517573 0.111707 0.036306
0.545575 0.112496 0.037095
0.573576 0.113285 0.037884
0.601578 0.114074 0.038673
0.629579 0.114863 0.039462
0.651980 0.115494 0.040093
0.672982 0.116086 0.040685
0.693983 0.116678 0.041276
0.714984 0.117269 0.041868
0.735985 0.117861 0.042460
0.756986 0.118453 0.043051
0.777987 0.119044 0.043643
0.798988 0.119636 0.044235
0.819989 0.120228 0.044826
0.840990 0.120819 0.045418
0.861991 0.121411 0.046010
0.882993 0.122003 0.046601
0.900700 0.122502 0.047100
0.098880 0.127167 0.026869
0.126881 0.127956 0.027658
0.154883 0.128745 0.028447
0.182884 0.129534 0.029236
0.210886 0.130323 0.030025
0.238887 0.131112 0.030814
0.266889 0.131901 0.031603
0.294890 0.132690 0.032392
0.322892 0.133479 0.033181
0.350893 0.134268 0.033970
0.378895 0.135057 0.034759
0.406896 0.135846 0.035548
0.434898 0.136634 0.036336
0.462899 0.137423 0.037125
0.490901 0.138212 0.037914
0.518902 0.139001 0.038703
0.546904 0.139790 0.039492
0.574905 0.140579 0.040281
0.602907 0.141368 0.041070
0.630908 0.142157 0.041859
0.653309 0.142788 0.042490
0.674310 0.143380 0.043082
0.695311 0.143971 0.043673
0.716312 0.144563 0.044265
0.737314 0.145155 0.044857
0.758315 0.145746 0.045448
0.779316 0.146338 0.046040
0.800317 0.146930 0.046632
0.821318 0.147521 0.047223
0.842319 0.148113 0.047815
0.863320 0.148705 0.048407
0.884321 0.149297 0.048999
0.903128 0.149826 0.049528
0.100209 0.154461 0.029267
0.128210 0.155250 0.030055
0.156212 0.156039 0.030844
0.184213 0.156828 0.031633
0.212215 0.157617 0.032422
0.240216 0.158406 0.033211
0.268218 0.159195 0.034000
0.296219 0.159984 0.034789
0.324221 0.160773 0.035578
0.352222 0.161561 0.036367
0.380223 0.162350 0.037156
0.408225 0.163139 0.037945
0.436226 0.163928 0.038734
0.464228 0.164717 0.039522
0.492229 0.165506 0.040311
0.520231 0.166295 0.041100
0.548232 0.167084 0.041889
0.576234 0.167873 0.042678
0.604235 0.168662 0.043467
0.632237 0.169451 0.044256
0.654638 0.170082 0.044887
0.675639 0.170673 0.045479
0.696640 0.171265 0.046070
0.717641 0.171857 0.046662
0.738642 0.172449 0.047254
0.759643 0.173040 0.047846
0.780645 0.173632 0.048437
0.801646 0.174224 0.049029
0.822647 0.174815 0.049621
0.843648 0.175407 0.050212
0.864649 0.175999 0.050804
0.885650 0.176590 0.051396
0.905557 0.177151 0.051957
0.101537 0.181755 0.031664
0.129539 0.182544 0.032453
0.157540 0.183333 0.033242
0.185542 0.184122 0.034030
0.213543 0.184911 0.034819
0.241545 0.185700 0.035608
0.269546 0.186489 0.036397
0.297548 0.187277 0.037186
0.325549 0.188066 0.037975
0.353551 0.188855 0.038764
0.381552 0.189644 0.039553
0.409554 0.190433 0.040342
0.437555 0.191222 0.041131
0.465557 0.192011 0.041920
0.493558 0.192800 0.042709
0.521560 0.193589 0.043497
0.549561 0.194378 0.044286
0.577563 0.195167 0.045075
0.605564 0.195956 0.045864
0.633566 0.196744 0.046653
0.655967 0.197376 0.047284
0.676968 0.197967 0.047876
0.697969 0.198559 0.048468
0.718970 0.199151 0.049059
0.739971 0.199742 0.049651
0.760972 0.200334 0.050243
0.781973 0.200926 0.050834
0.802974 0.201517 0.051426
0.823976 0.202109 0.052018
0.844977 0.202701 0.052609
0.865978 0.203292 0.053201
0.886979 0.203884 0.053793
0.907980 0.204476 0.054385
0.102866 0.209049 0.034061
0.130868 0.209838 0.034850
0.158869 0.210627 0.035639
0.186871 0.211416 0.036428
0.214872 0.212205 0.037217
0.242874 0.212993 0.038005
0.270875 0.213782 0.038794
0.298877 0.214571 0.039583
0.326878 0.215360 0.040372
0.354880 0.216149 0.041161
0.382881 0.216938 0.041950
0.410882 0.217727 0.042739
0.438884 0.218516 0.043528
0.466885 0.219305 0.044317
0.494887 0.220094 0.045106
0.522888 0.220883 0.045895
0.550890 0.221672 0.046684
0.578891 0.222460 0.047472
0.606893 0.223249 0.048261
0.634894 0.224038 0.049050
0.657295 0.224669 0.049681
0.678297 0.225261 0.050273
0.699298 0.225853 0.050865
0.720299 0.226444 0.051456
0.741300 0.227036 0.052048
0.762301 0.227628 0.052640
0.783302 0.228220 0.053232
0.804303 0.228811 0.053823
0.825304 0.229403 0.054415
0.846305 0.229995 0.055007
0.867307 0.230586 0.055598
0.888308 0.231178 0.056190
0.909309 0.231770 0.056782
0.104195 0.236343 0.036458
0.132196 0.237132 0.037247
0.160198 0.237920 0.038036
0.188199 0.238709 0.038825
0.216201 0.239498 0.039614
0.244202 0.240287 0.040403
0.272204 0.241076 0.041191
0.300205 0.241865 0.041980
0.328207 0.242654 0.042769
0.356208 0.243443 0.043558
0.384210 0.244232 0.044347
0.412211 0.245021 0.045136
0.440213 0.245810 0.045925
0.468214 0.246599 0.046714
0.496216 0.247387 0.047503
0.524217 0.248176 0.048292
0.552219 0.248965 0.049081
0.580220 0.249754 0.049870
0.608222 0.250543 0.050658
0.636223 0.251332 0.051447
0.658624 0.251963 0.052079
0.679625 0.252555 0.052670
0.700626 0.253147 0.053262
0.721628 0.253738 0.053854
0.742629 0.254330 0.054445
0.763630 0.254922 0.055037
0.784631 0.255513 0.055629
0.805632 0.256105 0.056220
0.826633 0.256697 0.056812
0.847634 0.257288 0.057404
0.868635 0.257880 0.057995
0.889636 0.258472 0.058587
0.910637 0.259063 0.059179
0.105524 0.263636 0.038855
0.133525 0.264425 0.039644
0.161527 0.265214 0.040433
0.189528 0.266003 0.041222
0.217530 0.266792 0.042011
0.245531 0.267581 0.042800
0.273533 0.268370 0.043589
0.301534 0.269159 0.044378
0.329536 0.269948 0.045166
0.357537 0.270737 0.045955
0.385539 0.271526 0.046744
0.413540 0.272315 0.047533
0.441541 0.273103 0.048322
0.469543 0.273892 0.049111
0.497544 0.274681 0.049900
0.525546 0.275470 0.050689
0.553547 0.276259 0.051478
0.581549 0.277048 0.052267
0.609550 0.277837 0.053056
0.637552 0.278626 0.053845
0.659953 0.279257 0.054476
0.680954 0.279849 0.055067
0.701955 0.280440 0.055659
0.722956 0.281032 0.056251
0.743957 0.281624 0.056842
0.764959 0.282215 0.057434
0.785960 0.282807 0.058026
0.806961 0.283399 0.058617
0.827962 0.283990 0.059209
0.848963 0.284582 0.059801
0.869964 0.285174 0.060393
0.890965 0.285766 0.060984
0.911966 0.286357 0.061576
0.106853 0.290930 0.041252
0.134854 0.291719 0.042041
0.162855 0.292508 0.042830
0.190857 0.293297 0.043619
0.218858 0.294086 0.044408
0.246860 0.294875 0.045197
0.274861 0.295664 0.045986
0.302863 0.296453 0.046775
0.330864 0.297242 0.047564
0.358866 0.298030 0.048352
0.386867 0.298819 0.049141
0.414869 0.299608 0.049930
0.442870 0.300397 0.050719
0.470872 0.301186 0.051508
0.498873 0.301975 0.052297
0.526875 0.302764 0.053086
0.554876 0.303553 0.053875
0.582878 0.304342 0.054664
0.610879 0.305131 0.055453
0.638881 0.305920 0.056242
0.661282 0.306551 0.056873
0.682283 0.307142 0.057464
0.703284 0.307734 0.058056
0.724285 0.308326 0.058648
0.745286 0.308918 0.059240
0.766287 0.309509 0.059831
0.787288 0.310101 0.060423
0.808289 0.310693 0.061015
0.829291 0.311284 0.061606
0.850292 0.311876 0.062198
0.871293 0.312468 0.062790
0.892294 0.313059 0.063381
0.913295 0.313651 0.063973
0.108200 0.318614 0.043684
0.136202 0.319403 0.044473
0.164203 0.320192 0.045261
0.192205 0.320981 0.046050
0.220206 0.321770 0.046839
0.248208 0.322559 0.047628
0.276209 0.323347 0.048417
0.304211 0.324136 0.049206
0.332212 0.324925 0.049995
0.360214 0.325714 0.050784
0.388215 0.326503 0.051573
0.416217 0.327292 0.052362
0.444218 0.328081 0.053151
0.472219 0.328870 0.053940
0.500221 0.329659 0.054728
0.528222 0.330448 0.055517
0.556224 0.331237 0.056306
0.584225 0.332026 0.057095
0.612227 0.332814 0.057884
0.640228 0.333603 0.058673
0.662630 0.334234 0.059304
0.683631 0.334826 0.059896
0.704632 0.335418 0.060488
0.725633 0.336010 0.061079
0.746634 0.336601 0.061671
0.767635 0.337193 0.062263
0.788636 0.337785 0.062854
0.809637 0.338376 0.063446
0.830638 0.338968 0.064038
0.851639 0.339560 0.064629
0.872641 0.340151 0.065221
0.893642 0.340743 0.065813
0.914643 0.341335 0.066404
0.109577 0.346883 0.046166
0.137578 0.347671 0.046955
0.165579 0.348460 0.047744
0.193581 0.349249 0.048533
0.221582 0.350038 0.049322
0.249584 0.350827 0.050111
0.277585 0.351616 0.050900
0.305587 0.352405 0.051689
0.333588 0.353194 0.052478
0.361590 0.353983 0.053267
0.389591 0.354772 0.054056
0.417593 0.355561 0.054844
0.445594 0.356350 0.055633
0.473596 0.357138 0.056422
0.501597 0.357927 0.057211
0.529599 0.358716 0.058000
0.557600 0.359505 0.058789
0.585602 0.360294 0.059578
0.613603 0.361083 0.060367
0.641605 0.361872 0.061156
0.664006 0.362503 0.061787
0.685007 0.363095 0.062379
0.706008 0.363686 0.062970
0.727009 0.364278 0.063562
0.748010 0.364870 0.064154
0.769011 0.365462 0.064745
0.790012 0.366053 0.065337
0.811013 0.366645 0.065929
0.832015 0.367237 0.066520
0.853016 0.367828 0.067112
0.874017 0.368420 0.067704
0.895018 0.369012 0.068295
0.916019 0.369603 0.068887
0.110953 0.375151 0.048649
0.138954 0.375940 0.049438
0.166956 0.376729 0.050227
0.194957 0.377518 0.051016
0.222959 0.378307 0.051805
0.250960 0.379096 0.052594
0.278962 0.379885 0.053383
0.306963 0.380674 0.054172
0.334965 0.381462 0.054960
0.362966 0.382251 0.055749
0.390967 0.383040 0.056538
0.418969 0.383829 0.057327
0.446970 0.384618 0.058116
0.474972 0.385407 0.058905
0.502973 0.386196 0.059694
0.530975 0.386985 0.060483
0.558976 0.387774 0.061272
0.586978 0.388563 0.062061
0.614979 0.389352 0.062850
0.642981 0.390141 0.063639
0.665382 0.390772 0.064270
0.686383 0.391363 0.064861
0.707384 0.391955 0.065453
0.728385 0.392547 0.066045
0.749386 0.393138 0.066636
0.770387 0.393730 0.067228
0.791389 0.394322 0.067820
0.812390 0.394913 0.068411
0.833391 0.395505 0.069003
0.854392 0.396097 0.069595
0.875393 0.396689 0.070187
0.896394 0.397280 0.070778
0.917395 0.397872 0.071370
0.112329 0.403420 0.051132
0.140330 0.404209 0.051921
0.168332 0.404997 0.052710
0.196333 0.405786 0.053499
0.224335 0.406575 0.054287
0.252336 0.407364 0.055076
0.280338 0.408153 0.055865
0.308339 0.408942 0.056654
0.336341 0.409731 0.057443
0.364342 0.410520 0.058232
0.392344 0.411309 0.059021
0.420345 0.412098 0.059810
0.448347 0.412887 0.060599
0.476348 0.413676 0.061388
0.504350 0.414465 0.062177
0.532351 0.415253 0.062966
0.560353 0.416042 0.063755
0.588354 0.416831 0.064543
0.616356 0.417620 0.065332
0.644357 0.418409 0.066121
0.666758 0.419040 0.066752
0.687759 0.419632 0.067344
0.708760 0.420224 0.067936
0.729761 0.420815 0.068527
0.750763 0.421407 0.069119
0.771764 0.421999 0.069711
0.792765 0.422590 0.070303
0.813766 0.423182 0.070894
0.834767 0.423774 0.071486
0.855768 0.424365 0.072078
0.876769 0.424957 0.072669
0.897770 0.425549 0.073261
0.918822 0.426143 0.073952
0.113705 0.431688 0.053615
0.141707 0.432477 0.054403
0.169708 0.433266 0.055192
0.197710 0.434055 0.055981
0.225711 0.434844 0.056770
0.253713 0.435633 0.057559
0.281714 0.436422 0.058348
0.309716 0.437211 0.059137
0.337717 0.438000 0.059926
0.365718 0.438788 0.060715
0.393720 0.439577 0.061504
0.421721 0.440366 0.062293
0.449723 0.441155 0.063082
0.477724 0.441944 0.063870
0.505726 0.442733 0.064659
0.533727 0.443522 0.065448
0.561729 0.444311 0.066237
0.589730 0.445100 0.067026
0.617732 0.445889 0.067815
0.645733 0.446678 0.068604
0.668134 0.447309 0.069235
0.689135 0.447900 0.069827
0.710137 0.448492 0.070419
0.731138 0.449084 0.071010
0.752139 0.449676 0.071602
0.773140 0.450267 0.072194
0.794141 0.450859 0.072785
0.815142 0.451451 0.073377
0.836212 0.452045 0.074103
0.857305 0.452641 0.074875
0.878399 0.453237 0.075647
0.899492 0.453833 0.076418
0.920585 0.454429 0.077190
0.115081 0.459957 0.056097
0.143083 0.460746 0.056886
0.171084 0.461535 0.057675
0.199086 0.462324 0.058464
0.227087 0.463112 0.059253
0.255089 0.463901 0.060042
0.283090 0.464690 0.060831
0.311092 0.465479 0.061620
0.339093 0.466268 0.062409
0.367095 0.467057 0.063198
0.395096 0.467846 0.063986
0.423098 0.468635 0.064775
0.451099 0.469424 0.065564
0.479101 0.470213 0.066353
0.507102 0.471002 0.067142
0.535104 0.471791 0.067931
0.563105 0.472579 0.068720
0.591106 0.473368 0.069509
0.619108 0.474157 0.070298
0.647109 0.474946 0.071087
0.669511 0.475577 0.071718
0.690512 0.476169 0.072310
0.711513 0.476761 0.072901
0.732514 0.477352 0.073493
0.753602 0.477948 0.074254
0.774695 0.478544 0.075026
0.795789 0.479140 0.075798
0.816882 0.479736 0.076570
0.837975 0.480332 0.077341
0.859068 0.480928 0.078113
0.880162 0.481524 0.078885
0.901255 0.482120 0.079657
0.922348 0.482716 0.080429
0.116458 0.488225 0.058580
0.144459 0.489014 0.059369
0.172461 0.489803 0.060158
0.200462 0.490592 0.060947
0.228464 0.491381 0.061736
0.256465 0.492170 0.062525
0.284466 0.492959 0.063314
0.312468 0.493748 0.064102
0.340469 0.494537 0.064891
0.368471 0.495326 0.065680
0.396472 0.496115 0.066469
0.424474 0.496903 0.067258
0.452475 0.497692 0.068047
0.480477 0.498481 0.068836
0.508478 0.499270 0.069625
0.536480 0.500059 0.070414
0.564481 0.500848 0.071203
0.592483 0.501637 0.071992
0.620484 0.502426 0.072781
0.648492 0.503215 0.073582
0.670992 0.503851 0.074406
0.692085 0.504447 0.075177
0.713178 0.505043 0.075949
0.734272 0.505639 0.076721
0.755365 0.506235 0.077493
0.776458 0.506831 0.078265
0.797552 0.507427 0.079036
0.818645 0.508023 0.079808
0.839738 0.508619 0.080580
0.860831 0.509215 0.081352
0.881925 0.509810 0.082123
0.903018 0.510406 0.082895
0.924111 0.511002 0.083667
0.117834 0.516494 0.061063
0.145835 0.517283 0.061852
0.173837 0.518072 0.062641
0.201838 0.518861 0.063430
0.229840 0.519650 0.064218
0.257841 0.520439 0.065007
0.285843 0.521227 0.065796
0.313844 0.522016 0.066585
0.341846 0.522805 0.067374
0.369847 0.523594 0.068163
0.397849 0.524383 0.068952
0.425850 0.525172 0.069741
0.453852 0.525961 0.070530
0.481853 0.526750 0.071319
0.509854 0.527539 0.072108
0.537856 0.528328 0.072897
0.565882 0.529118 0.073734
0.594007 0.529912 0.074763
0.622131 0.530707 0.075792
0.650255 0.531502 0.076821
0.672755 0.532137 0.077644
0.693848 0.532733 0.078416
0.714941 0.533329 0.079188
0.736035 0.533925 0.079959
0.757128 0.534521 0.080731
0.778221 0.535117 0.081503
0.799315 0.535713 0.082275
0.820408 0.536309 0.083046
0.841501 0.536905 0.083818
0.862594 0.537501 0.084590
0.883688 0.538097 0.085362
0.904781 0.538693 0.086134
0.925874 0.539289 0.086905
0.119210 0.544763 0.063546
0.147212 0.545551 0.064334
0.175213 0.546340 0.065123
0.203214 0.547129 0.065912
0.231216 0.547918 0.066701
0.259217 0.548707 0.067490
0.287219 0.549496 0.068279
0.315220 0.550285 0.069068
0.343222 0.551074 0.069857
0.371223 0.551863 0.070646
0.399225 0.552652 0.071435
0.427226 0.553441 0.072224
0.455228 0.554230 0.073013
0.483272 0.555020 0.073885
0.511396 0.555815 0.074914
0.539521 0.556610 0.075943
0.567645 0.557404 0.076972
0.595770 0.558199 0.078001
0.623894 0.558994 0.079030
0.652018 0.559788 0.080059
0.674518 0.560424 0.080882
0.695611 0.561020 0.081654
0.716704 0.561616 0.082426
0.737798 0.562212 0.083198
0.758891 0.562808 0.083970
0.779984 0.563404 0.084741
0.801078 0.564000 0.085513
0.822171 0.564596 0.086285
0.843264 0.565192 0.087057
0.864357 0.565788 0.087828
0.885451 0.566384 0.088600
0.906544 0.566980 0.089372
0.927637 0.567575 0.090144
0.120586 0.573031 0.066028
0.148588 0.573820 0.066817
0.176589 0.574609 0.067606
0.204591 0.575398 0.068395
0.232592 0.576187 0.069184
0.260594 0.576976 0.069973
0.288595 0.577765 0.070762
0.316597 0.578554 0.071551
0.344598 0.579342 0.072340
0.372600 0.580131 0.073129
0.400662 0.580923 0.074036
0.428786 0.581718 0.075065
0.456911 0.582512 0.076094
0.485035 0.583307 0.077123
0.513159 0.584102 0.078152
0.541284 0.584896 0.079181
0.569408 0.585691 0.080211
0.597533 0.586485 0.081240
0.625657 0.587280 0.082269
0.653781 0.588075 0.083298
0.676281 0.588710 0.084121
0.697374 0.589306 0.084893
0.718467 0.589902 0.085664
0.739561 0.590498 0.086436
0.760654 0.591094 0.087208
0.781747 0.591690 0.087980
0.802841 0.592286 0.088751
0.823934 0.592882 0.089523
0.845027 0.593478 0.090295
0.866120 0.594074 0.091067
0.887214 0.594670 0.091839
0.908307 0.595266 0.092610
0.929400 0.595862 0.093382
0.121801 0.597985 0.068220
0.149803 0.598774 0.069009
0.177804 0.599563 0.069798
0.205806 0.600352 0.070587
0.233807 0.601141 0.071376
0.261809 0.601930 0.072165
0.289810 0.602719 0.072953
0.317845 0.603509 0.073808
0.345969 0.604304 0.074837
0.374094 0.605099 0.075866
0.402218 0.605893 0.076895
0.430343 0.606688 0.077924
0.458467 0.607483 0.078953
0.486591 0.608277 0.079982
0.514716 0.609072 0.081011
0.542840 0.609866 0.082040
0.570965 0.610661 0.083069
0.599089 0.611456 0.084098
0.627213 0.612250 0.085127
0.655338 0.613045 0.086156
0.677837 0.613681 0.086980
0.698930 0.614277 0.087751
0.720024 0.614873 0.088523
0.741117 0.615468 0.089295
0.762210 0.616064 0.090067
0.783304 0.616660 0.090838
0.804397 0.617256 0.091610
0.825490 0.617852 0.092382
0.846583 0.618448 0.093154
0.867677 0.619044 0.093925
0.888770 0.619640 0.094697
0.909863 0.620236 0.095469
0.930957 0.620832 0.096241
0.122976 0.622111 0.070339
0.150977 0.622900 0.071128
0.178979 0.623689 0.071917
0.206980 0.624478 0.072706
0.234982 0.625267 0.073495
0.263101 0.626061 0.074514
0.291225 0.626856 0.075543
0.319350 0.627651 0.076572
0.347474 0.628445 0.077601
0.375598 0.629240 0.078630
0.403723 0.630034 0.079659
0.431847 0.630829 0.080688
0.459972 0.631624 0.081717
0.488096 0.632418 0.082746
0.516220 0.633213 0.083775
0.544345 0.634008 0.084804
0.572469 0.634802 0.085833
0.600594 0.635597 0.086862
0.628718 0.636391 0.087891
0.656842 0.637186 0.088920
0.679342 0.637822 0.089743
0.700435 0.638418 0.090515
0.721528 0.639014 0.091287
0.742622 0.639610 0.092059
0.763715 0.640206 0.092830
0.784808 0.640802 0.093602
0.805902 0.641397 0.094374
0.826995 0.641993 0.095146
0.848088 0.642589 0.095917
0.869181 0.643185 0.096689
0.890275 0.643781 0.097461
0.911368 0.644377 0.098233
0.932461 0.644973 0.099005
0.124150 0.646237 0.072458
0.152152 0.647026 0.073247
0.180232 0.647819 0.074190
0.208357 0.648613 0.075219
0.236481 0.649408 0.076248
0.264606 0.650202 0.077277
0.292730 0.650997 0.078307
0.320854 0.651792 0.079336
0.348979 0.652586 0.080365
0.377103 0.653381 0.081394
0.405227 0.654175 0.082423
0.433352 0.654970 0.083452
0.461476 0.655765 0.084481
0.489601 0.656559 0.085510
0.517725 0.657354 0.086539
0.545849 0.658149 0.087568
0.573974 0.658943 0.088597
0.602098 0.659738 0.089626
0.630223 0.660532 0.090655
0.658347 0.661327 0.091684
0.680846 0.661963 0.092507
0.701940 0.662559 0.093279
0.723033 0.663155 0.094051
0.744126 0.663751 0.094822
0.765220 0.664347 0.095594
0.786313 0.664943 0.096366
0.807406 0.665539 0.097138
0.828499 0.666135 0.097910
0.849593 0.666731 0.098681
0.870686 0.667326 0.099453
0.891779 0.667922 0.100225
0.912873 0.668518 0.100997
0.933966 0.669114 0.101768
0.125488 0.670370 0.074896
0.153613 0.671165 0.075925
0.181737 0.671960 0.076954
0.209861 0.672754 0.077983
0.237986 0.673549 0.079012
0.266110 0.674343 0.080041
0.294235 0.675138 0.081070
0.322359 0.675933 0.082099
0.350483 0.676727 0.083128
0.378608 0.677522 0.084157
0.406732 0.678317 0.085186
0.434857 0.679111 0.086215
0.462981 0.679906 0.087244
0.491105 0.680700 0.088274
0.519230 0.681495 0.089303
0.547354 0.682290 0.090332
0.575478 0.683084 0.091361
0.603603 0.683879 0.092390
0.631727 0.684674 0.093419
0.659852 0.685468 0.094448
0.682351 0.686104 0.095271
0.703444 0.686700 0.096043
0.724538 0.687296 0.096814
0.745631 0.687892 0.097586
0.766724 0.688488 0.098358
0.787818 0.689084 0.099130
0.808911 0.689680 0.099902
0.830004 0.690276 0.100673
0.851097 0.690872 0.101445
0.872191 0.691468 0.102217
0.893284 0.692064 0.102989
0.914377 0.692660 0.103760
0.935471 0.693255 0.104532
0.126993 0.694511 0.077660
0.155117 0.695306 0.078689
0.183242 0.696101 0.079718
0.211366 0.696895 0.080747
0.239490 0.697690 0.081776
0.267615 0.698485 0.082805
0.295739 0.699279 0.083834
0.323864 0.700074 0.084863
0.351988 0.700868 0.085892
0.380112 0.701663 0.086921
0.408237 0.702458 0.087950
0.436361 0.703252 0.088979
0.464486 0.704047 0.090008
0.492610 0.704842 0.091037
0.520734 0.705636 0.092066
0.548859 0.706431 0.093095
0.576983 0.707225 0.094124
0.605107 0.708020 0.095153
0.633232 0.708815 0.096182
0.661356 0.709609 0.097211
0.683856 0.710245 0.098035
0.704949 0.710841 0.098806
0.726042 0.711437 0.099578
0.747136 0.712033 0.100350
0.768229 0.712629 0.101122
0.789322 0.713225 0.101894
0.810415 0.713821 0.102665
0.831509 0.714417 0.103437
0.852602 0.715013 0.104209
0.873695 0.715609 0.104981
0.894789 0.716205 0.105752
0.915882 0.716801 0.106524
0.936975 0.717397 0.107296
0.128498 0.718653 0.080424
0.156622 0.719447 0.081453
0.184746 0.720242 0.082482
0.212871 0.721036 0.083511
0.240995 0.721831 0.084540
0.269120 0.722626 0.085569
0.297244 0.723420 0.086598
0.325368 0.724215 0.087627
0.353493 0.725010 0.088656
0.381617 0.725804 0.089685
0.409741 0.726599 0.090714
0.437866 0.727393 0.091743
0.465990 0.728188 0.092772
0.494115 0.728983 0.093801
0.522239 0.729777 0.094830
0.550363 0.730572 0.095859
0.578488 0.731366 0.096888
0.606612 0.732161 0.097917
0.634736 0.732956 0.098946
0.662861 0.733750 0.099975
0.685360 0.734386 0.100798
0.706454 0.734982 0.101570
0.727547 0.735578 0.102342
0.748640 0.736174 0.103114
0.769734 0.736770 0.103886
0.790827 0.737366 0.104657
0.811920 0.737962 0.105429
0.833013 0.738558 0.106201
0.854107 0.739154 0.106973
0.875200 0.739750 0.107744
0.896293 0.740346 0.108516
0.917387 0.740942 0.109288
0.938480 0.741538 0.110060
0.130002 0.742794 0.083188
0.158127 0.743588 0.084217
0.186251 0.744383 0.085246
0.214375 0.745177 0.086275
0.242500 0.745972 0.087304
0.270624 0.746767 0.088333
0.298749 0.747561 0.089362
0.326873 0.748356 0.090391
0.354997 0.749151 0.091420
0.383122 0.749945 0.092449
0.411246 0.750740 0.093478
0.439370 0.751534 0.094507
0.467495 0.752329 0.095536
0.495619 0.753124 0.096565
0.523744 0.753918 0.097594
0.551868 0.754713 0.098623
0.579992 0.755508 0.099652
0.608117 0.756302 0.100681
0.636241 0.757097 0.101710
0.664366 0.757891 0.102739
0.686865 0.758527 0.103562
0.707958 0.759123 0.104334
0.729052 0.759719 0.105106
0.750145 0.760315 0.105878
0.771238 0.760911 0.106649
0.792331 0.761507 0.107421
0.813425 0.762103 0.108193
0.834518 0.762699 0.108965
0.855611 0.763295 0.109736
