luts/vivid_daylight_100.cube
TITLE "Kodak Ektar 100"
LUT_3D_SIZE 33
0.000000 0.000000 0.000000
0.017660 0.000000 0.000000
0.070423 0.000000 0.000000
0.123185 0.000000 0.000000
0.175947 0.000000 0.000000
0.228710 0.000000 0.000000
0.281472 0.000000 0.000000
0.334235 0.000000 0.000000
0.386997 0.000000 0.000000
0.439760 0.000000 0.000000
0.493763 0.000000 0.000000
0.549630 0.000000 0.000000
0.605496 0.000000 0.000000
0.661362 0.000000 0.000000
0.717228 0.000000 0.000000
0.773094 0.000000 0.000000
0.828960 0.000000 0.000000
0.884826 0.000000 0.000000
0.940692 0.000000 0.000000
0.996559 0.000000 0.000000
1.000000 0.000000 0.000000
1.000000 0.000000 0.000000
1.000000 0.000000 0.000000
1.000000 0.000000 0.000000
1.000000 0.000000 0.000000
1.000000 0.000000 0.000000
1.000000 0.000000 0.000000
1.000000 0.000000 0.000000
1.000000 0.000000 0.000000
1.000000 0.000000 0.000000
1.000000 0.000000 0.000000
1.000000 0.000000 0.000000
1.000000 0.000000 0.000000
0.000000 0.000000 0.000000
0.006597 0.000000 0.000000
0.059359 0.000000 0.000000
0.112122 0.000000 0.000000
0.164884 0.000000 0.000000
0.217647 0.000000 0.000000
0.270409 0.000000 0.000000
0.323171 0.000000 0.000000
0.375934 0.000000 0.000000
0.428696 0.000000 0.000000
0.482700 0.000000 0.000000
0.538566 0.000000 0.000000
0.594432 0.000000 0.000000
0.650299 0.000000 0.000000
0.706165 0.000000 0.000000
0.762031 0.000000 0.000000
0.817897 0.000000 0.000000
0.873763 0.000000 0.000000
0.929629 0.000000 0.000000
0.985495 0.000000 0.000000
1.000000 0.000000 0.000000
1.000000 0.000000 0.000000
1.000000 0.000000 0.000000
1.000000 0.000000 0.000000
1.000000 0.000000 0.000000
1.000000 0.000000 0.000000
1.000000 0.000000 0.000000
1.000000 0.000000 0.000000
1.000000 0.000000 0.000000
1.000000 0.000000 0.000000
1.000000 0.000000 0.000000
1.000000 0.000000 0.000000
1.000000 0.000000 0.000000
0.000000 0.026509 0.000000
0.000000 0.022781 0.000000
0.048296 0.019054 0.000000
0.101058 0.015327 0.000000
0.153821 0.011600 0.000000
0.206583 0.007873 0.000000
0.259346 0.004146 0.000000
0.312108 0.000419 0.000000
0.364871 0.000000 0.000000
0.417633 0.000000 0.000000
0.471637 0.000000 0.000000
0.527503 0.000000 0.000000
0.583369 0.000000 0.000000
0.639235 0.000000 0.000000
0.695101 0.000000 0.000000
0.750968 0.000000 0.000000
0.806834 0.000000 0.000000
0.862700 0.000000 0.000000
0.918566 0.000000 0.000000
0.974432 0.000000 0.000000
1.000000 0.000000 0.000000
1.000000 0.000000 0.000000
1.000000 0.000000 0.000000
1.000000 0.000000 0.000000
1.000000 0.000000 0.000000
1.000000 0.000000 0.000000
1.000000 0.000000 0.000000
1.000000 0.000000 0.000000
1.000000 0.000000 0.000000
1.000000 0.000000 0.000000
1.000000 0.000000 0.000000
1.000000 0.000000 0.000000
1.000000 0.000000 0.000000
0.000000 0.065289 0.000000
0.000000 0.061562 0.000000
0.037233 0.057835 0.000000
0.089995 0.054108 0.000000
0.142758 0.050381 0.000000
0.195520 0.046653 0.000000
0.248283 0.042926 0.000000
0.301045 0.039199 0.000000
0.353807 0.035472 0.000000
0.406570 0.031745 0.000000
0.460574 0.027930 0.000000
0.516440 0.023984 0.000000
0.572306 0.020037 0.000000
0.628172 0.016091 0.000000
0.684038 0.012144 0.000000
0.739904 0.008198 0.000000
0.795770 0.004252 0.000000
0.851637 0.000305 0.000000
0.907503 0.000000 0.000000
0.963369 0.000000 0.000000
1.000000 0.000000 0.000000
1.000000 0.000000 0.000000
1.000000 0.000000 0.000000
1.000000 0.000000 0.000000
1.000000 0.000000 0.000000
1.000000 0.000000 0.000000
1.000000 0.000000 0.000000
1.000000 0.000000 0.000000
1.000000 0.000000 0.000000
1.000000 0.000000 0.000000
1.000000 0.000000 0.000000
1.000000 0.000000 0.000000
1.000000 0.000000 0.000000
0.000000 0.104070 0.000000
0.000000 0.100342 0.000000
0.026170 0.096615 0.000000
0.078932 0.092888 0.000000
0.131694 0.089161 0.000000
0.184457 0.085434 0.000000
0.237219 0.081707 0.000000
0.289982 0.077980 0.000000
0.342744 0.074252 0.000000
0.395507 0.070525 0.000000
0.449510 0.066710 0.000000
0.505377 0.062764 0.000000
0.561243 0.058818 0.000000
0.617109 0.054871 0.000000
0.672975 0.050925 0.000000
0.728841 0.046979 0.000000
0.784707 0.043032 0.000000
0.840573 0.039086 0.000000
0.896439 0.035139 0.000000
0.952306 0.031193 0.000000
0.990481 0.028496 0.000000
1.000000 0.026112 0.000000
1.000000 0.023728 0.000000
1.000000 0.021343 0.000000
1.000000 0.018959 0.000000
1.000000 0.016575 0.000000
1.000000 0.014191 0.000000
1.000000 0.011806 0.000000
1.000000 0.009422 0.000000
1.000000 0.007038 0.000000
1.000000 0.004654 0.000000
1.000000 0.002269 0.000000
1.000000 0.000000 0.000000
0.000000 0.142850 0.000000
0.000000 0.139123 0.000000
0.015106 0.135396 0.000000
0.067869 0.131669 0.000000
0.120631 0.127942 0.000000
0.173394 0.124214 0.000000
0.226156 0.120487 0.000000
0.278918 0.116760 0.000000
0.331681 0.113033 0.000000
0.384443 0.109306 0.000000
0.438447 0.105491 0.000000
0.494313 0.101545 0.000000
0.550179 0.097598 0.000000
0.606046 0.093652 0.000000
0.661912 0.089705 0.000000
0.717778 0.085759 0.000000
0.773644 0.081813 0.000000
0.829510 0.077866 0.000000
0.885376 0.073920 0.000000
0.941242 0.069974 0.000000
0.979417 0.067277 0.000000
1.000000 0.064893 0.000000
1.000000 0.062508 0.000000
1.000000 0.060124 0.000000
1.000000 0.057740 0.000000
1.000000 0.055355 0.000000
1.000000 0.052971 0.000000
1.000000 0.050587 0.000000
1.000000 0.048203 0.000000
1.000000 0.045818 0.000000
1.000000 0.043434 0.000000
1.000000 0.041050 0.000000
1.000000 0.038665 0.000000
0.000000 0.181631 0.000000
0.000000 0.177903 0.000000
0.004043 0.174176 0.000000
0.056805 0.170449 0.000000
0.109568 0.166722 0.000000
0.162330 0.162995 0.000000
0.215093 0.159268 0.000000
0.267855 0.155541 0.000000
0.320618 0.151813 0.000000
0.373380 0.148086 0.000000
0.427384 0.144271 0.000000
0.483250 0.140325 0.000000
0.539116 0.136379 0.000000
0.594982 0.132432 0.000000
0.650848 0.128486 0.000000
0.706715 0.124540 0.000000
0.762581 0.120593 0.000000
0.818447 0.116647 0.000000
0.874313 0.112700 0.000000
0.930179 0.108754 0.000000
0.968354 0.106057 0.000000
1.000000 0.103673 0.000000
1.000000 0.101289 0.000000
1.000000 0.098904 0.000000
1.000000 0.096520 0.000000
1.000000 0.094136 0.000000
1.000000 0.091752 0.000000
1.000000 0.089367 0.000000
1.000000 0.086983 0.000000
1.000000 0.084599 0.000000
1.000000 0.082215 0.000000
1.000000 0.079830 0.000000
1.000000 0.077446 0.000000
0.000000 0.220411 0.000000
0.000000 0.216684 0.000000
0.000000 0.212957 0.000000
0.045742 0.209230 0.000000
0.098505 0.205503 0.000000
0.151267 0.201775 0.000000
0.204030 0.198048 0.000000
0.256792 0.194321 0.000000
0.309554 0.190594 0.000000
0.362317 0.186867 0.000000
0.416321 0.183052 0.000000
0.472187 0.179106 0.000000
0.528053 0.175159 0.000000
0.583919 0.171213 0.000000
0.639785 0.167266 0.000000
0.695651 0.163320 0.000000
0.751517 0.159374 0.000000
0.807384 0.155427 0.000000
0.863250 0.151481 0.000000
0.919116 0.147535 0.000000
0.957291 0.144838 0.000000
0.991043 0.142454 0.000000
1.000000 0.140069 0.000000
1.000000 0.137685 0.000000
1.000000 0.135301 0.000000
1.000000 0.132916 0.000000
1.000000 0.130532 0.000000
1.000000 0.128148 0.000000
1.000000 0.125764 0.000000
1.000000 0.123379 0.000000
1.000000 0.120995 0.000000
1.000000 0.118611 0.000000
1.000000 0.116226 0.000000
0.000000 0.259192 0.000000
0.000000 0.255464 0.000000
0.000000 0.251737 0.000000
0.034679 0.248010 0.000000
0.087441 0.244283 0.000000
0.140204 0.240556 0.000000
0.192966 0.236829 0.000000
0.245729 0.233102 0.000000
0.298491 0.229374 0.000000
0.351254 0.225647 0.000000
0.405257 0.221832 0.000000
0.461124 0.217886 0.000000
0.516990 0.213940 0.000000
0.572856 0.209993 0.000000
0.628722 0.206047 0.000000
0.684588 0.202101 0.000000
0.740454 0.198154 0.000000
0.796320 0.194208 0.000000
0.852186 0.190261 0.000000
0.908053 0.186315 0.000000
0.946228 0.183618 0.000000
0.979980 0.181234 0.000000
1.000000 0.178850 0.000000
1.000000 0.176465 0.000000
1.000000 0.174081 0.000000
1.000000 0.171697 0.000000
1.000000 0.169313 0.000000
1.000000 0.166928 0.000000
1.000000 0.164544 0.000000
1.000000 0.162160 0.000000
1.000000 0.159776 0.000000
1.000000 0.157391 0.000000
1.000000 0.155007 0.000000
0.000000 0.297972 0.000000
0.000000 0.294245 0.000000
0.000000 0.290518 0.000000
0.023616 0.286791 0.000000
0.076378 0.283064 0.000000
0.129141 0.279336 0.000000
0.181903 0.275609 0.000000
0.234665 0.271882 0.000000
0.287428 0.268155 0.000000
0.340190 0.264428 0.000000
0.394194 0.260613 0.000000
0.450060 0.256667 0.000000
0.505926 0.252720 0.000000
0.561793 0.248774 0.000000
0.617659 0.244827 0.000000
0.673525 0.240881 0.000000
0.729391 0.236935 0.000000
0.785257 0.232988 0.000000
0.841123 0.229042 0.000000
0.896989 0.225096 0.000000
0.935164 0.222399 0.000000
0.968917 0.220015 0.000000
1.000000 0.217630 0.000000
1.000000 0.215246 0.000000
1.000000 0.212862 0.000000
1.000000 0.210477 0.000000
1.000000 0.208093 0.000000
1.000000 0.205709 0.000000
1.000000 0.203325 0.000000
1.000000 0.200940 0.000000
1.000000 0.198556 0.000000
1.000000 0.196172 0.000000
1.000000 0.193788 0.000000
0.000000 0.338304 0.000000
0.000000 0.334577 0.000000
0.000000 0.330850 0.000000
0.012110 0.327122 0.000000
0.064872 0.323395 0.000000
0.117635 0.319668 0.000000
0.170397 0.315941 0.000000
0.223160 0.312214 0.000000
0.275922 0.308487 0.000000
0.328685 0.304760 0.000000
0.382688 0.300945 0.000000
0.438555 0.296998 0.000000
0.494421 0.293052 0.000000
0.550287 0.289106 0.000000
0.606153 0.285159 0.000000
0.662019 0.281213 0.000000
0.717885 0.277266 0.000000
0.773751 0.273320 0.000000
0.829617 0.269374 0.000000
0.885483 0.265427 0.000000
0.923659 0.262731 0.000000
0.957411 0.260346 0.000000
0.991164 0.257962 0.000000
1.000000 0.255578 0.000000
1.000000 0.253193 0.000000
1.000000 0.250809 0.000000
1.000000 0.248425 0.000000
1.000000 0.246041 0.000000
1.000000 0.243656 0.000000
1.000000 0.241272 0.000000
1.000000 0.238888 0.000000
1.000000 0.236503 0.000000
1.000000 0.234119 0.000000
0.000000 0.380962 0.000000
0.000000 0.377235 0.000000
0.000000 0.373508 0.000000
0.000000 0.369781 0.000000
0.052703 0.366054 0.000000
0.105465 0.362327 0.000000
0.158228 0.358600 0.000000
0.210990 0.354872 0.000000
0.263753 0.351145 0.000000
0.316515 0.347418 0.000000
0.370519 0.343603 0.000000
0.426385 0.339657 0.000000
0.482251 0.335710 0.000000
0.538117 0.331764 0.000000
0.593983 0.327818 0.000000
0.649849 0.323871 0.000000
0.705716 0.319925 0.000000
0.761582 0.315979 0.000000
0.817448 0.312032 0.000000
0.873314 0.308086 0.000000
0.911489 0.305389 0.000000
0.945242 0.303005 0.000000
0.978994 0.300621 0.000000
1.000000 0.298236 0.000000
1.000000 0.295852 0.000000
1.000000 0.293468 0.000000
1.000000 0.291083 0.000000
1.000000 0.288699 0.000000
1.000000 0.286315 0.000000
1.000000 0.283931 0.000000
1.000000 0.281546 0.000000
1.000000 0.279162 0.000000
1.000000 0.276778 0.000000
0.000000 0.423621 0.000000
0.000000 0.419894 0.000000
0.000000 0.416167 0.000000
0.000000 0.412440 0.000000
0.040533 0.408712 0.000000
0.093296 0.404985 0.000000
0.146058 0.401258 0.000000
0.198821 0.397531 0.000000
0.251583 0.393804 0.000000
0.304345 0.390077 0.000000
0.358349 0.386262 0.000000
0.414215 0.382315 0.000000
0.470082 0.378369 0.000000
0.525948 0.374423 0.000000
0.581814 0.370476 0.000000
0.637680 0.366530 0.000000
0.693546 0.362583 0.000000
0.749412 0.358637 0.000000
0.805278 0.354691 0.000000
0.861144 0.350744 0.000000
0.899320 0.348048 0.000000
0.933072 0.345663 0.000000
0.966824 0.343279 0.000000
1.000000 0.340895 0.000000
1.000000 0.338511 0.000000
1.000000 0.336126 0.000000
1.000000 0.333742 0.000000
1.000000 0.331358 0.000000
1.000000 0.328973 0.000000
1.000000 0.326589 0.000000
1.000000 0.324205 0.000000
1.000000 0.321821 0.000000
1.000000 0.319436 0.000000
0.000000 0.466280 0.000000
0.000000 0.462552 0.000000
0.000000 0.458825 0.000000
0.000000 0.455098 0.000000
0.028364 0.451371 0.000000
0.081126 0.447644 0.000000
0.133889 0.443917 0.000000
0.186651 0.440189 0.000000
0.239413 0.436462 0.000000
0.292176 0.432735 0.000000
0.346180 0.428920 0.000000
0.402046 0.424974 0.000000
0.457912 0.421028 0.000000
0.513778 0.417081 0.000000
0.569644 0.413135 0.000000
0.625510 0.409188 0.000000
0.681376 0.405242 0.000000
0.737243 0.401296 0.000000
0.793109 0.397349 0.000000
0.848975 0.393403 0.000000
0.887150 0.390706 0.000000
0.920902 0.388322 0.000000
0.954655 0.385938 0.000000
0.988407 0.383553 0.000000
1.000000 0.381169 0.000000
1.000000 0.378785 0.000000
1.000000 0.376401 0.000000
1.000000 0.374016 0.000000
1.000000 0.371632 0.000000
1.000000 0.369248 0.000000
1.000000 0.366863 0.000000
1.000000 0.364479 0.000000
1.000000 0.362095 0.000000
0.000000 0.508938 0.000000
0.000000 0.505211 0.000000
0.000000 0.501484 0.000000
0.000000 0.497757 0.000000
0.016194 0.494029 0.000000
0.068956 0.490302 0.000000
0.121719 0.486575 0.000000
0.174481 0.482848 0.000000
0.227244 0.479121 0.000000
0.280006 0.475394 0.000000
0.334010 0.471579 0.000000
0.389876 0.467633 0.000000
0.445742 0.463686 0.000000
0.501609 0.459740 0.000000
0.557475 0.455793 0.000000
0.613341 0.451847 0.000000
0.669207 0.447901 0.000000
0.725073 0.443954 0.000000
0.780939 0.440008 0.000000
0.836805 0.436061 0.000000
0.874980 0.433365 0.000000
0.908733 0.430980 0.000000
0.942485 0.428596 0.000000
0.976238 0.426212 0.000000
1.000000 0.423828 0.000000
1.000000 0.421443 0.000000
1.000000 0.419059 0.000000
1.000000 0.416675 0.000000
1.000000 0.414291 0.000000
1.000000 0.411906 0.000000
1.000000 0.409522 0.000000
1.000000 0.407138 0.000000
1.000000 0.404753 0.000000
0.000000 0.551597 0.000000
0.000000 0.547869 0.000000
0.000000 0.544142 0.000000
0.000000 0.540415 0.000000
0.004024 0.536688 0.000000
0.056787 0.532961 0.000000
0.109549 0.529234 0.000000
0.162312 0.525507 0.000000
0.215074 0.521779 0.000000
0.267837 0.518052 0.000000
0.321841 0.514237 0.000000
0.377707 0.510291 0.000000
0.433573 0.506345 0.000000
0.489439 0.502398 0.000000
0.545305 0.498452 0.000000
0.601171 0.494506 0.000000
0.657037 0.490559 0.000000
0.712903 0.486613 0.000000
0.768769 0.482666 0.000000
0.824636 0.478720 0.000000
0.862811 0.476023 0.000000
0.896563 0.473639 0.000000
0.930316 0.471255 0.000000
0.964068 0.468870 0.000000
0.997821 0.466486 0.000000
1.000000 0.464102 0.000000
1.000000 0.461718 0.000000
1.000000 0.459333 0.000000
1.000000 0.456949 0.000000
1.000000 0.454565 0.000000
1.000000 0.452181 0.000000
1.000000 0.449796 0.000000
1.000000 0.447412 0.000000
0.000000 0.594255 0.000000
0.000000 0.590528 0.000000
0.000000 0.586801 0.000000
0.000000 0.583074 0.000000
0.000000 0.579347 0.000000
0.044617 0.575619 0.000000
0.097380 0.571892 0.000000
0.150142 0.568165 0.000000
0.202905 0.564438 0.000000
0.255667 0.560711 0.000000
0.309671 0.556896 0.000000
0.365537 0.552950 0.000000
0.421403 0.549003 0.000000
0.477269 0.545057 0.000000
0.533135 0.541110 0.000000
0.589002 0.537164 0.000000
0.644868 0.533218 0.000000
0.700734 0.529271 0.000000
0.756600 0.525325 0.000000
0.812466 0.521379 0.000000
0.850641 0.518682 0.000000
0.884394 0.516298 0.000000
0.918146 0.513913 0.000000
0.951899 0.511529 0.000000
0.985651 0.509145 0.000000
1.000000 0.506760 0.000000
1.000000 0.504376 0.000000
1.000000 0.501992 0.000000
1.000000 0.499608 0.000000
1.000000 0.497223 0.000000
1.000000 0.494839 0.000000
1.000000 0.492455 0.000000
1.000000 0.490071 0.000000
0.000000 0.636914 0.000000
0.000000 0.633187 0.000000
0.000000 0.629459 0.000000
0.000000 0.625732 0.000000
0.000000 0.622005 0.000000
0.032448 0.618278 0.000000
0.085210 0.614551 0.000000
0.137973 0.610824 0.000000
0.190735 0.607097 0.000000
0.243498 0.603369 0.000000
0.297501 0.599555 0.000000
0.353368 0.595608 0.000000
0.409234 0.591662 0.000000
0.465100 0.587715 0.000000
0.520966 0.583769 0.000000
0.576832 0.579823 0.000000
0.632698 0.575876 0.000000
0.688564 0.571930 0.000000
0.744430 0.567983 0.000000
0.800296 0.564037 0.000000
0.838472 0.561340 0.000000
0.872224 0.558956 0.000000
0.905977 0.556572 0.000000
0.939729 0.554188 0.000000
0.973481 0.551803 0.000000
1.000000 0.549419 0.000000
1.000000 0.547035 0.000000
1.000000 0.544650 0.000000
1.000000 0.542266 0.000000
1.000000 0.539882 0.000000
1.000000 0.537498 0.000000
1.000000 0.535113 0.000000
1.000000 0.532729 0.000000
0.000000 0.679572 0.000000
0.000000 0.675845 0.000000
0.000000 0.672118 0.000000
0.000000 0.668391 0.000000
0.000000 0.664664 0.000000
0.020278 0.660937 0.000000
0.073041 0.657209 0.000000
0.125803 0.653482 0.000000
0.178566 0.649755 0.000000
0.231328 0.646028 0.000000
0.285332 0.642213 0.000000
0.341198 0.638267 0.000000
0.397064 0.634320 0.000000
0.452930 0.630374 0.000000
0.508796 0.626428 0.000000
0.564662 0.622481 0.000000
0.620529 0.618535 0.000000
0.676395 0.614588 0.000000
0.732261 0.610642 0.000000
0.788127 0.606696 0.000000
0.826302 0.603999 0.000000
0.860054 0.601615 0.000000
0.893807 0.599230 0.000000
0.927559 0.596846 0.000000
0.961312 0.594462 0.000000
0.995064 0.592078 0.000000
1.000000 0.589693 0.000000
1.000000 0.587309 0.000000
1.000000 0.584925 0.000000
1.000000 0.582540 0.000000
1.000000 0.580156 0.000000
1.000000 0.577772 0.000000
1.000000 0.575388 0.000000
0.000000 0.722231 0.000000
0.000000 0.718504 0.000000
0.000000 0.714777 0.000000
0.000000 0.711049 0.000000
0.000000 0.707322 0.000000
0.008109 0.703595 0.000000
0.060871 0.699868 0.000000
0.113634 0.696141 0.000000
0.166396 0.692414 0.000000
0.219158 0.688687 0.000000
0.273162 0.684872 0.000000
0.329028 0.680925 0.000000
0.384895 0.676979 0.000000
0.440761 0.673033 0.000000
0.496627 0.669086 0.000000
0.552493 0.665140 0.000000
0.608359 0.661193 0.000000
0.664225 0.657247 0.000000
0.720091 0.653301 0.000000
0.775957 0.649354 0.000000
0.814132 0.646657 0.000000
0.847885 0.644273 0.000000
0.881637 0.641889 0.000000
0.915390 0.639505 0.000000
0.949142 0.637120 0.000000
0.982895 0.634736 0.000000
1.000000 0.632352 0.000000
1.000000 0.629968 0.000000
1.000000 0.627583 0.000000
1.000000 0.625199 0.000000
1.000000 0.622815 0.000000
1.000000 0.620430 0.000000
1.000000 0.618046 0.000000
0.000000 0.757133 0.000000
0.000000 0.753406 0.000000
0.000000 0.749679 0.000000
0.000000 0.745952 0.000000
0.000000 0.742225 0.000000
0.000000 0.738498 0.000000
0.050914 0.734770 0.000000
0.103677 0.731043 0.000000
0.156439 0.727316 0.000000
0.209201 0.723589 0.000000
0.263205 0.719774 0.000000
0.319071 0.715828 0.000000
0.374938 0.711881 0.000000
0.430804 0.707935 0.000000
0.486670 0.703989 0.000000
0.542536 0.700042 0.000000
0.598402 0.696096 0.000000
0.654268 0.692149 0.000000
0.710134 0.688203 0.000000
0.766000 0.684257 0.000000
0.804176 0.681560 0.000000
0.837928 0.679176 0.000000
0.871680 0.676791 0.000000
0.905433 0.674407 0.000000
0.939185 0.672023 0.000000
0.972938 0.669639 0.000000
1.000000 0.667254 0.000000
1.000000 0.664870 0.000000
1.000000 0.662486 0.000000
1.000000 0.660101 0.000000
1.000000 0.657717 0.000000
1.000000 0.655333 0.000000
1.000000 0.652949 0.000000
0.000000 0.790097 0.000000
0.000000 0.786370 0.000000
0.000000 0.782642 0.000000
0.000000 0.778915 0.000000
0.000000 0.775188 0.000000
0.000000 0.771461 0.000000
0.041510 0.767734 0.000000
0.094273 0.764007 0.000000
0.147035 0.760280 0.000000
0.199798 0.756552 0.000000
0.253802 0.752738 0.000000
0.309668 0.748791 0.000000
0.365534 0.744845 0.000000
0.421400 0.740898 0.000000
0.477266 0.736952 0.000000
0.533132 0.733006 0.000000
0.588998 0.729059 0.000000
0.644864 0.725113 0.000000
0.700731 0.721166 0.000000
0.756597 0.717220 0.000000
0.794772 0.714523 0.000000
0.828524 0.712139 0.000000
0.862277 0.709755 0.000000
0.896029 0.707371 0.000000
0.929782 0.704986 0.000000
0.963534 0.702602 0.000000
0.997286 0.700218 0.000000
1.000000 0.697833 0.000000
1.000000 0.695449 0.000000
1.000000 0.693065 0.000000
1.000000 0.690681 0.000000
1.000000 0.688296 0.000000
1.000000 0.685912 0.000000
0.000000 0.823060 0.000000
0.000000 0.819333 0.000000
0.000000 0.815606 0.000000
0.000000 0.811879 0.000000
0.000000 0.808152 0.000000
0.000000 0.804424 0.000000
0.032107 0.800697 0.000000
0.084869 0.796970 0.000000
0.137631 0.793243 0.000000
0.190394 0.789516 0.000000
0.244398 0.785701 0.000000
0.300264 0.781755 0.000000
0.356130 0.777808 0.000000
0.411996 0.773862 0.000000
0.467862 0.769915 0.000000
0.523728 0.765969 0.000000
0.579595 0.762023 0.000000
0.635461 0.758076 0.000000
0.691327 0.754130 0.000000
0.747193 0.750183 0.000000
0.785368 0.747487 0.000000
0.819120 0.745103 0.000000
0.852873 0.742718 0.000000
0.886625 0.740334 0.000000
0.920378 0.737950 0.000000
0.954130 0.735565 0.000000
0.987883 0.733181 0.000000
1.000000 0.730797 0.000000
1.000000 0.728413 0.000000
1.000000 0.726028 0.000000
1.000000 0.723644 0.000000
1.000000 0.721260 0.000000
1.000000 0.718875 0.000000
0.000000 0.856024 0.000000
0.000000 0.852296 0.000000
0.000000 0.848569 0.000000
0.000000 0.844842 0.000000
0.000000 0.841115 0.000000
0.000000 0.837388 0.000000
0.022703 0.833661 0.000000
0.075465 0.829934 0.000000
0.128228 0.826206 0.000000
0.180990 0.822479 0.000000
0.234994 0.818664 0.000000
0.290860 0.814718 0.000000
0.346726 0.810772 0.000000
0.402592 0.806825 0.000000
0.458459 0.802879 0.000000
0.514325 0.798932 0.000000
0.570191 0.794986 0.000000
0.626057 0.791040 0.000000
0.681923 0.787093 0.000000
0.737789 0.783147 0.000000
0.775964 0.780450 0.000000
0.809717 0.778066 0.000000
0.843469 0.775682 0.000000
0.877222 0.773297 0.000000
0.910974 0.770913 0.000000
0.944726 0.768529 0.000000
0.978479 0.766145 0.000000
1.000000 0.763760 0.000000
1.000000 0.761376 0.000000
1.000000 0.758992 0.000000
1.000000 0.756607 0.000000
1.000000 0.754223 0.000000
1.000000 0.751839 0.000000
0.000000 0.888987 0.000000
0.000000 0.885260 0.000000
0.000000 0.881533 0.000000
0.000000 0.877806 0.000000
0.000000 0.874078 0.000000
0.000000 0.870351 0.000000
0.013299 0.866624 0.000000
0.066062 0.862897 0.000000
0.118824 0.859170 0.000000
0.171586 0.855443 0.000000
0.225590 0.851628 0.000000
0.281456 0.847681 0.000000
0.337323 0.843735 0.000000
0.393189 0.839789 0.000000
0.449055 0.835842 0.000000
0.504921 0.831896 0.000000
0.560787 0.827949 0.000000
0.616653 0.824003 0.000000
0.672519 0.820057 0.000000
0.728385 0.816110 0.000000
0.766561 0.813414 0.000000
0.800313 0.811029 0.000000
0.834065 0.808645 0.000000
0.867818 0.806261 0.000000
0.901570 0.803877 0.000000
0.935323 0.801492 0.000000
0.969075 0.799108 0.000000
1.000000 0.796724 0.000000
1.000000 0.794339 0.000000
1.000000 0.791955 0.000000
1.000000 0.789571 0.000000
1.000000 0.787187 0.000000
1.000000 0.784802 0.000000
0.000000 0.921950 0.000000
0.000000 0.918223 0.000000
0.000000 0.914496 0.000000
0.000000 0.910769 0.000000
0.000000 0.907042 0.000000
0.000000 0.903315 0.000000
0.003895 0.899588 0.000000
0.056658 0.895860 0.000000
0.109420 0.892133 0.000000
0.162183 0.888406 0.000000
0.216187 0.884591 0.000000
0.272053 0.880645 0.000000
0.327919 0.876698 0.000000
0.383785 0.872752 0.000000
0.439651 0.868806 0.000000
0.495517 0.864859 0.000000
0.551383 0.860913 0.000000
0.607249 0.856967 0.000000
0.663115 0.853020 0.000000
0.718982 0.849074 0.000000
0.757157 0.846377 0.000000
0.790909 0.843993 0.000000
0.824662 0.841609 0.000000
0.858414 0.839224 0.000000
0.892167 0.836840 0.000000
0.925919 0.834456 0.000000
0.959671 0.832071 0.000000
0.993424 0.829687 0.000000
1.000000 0.827303 0.000000
1.000000 0.824919 0.000000
1.000000 0.822534 0.000000
1.000000 0.820150 0.000000
1.000000 0.817766 0.000000
0.000000 0.954914 0.000000
0.000000 0.951187 0.000000
0.000000 0.947460 0.000000
0.000000 0.943732 0.000000
0.000000 0.940005 0.000000
0.000000 0.936278 0.000000
0.000000 0.932551 0.000000
0.047254 0.928824 0.000000
0.100016 0.925097 0.000000
0.152779 0.921370 0.000000
0.206783 0.917555 0.000000
0.262649 0.913608 0.000000
0.318515 0.909662 0.000000
0.374381 0.905716 0.000000
0.430247 0.901769 0.000000
0.486113 0.897823 0.000000
0.541979 0.893876 0.000000
0.597846 0.889930 0.000000
0.653712 0.885984 0.000000
0.709578 0.882037 0.000000
0.747753 0.879340 0.000000
0.781505 0.876956 0.000000
0.815258 0.874572 0.000000
0.849010 0.872188 0.000000
0.882763 0.869803 0.000000
0.916515 0.867419 0.000000
0.950268 0.865035 0.000000
0.984020 0.862651 0.000000
1.000000 0.860266 0.000000
