luts/vivid_daylight_100.cube
TITLE "Kodak Ektar 100"
LUT_3D_SIZE 5
0.000000 0.000000 0.000000
0.386997 0.000000 0.000000
0.828960 0.000000 0.000000
1.000000 0.000000 0.000000
1.000000 0.000000 0.000000
0.000000 0.259192 0.000000
0.298491 0.229374 0.000000
0.740454 0.198154 0.000000
1.000000 0.174081 0.000000
1.000000 0.155007 0.000000
0.000000 0.594255 0.000000
0.202905 0.564438 0.000000
0.644868 0.533218 0.000000
0.985651 0.509145 0.000000
1.000000 0.490071 0.000000
0.000000 0.888987 0.000000
0.118824 0.859170 0.000000
0.560787 0.827949 0.000000
0.901570 0.803877 0.000000
1.000000 0.784802 0.000000
0.000000 1.000000 0.000000
0.043594 1.000000 0.000000
0.485557 1.000000 0.000000
0.826340 1.000000 0.000000
1.000000 1.000000 0.000000
0.000000 0.000000 0.299781
0.378956 0.000000 0.269964
0.820919 0.000000 0.238744
1.000000 0.000000 0.214671
1.000000 0.000000 0.195597
0.000000 0.251150 0.211275
0.290450 0.221333 0.181458
0.732413 0.190113 0.150238
1.000000 0.166040 0.126165
1.000000 0.146966 0.107091
0.000000 0.586214 0.115689
0.194863 0.556397 0.085872
0.636826 0.525176 0.054651
0.977610 0.501103 0.030578
1.000000 0.482029 0.011504
0.000000 0.880946 0.031608
0.110783 0.851129 0.001791
0.552746 0.819908 0.000000
0.893529 0.795835 0.000000
1.000000 0.776761 0.000000
0.000000 1.000000 0.000000
0.035553 1.000000 0.000000
0.477516 1.000000 0.000000
0.818299 1.000000 0.000000
1.000000 1.000000 0.000000
0.000000 0.000000 0.671405
0.370438 0.000000 0.641588
0.812401 0.000000 0.610368
1.000000 0.000000 0.586295
1.000000 0.000000 0.567221
0.000000 0.242633 0.582899
0.281932 0.212815 0.553082
0.723895 0.181595 0.521862
1.000000 0.157522 0.497789
1.000000 0.138448 0.478715
0.000000 0.577696 0.487313
0.186346 0.547879 0.457496
0.628309 0.516659 0.426275
0.969092 0.492586 0.402202
1.000000 0.473511 0.383128
0.000000 0.872428 0.403232
0.102265 0.842611 0.373415
0.544228 0.811390 0.342195
0.885011 0.787317 0.318122
1.000000 0.768243 0.299047
0.000000 1.000000 0.328002
0.027035 1.000000 0.298185
0.468998 1.000000 0.266964
0.809781 1.000000 0.242892
1.000000 1.000000 0.223817
0.000000 0.000000 1.000000
0.362561 0.000000 0.985275
0.804524 0.000000 0.954055
1.000000 0.000000 0.929982
1.000000 0.000000 0.910908
0.000000 0.234755 0.926586
0.274055 0.204938 0.896769
0.716018 0.173718 0.865549
1.000000 0.149645 0.841476
1.000000 0.130570 0.822402
0.000000 0.569819 0.831000
0.178468 0.540001 0.801183
0.620431 0.508781 0.769962
0.961214 0.484708 0.745889
1.000000 0.465634 0.726815
0.000000 0.864550 0.746919
0.094387 0.834733 0.717102
0.536350 0.803513 0.685882
0.877134 0.779440 0.661809
1.000000 0.760366 0.642735
0.000000 1.000000 0.671689
0.019157 1.000000 0.641872
0.461120 1.000000 0.610652
0.801904 1.000000 0.586579
1.000000 1.000000 0.567504
0.000000 0.000000 1.000000
0.355189 0.000000 1.000000
0.797152 0.000000 1.000000
1.000000 0.000000 1.000000
1.000000 0.000000 1.000000
0.000000 0.227384 1.000000
0.266683 0.197567 1.000000
0.708646 0.166346 1.000000
1.000000 0.142273 1.000000
1.000000 0.123199 1.000000
0.000000 0.562447 1.000000
0.171097 0.532630 1.000000
0.613060 0.501410 1.000000
0.953843 0.477337 1.000000
1.000000 0.458263 1.000000
0.000000 0.857179 1.000000
0.087016 0.827362 1.000000
0.528979 0.796142 1.000000
0.869763 0.772069 0.983406
1.000000 0.752995 0.964332
0.000000 1.000000 0.993287
0.011786 1.000000 0.963469
0.453749 1.000000 0.932249
0.794532 1.000000 0.908176
1.000000 1.000000 0.889102
