luts/vivid_daylight_100.cube
TITLE "Kodak Ektar 100"
LUT_3D_SIZE 9
0.000000 0.000000 0.000000
0.175947 0.000000 0.000000
0.386997 0.000000 0.000000
0.605496 0.000000 0.000000
0.828960 0.000000 0.000000
1.000000 0.000000 0.000000
1.000000 0.000000 0.000000
1.000000 0.000000 0.000000
1.000000 0.000000 0.000000
0.000000 0.104070 0.000000
0.131694 0.089161 0.000000
0.342744 0.074252 0.000000
0.561243 0.058818 0.000000
0.784707 0.043032 0.000000
0.990481 0.028496 0.000000
1.000000 0.018959 0.000000
1.000000 0.009422 0.000000
1.000000 0.000000 0.000000
0.000000 0.259192 0.000000
0.087441 0.244283 0.000000
0.298491 0.229374 0.000000
0.516990 0.213940 0.000000
0.740454 0.198154 0.000000
0.946228 0.183618 0.000000
1.000000 0.174081 0.000000
1.000000 0.164544 0.000000
1.000000 0.155007 0.000000
0.000000 0.423621 0.000000
0.040533 0.408712 0.000000
0.251583 0.393804 0.000000
0.470082 0.378369 0.000000
0.693546 0.362583 0.000000
0.899320 0.348048 0.000000
1.000000 0.338511 0.000000
1.000000 0.328973 0.000000
1.000000 0.319436 0.000000
0.000000 0.594255 0.000000
0.000000 0.579347 0.000000
0.202905 0.564438 0.000000
0.421403 0.549003 0.000000
0.644868 0.533218 0.000000
0.850641 0.518682 0.000000
0.985651 0.509145 0.000000
1.000000 0.499608 0.000000
1.000000 0.490071 0.000000
0.000000 0.757133 0.000000
0.000000 0.742225 0.000000
0.156439 0.727316 0.000000
0.374938 0.711881 0.000000
0.598402 0.696096 0.000000
0.804176 0.681560 0.000000
0.939185 0.672023 0.000000
1.000000 0.662486 0.000000
1.000000 0.652949 0.000000
0.000000 0.888987 0.000000
0.000000 0.874078 0.000000
0.118824 0.859170 0.000000
0.337323 0.843735 0.000000
0.560787 0.827949 0.000000
0.766561 0.813414 0.000000
0.901570 0.803877 0.000000
1.000000 0.794339 0.000000
1.000000 0.784802 0.000000
0.000000 1.000000 0.000000
0.000000 1.000000 0.000000
0.081209 0.991024 0.000000
0.299707 0.975589 0.000000
0.523172 0.959803 0.000000
0.728945 0.945267 0.000000
0.863955 0.935730 0.000000
0.998965 0.926193 0.000000
1.000000 0.916656 0.000000
0.000000 1.000000 0.000000
0.000000 1.000000 0.000000
0.043594 1.000000 0.000000
0.262092 1.000000 0.000000
0.485557 1.000000 0.000000
0.691330 1.000000 0.000000
0.826340 1.000000 0.000000
0.961350 1.000000 0.000000
1.000000 1.000000 0.000000
0.000000 0.000000 0.124364
0.171927 0.000000 0.109456
0.382977 0.000000 0.094547
0.601475 0.000000 0.079113
0.824940 0.000000 0.063327
1.000000 0.000000 0.048791
1.000000 0.000000 0.039254
1.000000 0.000000 0.029717
1.000000 0.000000 0.020180
0.000000 0.100049 0.080111
0.127674 0.085140 0.065203
0.338724 0.070232 0.050294
0.557222 0.054797 0.034860
0.780687 0.039012 0.019074
0.986460 0.024476 0.004538
1.000000 0.014939 0.000000
1.000000 0.005401 0.000000
1.000000 0.000000 0.000000
0.000000 0.255171 0.035858
0.083421 0.240262 0.020950
0.294471 0.225354 0.006041
0.512969 0.209919 0.000000
0.736434 0.194134 0.000000
0.942207 0.179598 0.000000
1.000000 0.170061 0.000000
1.000000 0.160523 0.000000
1.000000 0.150986 0.000000
0.000000 0.419600 0.000000
0.036513 0.404692 0.000000
0.247562 0.389783 0.000000
0.466061 0.374348 0.000000
0.689525 0.358563 0.000000
0.895299 0.344027 0.000000
1.000000 0.334490 0.000000
1.000000 0.324953 0.000000
1.000000 0.315416 0.000000
0.000000 0.590235 0.000000
0.000000 0.575326 0.000000
0.198884 0.560417 0.000000
0.417383 0.544983 0.000000
0.640847 0.529197 0.000000
0.846621 0.514661 0.000000
0.981630 0.505124 0.000000
1.000000 0.495587 0.000000
1.000000 0.486050 0.000000
0.000000 0.753113 0.000000
0.000000 0.738204 0.000000
0.152418 0.723295 0.000000
0.370917 0.707861 0.000000
0.594381 0.692075 0.000000
0.800155 0.677539 0.000000
0.935165 0.668002 0.000000
1.000000 0.658465 0.000000
1.000000 0.648928 0.000000
0.000000 0.884966 0.000000
0.000000 0.870058 0.000000
0.114803 0.855149 0.000000
0.333302 0.839714 0.000000
0.556766 0.823929 0.000000
0.762540 0.809393 0.000000
0.897550 0.799856 0.000000
1.000000 0.790319 0.000000
1.000000 0.780782 0.000000
0.000000 1.000000 0.000000
0.000000 1.000000 0.000000
0.077188 0.987003 0.000000
0.295687 0.971568 0.000000
0.519151 0.955783 0.000000
0.724925 0.941247 0.000000
0.859935 0.931710 0.000000
0.994944 0.922172 0.000000
1.000000 0.912635 0.000000
0.000000 1.000000 0.000000
0.000000 1.000000 0.000000
0.039573 1.000000 0.000000
0.258072 1.000000 0.000000
0.481536 1.000000 0.000000
0.687310 1.000000 0.000000
0.822320 1.000000 0.000000
0.957329 1.000000 0.000000
1.000000 1.000000 0.000000
0.000000 0.000000 0.299781
0.167906 0.000000 0.284873
0.378956 0.000000 0.269964
0.597454 0.000000 0.254529
0.820919 0.000000 0.238744
1.000000 0.000000 0.224208
1.000000 0.000000 0.214671
1.000000 0.000000 0.205134
1.000000 0.000000 0.195597
0.000000 0.096028 0.255528
0.123653 0.081120 0.240620
0.334703 0.066211 0.225711
0.553201 0.050776 0.210276
0.776666 0.034991 0.194491
0.982439 0.020455 0.179955
1.000000 0.010918 0.170418
1.000000 0.001381 0.160881
1.000000 0.000000 0.151344
0.000000 0.251150 0.211275
0.079400 0.236242 0.196367
0.290450 0.221333 0.181458
0.508948 0.205898 0.166023
0.732413 0.190113 0.150238
0.938186 0.175577 0.135702
1.000000 0.166040 0.126165
1.000000 0.156503 0.116628
1.000000 0.146966 0.107091
0.000000 0.415580 0.164367
0.032492 0.400671 0.149459
0.243542 0.385763 0.134550
0.462040 0.370328 0.119115
0.685505 0.354542 0.103330
0.891278 0.340006 0.088794
1.000000 0.330469 0.079257
1.000000 0.320932 0.069720
1.000000 0.311395 0.060183
0.000000 0.586214 0.115689
0.000000 0.571305 0.100780
0.194863 0.556397 0.085872
0.413362 0.540962 0.070437
0.636826 0.525176 0.054651
0.842600 0.510641 0.040116
0.977610 0.501103 0.030578
1.000000 0.491566 0.021041
1.000000 0.482029 0.011504
0.000000 0.749092 0.069223
0.000000 0.734183 0.054315
0.148398 0.719275 0.039406
0.366896 0.703840 0.023971
0.590361 0.688055 0.008186
0.796134 0.673519 0.000000
0.931144 0.663982 0.000000
1.000000 0.654444 0.000000
1.000000 0.644907 0.000000
0.000000 0.880946 0.031608
0.000000 0.866037 0.016700
0.110783 0.851129 0.001791
0.329281 0.835694 0.000000
0.552746 0.819908 0.000000
0.758519 0.805372 0.000000
0.893529 0.795835 0.000000
1.000000 0.786298 0.000000
1.000000 0.776761 0.000000
0.000000 1.000000 0.000000
0.000000 0.997891 0.000000
0.073168 0.982982 0.000000
0.291666 0.967547 0.000000
0.515131 0.951762 0.000000
0.720904 0.937226 0.000000
0.855914 0.927689 0.000000
0.990924 0.918152 0.000000
1.000000 0.908615 0.000000
0.000000 1.000000 0.000000
0.000000 1.000000 0.000000
0.035553 1.000000 0.000000
0.254051 1.000000 0.000000
0.477516 1.000000 0.000000
0.683289 1.000000 0.000000
0.818299 1.000000 0.000000
0.953309 1.000000 0.000000
1.000000 1.000000 0.000000
0.000000 0.000000 0.482995
0.163707 0.000000 0.468086
0.374757 0.000000 0.453177
0.593255 0.000000 0.437743
0.816720 0.000000 0.421957
1.000000 0.000000 0.407421
1.000000 0.000000 0.397884
1.000000 0.000000 0.388347
1.000000 0.000000 0.378810
0.000000 0.091829 0.438742
0.119454 0.076920 0.423833
0.330504 0.062012 0.408924
0.549002 0.046577 0.393490
0.772467 0.030792 0.377704
0.978240 0.016256 0.363168
1.000000 0.006719 0.353631
1.000000 0.000000 0.344094
1.000000 0.000000 0.334557
0.000000 0.246951 0.394489
0.075201 0.232042 0.379580
0.286251 0.217134 0.364671
0.504749 0.201699 0.349237
0.728214 0.185914 0.333451
0.933987 0.171378 0.318915
1.000000 0.161841 0.309378
1.000000 0.152303 0.299841
1.000000 0.142766 0.290304
0.000000 0.411380 0.347580
0.028293 0.396472 0.332672
0.239342 0.381563 0.317763
0.457841 0.366128 0.302328
0.681305 0.350343 0.286543
0.887079 0.335807 0.272007
1.000000 0.326270 0.262470
1.000000 0.316733 0.252933
1.000000 0.307196 0.243396
0.000000 0.582015 0.298902
0.000000 0.567106 0.283993
0.190664 0.552197 0.269085
0.409163 0.536763 0.253650
0.632627 0.520977 0.237865
0.838401 0.506441 0.223329
0.973410 0.496904 0.213792
1.000000 0.487367 0.204255
1.000000 0.477830 0.194717
0.000000 0.744893 0.252436
0.000000 0.729984 0.237528
0.144198 0.715075 0.222619
0.362697 0.699641 0.207184
0.586161 0.683855 0.191399
0.791935 0.669319 0.176863
0.926945 0.659782 0.167326
1.000000 0.650245 0.157789
1.000000 0.640708 0.148252
0.000000 0.876746 0.214821
0.000000 0.861838 0.199913
0.106583 0.846929 0.185004
0.325082 0.831494 0.169569
0.548546 0.815709 0.153784
0.754320 0.801173 0.139248
0.889330 0.791636 0.129711
1.000000 0.782099 0.120174
1.000000 0.772562 0.110637
0.000000 1.000000 0.177206
0.000000 0.993691 0.162298
0.068968 0.978783 0.147389
0.287467 0.963348 0.131954
0.510931 0.947563 0.116169
0.716705 0.933027 0.101633
0.851715 0.923490 0.092096
0.986724 0.913953 0.082559
1.000000 0.904415 0.073022
0.000000 1.000000 0.139591
0.000000 1.000000 0.124683
0.031353 1.000000 0.109774
0.249852 1.000000 0.094339
0.473316 1.000000 0.078554
0.679090 1.000000 0.064018
0.814100 1.000000 0.054481
0.949109 1.000000 0.044944
1.000000 1.000000 0.035407
0.000000 0.000000 0.671405
0.159388 0.000000 0.656497
0.370438 0.000000 0.641588
0.588937 0.000000 0.626153
0.812401 0.000000 0.610368
1.000000 0.000000 0.595832
1.000000 0.000000 0.586295
1.000000 0.000000 0.576758
1.000000 0.000000 0.567221
0.000000 0.087511 0.627152
0.115135 0.072602 0.612244
0.326185 0.057693 0.597335
0.544684 0.042259 0.581900
0.768148 0.026473 0.566115
0.973922 0.011937 0.551579
1.000000 0.002400 0.542042
1.000000 0.000000 0.532505
1.000000 0.000000 0.522968
0.000000 0.242633 0.582899
0.070882 0.227724 0.567991
0.281932 0.212815 0.553082
0.500431 0.197381 0.537647
0.723895 0.181595 0.521862
0.929669 0.167059 0.507326
1.000000 0.157522 0.497789
1.000000 0.147985 0.488252
1.000000 0.138448 0.478715
0.000000 0.407062 0.535991
0.023974 0.392153 0.521082
0.235024 0.377245 0.506174
0.453522 0.361810 0.490739
0.676987 0.346024 0.474954
0.882760 0.331489 0.460418
1.000000 0.321951 0.450881
1.000000 0.312414 0.441344
1.000000 0.302877 0.431806
0.000000 0.577696 0.487313
0.000000 0.562788 0.472404
0.186346 0.547879 0.457496
0.404844 0.532444 0.442061
0.628309 0.516659 0.426275
0.834082 0.502123 0.411739
0.969092 0.492586 0.402202
1.000000 0.483049 0.392665
1.000000 0.473511 0.383128
0.000000 0.740574 0.440847
0.000000 0.725666 0.425939
0.139880 0.710757 0.411030
0.358379 0.695322 0.395595
0.581843 0.679537 0.379810
0.787616 0.665001 0.365274
0.922626 0.655464 0.355737
1.000000 0.645927 0.346200
1.000000 0.636390 0.336662
0.000000 0.872428 0.403232
0.000000 0.857519 0.388323
0.102265 0.842611 0.373415
0.320763 0.827176 0.357980
0.544228 0.811390 0.342195
0.750001 0.796855 0.327659
0.885011 0.787317 0.318122
1.000000 0.777780 0.308585
1.000000 0.768243 0.299047
0.000000 1.000000 0.365617
0.000000 0.989373 0.350708
0.064650 0.974464 0.335800
0.283148 0.959030 0.320365
0.506613 0.943244 0.304580
0.712386 0.928708 0.290044
0.847396 0.919171 0.280507
0.982406 0.909634 0.270969
1.000000 0.900097 0.261432
0.000000 1.000000 0.328002
0.000000 1.000000 0.313093
0.027035 1.000000 0.298185
0.245533 1.000000 0.282750
0.468998 1.000000 0.266964
0.674771 1.000000 0.252429
0.809781 1.000000 0.242892
0.944791 1.000000 0.233354
1.000000 1.000000 0.223817
0.000000 0.000000 0.854294
0.155196 0.000000 0.839385
0.366246 0.000000 0.824476
0.584745 0.000000 0.809042
0.808209 0.000000 0.793256
1.000000 0.000000 0.778720
1.000000 0.000000 0.769183
1.000000 0.000000 0.759646
1.000000 0.000000 0.750109
0.000000 0.083319 0.810041
0.110943 0.068410 0.795132
0.321993 0.053502 0.780223
0.540492 0.038067 0.764789
0.763956 0.022281 0.749003
0.969730 0.007745 0.734467
1.000000 0.000000 0.724930
1.000000 0.000000 0.715393
1.000000 0.000000 0.705856
0.000000 0.238441 0.765788
0.066690 0.223532 0.750879
0.277740 0.208624 0.735970
0.496239 0.193189 0.720536
0.719703 0.177403 0.704750
0.925477 0.162867 0.690214
1.000000 0.153330 0.680677
1.000000 0.143793 0.671140
1.000000 0.134256 0.661603
0.000000 0.402870 0.718879
0.019782 0.387961 0.703971
0.230832 0.373053 0.689062
0.449331 0.357618 0.673627
0.672795 0.341833 0.657842
0.878569 0.327297 0.643306
1.000000 0.317760 0.633769
1.000000 0.308222 0.624232
1.000000 0.298685 0.614695
0.000000 0.573504 0.670201
0.000000 0.558596 0.655292
0.182154 0.543687 0.640384
0.400652 0.528252 0.624949
0.624117 0.512467 0.609164
0.829890 0.497931 0.594628
0.964900 0.488394 0.585091
1.000000 0.478857 0.575554
1.000000 0.469320 0.566016
0.000000 0.736382 0.623735
0.000000 0.721474 0.608827
0.135688 0.706565 0.593918
0.354187 0.691130 0.578484
0.577651 0.675345 0.562698
0.783425 0.660809 0.548162
0.918434 0.651272 0.538625
1.000000 0.641735 0.529088
1.000000 0.632198 0.519551
0.000000 0.868236 0.586120
0.000000 0.853327 0.571212
0.098073 0.838419 0.556303
0.316572 0.822984 0.540868
0.540036 0.807199 0.525083
0.745810 0.792663 0.510547
0.880819 0.783126 0.501010
1.000000 0.773588 0.491473
1.000000 0.764051 0.481936
0.000000 1.000000 0.548505
0.000000 0.985181 0.533597
0.060458 0.970273 0.518688
0.278957 0.954838 0.503253
0.502421 0.939052 0.487468
0.708194 0.924516 0.472932
0.843204 0.914979 0.463395
0.978214 0.905442 0.453858
1.000000 0.895905 0.444321
0.000000 1.000000 0.510890
0.000000 1.000000 0.495982
0.022843 1.000000 0.481073
0.241341 1.000000 0.465638
0.464806 1.000000 0.449853
0.670579 1.000000 0.435317
0.805589 1.000000 0.425780
0.940599 1.000000 0.416243
1.000000 1.000000 0.406706
0.000000 0.000000 1.000000
0.151511 0.000000 1.000000
0.362561 0.000000 0.985275
0.581059 0.000000 0.969840
0.804524 0.000000 0.954055
1.000000 0.000000 0.939519
1.000000 0.000000 0.929982
1.000000 0.000000 0.920445
1.000000 0.000000 0.910908
0.000000 0.079633 0.970839
0.107258 0.064725 0.955931
0.318308 0.049816 0.941022
0.536806 0.034381 0.925587
0.760271 0.018596 0.909802
0.966044 0.004060 0.895266
1.000000 0.000000 0.885729
1.000000 0.000000 0.876192
1.000000 0.000000 0.866655
0.000000 0.234755 0.926586
0.063005 0.219847 0.911678
0.274055 0.204938 0.896769
0.492553 0.189503 0.881334
0.716018 0.173718 0.865549
0.921791 0.159182 0.851013
1.000000 0.149645 0.841476
1.000000 0.140108 0.831939
1.000000 0.130570 0.822402
0.000000 0.399184 0.879678
0.016097 0.384276 0.864770
0.227146 0.369367 0.849861
0.445645 0.353932 0.834426
0.669109 0.338147 0.818641
0.874883 0.323611 0.804105
1.000000 0.314074 0.794568
1.000000 0.304537 0.785031
1.000000 0.295000 0.775494
0.000000 0.569819 0.831000
0.000000 0.554910 0.816091
0.178468 0.540001 0.801183
0.396967 0.524567 0.785748
0.620431 0.508781 0.769962
0.826205 0.494245 0.755427
0.961214 0.484708 0.745889
1.000000 0.475171 0.736352
1.000000 0.465634 0.726815
0.000000 0.732697 0.784534
0.000000 0.717788 0.769626
0.132002 0.702880 0.754717
0.350501 0.687445 0.739282
0.573965 0.671659 0.723497
0.779739 0.657123 0.708961
0.914749 0.647586 0.699424
1.000000 0.638049 0.689887
1.000000 0.628512 0.680350
0.000000 0.864550 0.746919
0.000000 0.849642 0.732011
0.094387 0.834733 0.717102
0.312886 0.819298 0.701667
0.536350 0.803513 0.685882
0.742124 0.788977 0.671346
0.877134 0.779440 0.661809
1.000000 0.769903 0.652272
1.000000 0.760366 0.642735
0.000000 0.996404 0.709304
0.000000 0.981496 0.694396
0.056772 0.966587 0.679487
0.275271 0.951152 0.664052
0.498735 0.935367 0.648267
0.704509 0.920831 0.633731
0.839519 0.911294 0.624194
0.974528 0.901757 0.614657
1.000000 0.892219 0.605119
0.000000 1.000000 0.671689
0.000000 1.000000 0.656780
0.019157 1.000000 0.641872
0.237656 1.000000 0.626437
0.461120 1.000000 0.610652
0.666894 1.000000 0.596116
0.801904 1.000000 0.586579
0.936913 1.000000 0.577042
1.000000 1.000000 0.567504
0.000000 0.000000 1.000000
0.147825 0.000000 1.000000
0.358875 0.000000 1.000000
0.577374 0.000000 1.000000
0.800838 0.000000 1.000000
1.000000 0.000000 1.000000
1.000000 0.000000 1.000000
1.000000 0.000000 1.000000
1.000000 0.000000 1.000000
0.000000 0.075948 1.000000
0.103572 0.061039 1.000000
0.314622 0.046130 1.000000
0.533121 0.030696 1.000000
0.756585 0.014910 1.000000
0.962359 0.000374 1.000000
1.000000 0.000000 1.000000
1.000000 0.000000 1.000000
1.000000 0.000000 1.000000
0.000000 0.231070 1.000000
0.059319 0.216161 1.000000
0.270369 0.201252 1.000000
0.488868 0.185818 1.000000
0.712332 0.170032 1.000000
0.918106 0.155496 1.000000
1.000000 0.145959 1.000000
1.000000 0.136422 0.992738
1.000000 0.126885 0.983200
0.000000 0.395499 1.000000
0.012411 0.380590 1.000000
0.223461 0.365682 1.000000
0.441959 0.350247 0.995225
0.665424 0.334461 0.979439
0.871197 0.319926 0.964904
1.000000 0.310388 0.955367
1.000000 0.300851 0.945829
1.000000 0.291314 0.936292
0.000000 0.566133 0.991799
0.000000 0.551224 0.976890
0.174783 0.536316 0.961981
0.393281 0.520881 0.946547
0.616746 0.505096 0.930761
0.822519 0.490560 0.916225
0.957529 0.481023 0.906688
1.000000 0.471485 0.897151
1.000000 0.461948 0.887614
0.000000 0.729011 0.945333
0.000000 0.714103 0.930424
0.128317 0.699194 0.915516
0.346815 0.683759 0.900081
0.570280 0.667974 0.884296
0.776053 0.653438 0.869760
0.911063 0.643901 0.860223
1.000000 0.634364 0.850685
1.000000 0.624826 0.841148
0.000000 0.860865 0.907718
0.000000 0.845956 0.892809
0.090702 0.831048 0.877901
0.309200 0.815613 0.862466
0.532665 0.799827 0.846680
0.738438 0.785292 0.832145
0.873448 0.775754 0.822608
1.000000 0.766217 0.813070
1.000000 0.756680 0.803533
0.000000 0.992719 0.870103
0.000000 0.977810 0.855194
0.053087 0.962901 0.840286
0.271585 0.947467 0.824851
0.495050 0.931681 0.809065
0.700823 0.917145 0.794530
0.835833 0.907608 0.784992
0.970843 0.898071 0.775455
1.000000 0.888534 0.765918
0.000000 1.000000 0.832488
0.000000 1.000000 0.817579
0.015472 1.000000 0.802671
0.233970 1.000000 0.787236
0.457435 1.000000 0.771450
0.663208 1.000000 0.756915
0.798218 1.000000 0.747377
0.933228 1.000000 0.737840
1.000000 1.000000 0.728303
0.000000 0.000000 1.000000
0.144140 0.000000 1.000000
0.355189 0.000000 1.000000
0.573688 0.000000 1.000000
0.797152 0.000000 1.000000
1.000000 0.000000 1.000000
1.000000 0.000000 1.000000
1.000000 0.000000 1.000000
1.000000 0.000000 1.000000
0.000000 0.072262 1.000000
0.099887 0.057353 1.000000
0.310936 0.042445 1.000000
0.529435 0.027010 1.000000
0.752899 0.011224 1.000000
0.958673 0.000000 1.000000
1.000000 0.000000 1.000000
1.000000 0.000000 1.000000
1.000000 0.000000 1.000000
0.000000 0.227384 1.000000
0.055634 0.212475 1.000000
0.266683 0.197567 1.000000
0.485182 0.182132 1.000000
0.708646 0.166346 1.000000
0.914420 0.151811 1.000000
1.000000 0.142273 1.000000
1.000000 0.132736 1.000000
1.000000 0.123199 1.000000
0.000000 0.391813 1.000000
0.008725 0.376905 1.000000
0.219775 0.361996 1.000000
0.438274 0.346561 1.000000
0.661738 0.330776 1.000000
0.867512 0.316240 1.000000
1.000000 0.306703 1.000000
1.000000 0.297166 1.000000
1.000000 0.287629 1.000000
0.000000 0.562447 1.000000
0.000000 0.547539 1.000000
0.171097 0.532630 1.000000
0.389596 0.517196 1.000000
0.613060 0.501410 1.000000
0.818833 0.486874 1.000000
0.953843 0.477337 1.000000
1.000000 0.467800 1.000000
1.000000 0.458263 1.000000
0.000000 0.725326 1.000000
0.000000 0.710417 1.000000
0.124631 0.695508 1.000000
0.343130 0.680074 1.000000
0.566594 0.664288 1.000000
0.772368 0.649752 1.000000
0.907378 0.640215 1.000000
1.000000 0.630678 1.000000
1.000000 0.621141 1.000000
0.000000 0.857179 1.000000
0.000000 0.842271 1.000000
0.087016 0.827362 1.000000
0.305515 0.811927 1.000000
0.528979 0.796142 1.000000
0.734753 0.781606 0.992943
0.869763 0.772069 0.983406
1.000000 0.762532 0.973869
1.000000 0.752995 0.964332
0.000000 0.989033 1.000000
0.000000 0.974124 1.000000
0.049401 0.959216 1.000000
0.267900 0.943781 0.985650
0.491364 0.927995 0.969864
0.697138 0.913460 0.955328
0.832148 0.903923 0.945791
0.967157 0.894385 0.936254
1.000000 0.884848 0.926717
0.000000 1.000000 0.993287
0.000000 1.000000 0.978378
0.011786 1.000000 0.963469
0.230285 1.000000 0.948035
0.453749 1.000000 0.932249
0.659523 1.000000 0.917713
0.794532 1.000000 0.908176
0.929542 1.000000 0.898639
1.000000 1.000000 0.889102
