luts/warm_gold_200.cube
TITLE "Kodak Gold 200"
LUT_3D_SIZE 5
0.121359 0.047497 0.000000
0.401846 0.039640 0.000000
0.668309 0.032176 0.000000
0.887878 0.026025 0.000000
1.000000 0.020738 0.000000
0.080845 0.297717 0.000000
0.361320 0.289848 0.000000
0.627752 0.282353 0.000000
0.847295 0.276177 0.000000
1.000000 0.270814 0.000000
0.040249 0.547855 0.000000
0.320703 0.539965 0.000000
0.587619 0.532619 0.000000
0.812806 0.528181 0.000000
1.000000 0.524328 0.000000
0.011208 0.766083 0.000000
0.298872 0.760414 0.000000
0.572153 0.755028 0.000000
0.797340 0.750590 0.000000
0.992862 0.746737 0.000000
0.000000 0.965351 0.000000
0.285015 0.959682 0.000000
0.558296 0.954296 0.000000
0.783483 0.949858 0.000000
0.979005 0.946005 0.000000
0.118066 0.045527 0.204386
0.398521 0.037638 0.203980
0.664952 0.030142 0.203594
0.884496 0.023966 0.203276
1.000000 0.018619 0.203015
0.077449 0.295645 0.203105
0.357903 0.287755 0.202699
0.624335 0.280260 0.202313
0.843879 0.274083 0.201995
1.000000 0.268721 0.201719
0.036832 0.545762 0.201824
0.317286 0.537872 0.201418
0.586115 0.531115 0.199282
0.811302 0.526677 0.194844
1.000000 0.522824 0.190990
0.009704 0.764579 0.194871
0.297368 0.758910 0.189201
0.570649 0.753524 0.183815
0.795836 0.749086 0.179377
0.991357 0.745232 0.175524
0.000000 0.963847 0.181014
0.283511 0.958178 0.175344
0.556792 0.952792 0.169959
0.781979 0.948354 0.165520
0.977500 0.944500 0.161667
0.114540 0.043367 0.440775
0.394994 0.035477 0.440369
0.661426 0.027982 0.439983
0.880969 0.021806 0.439665
1.000000 0.016443 0.439389
0.073923 0.293484 0.439494
0.354377 0.285595 0.439088
0.620809 0.278099 0.438702
0.840352 0.271923 0.438384
1.000000 0.266561 0.438107
0.033305 0.543602 0.438213
0.313760 0.535712 0.437806
0.584563 0.529563 0.434229
0.809750 0.525125 0.429791
1.000000 0.521271 0.425938
0.008152 0.763027 0.429818
0.295816 0.757357 0.424149
0.569097 0.751972 0.418763
0.794284 0.747534 0.414325
0.989805 0.743680 0.410472
0.000000 0.962295 0.415961
0.281959 0.956625 0.410292
0.555240 0.951240 0.404906
0.780427 0.946802 0.400468
0.975948 0.942948 0.396615
0.111027 0.041215 0.676247
0.391482 0.033326 0.675841
0.657914 0.025830 0.675455
0.877457 0.019654 0.675137
1.000000 0.014291 0.674861
0.070410 0.291332 0.674966
0.350864 0.283443 0.674560
0.617296 0.275947 0.674174
0.836840 0.269771 0.673856
1.000000 0.264409 0.673580
0.029793 0.541450 0.673685
0.310247 0.533560 0.673279
0.583016 0.528016 0.668266
0.808203 0.523578 0.663828
1.000000 0.519725 0.659975
0.006605 0.761480 0.663855
0.294269 0.755811 0.658186
0.567550 0.750425 0.652800
0.792737 0.745987 0.648362
0.988259 0.742134 0.644509
0.000000 0.960748 0.649998
0.280412 0.955079 0.644329
0.553693 0.949693 0.638943
0.778880 0.945255 0.634505
0.974402 0.941402 0.630652
0.107542 0.039080 0.909888
0.387996 0.031190 0.909481
0.654428 0.023695 0.909095
0.873972 0.017519 0.908777
1.000000 0.012156 0.908501
0.066925 0.289197 0.908606
0.347379 0.281308 0.908200
0.613811 0.273812 0.907814
0.833354 0.267636 0.907496
1.000000 0.262273 0.907220
0.026307 0.539314 0.907325
0.308201 0.531868 0.905868
0.581482 0.526482 0.900482
0.806669 0.522044 0.896044
1.000000 0.518191 0.892191
0.005071 0.759946 0.896071
0.292735 0.754277 0.890402
0.566016 0.748891 0.885016
0.791203 0.744453 0.880578
0.986725 0.740600 0.876725
0.000000 0.959214 0.882214
0.278878 0.953545 0.876545
0.552159 0.948159 0.871159
0.777346 0.943721 0.866721
0.972868 0.939868 0.862868
