luts/warm_gold_200.cube
TITLE "Kodak Gold 200"
LUT_3D_SIZE 33
0.121359 0.047497 0.000000
0.156420 0.046515 0.000000
0.191481 0.045533 0.000000
0.226542 0.044551 0.000000
0.261603 0.043568 0.000000
0.296664 0.042586 0.000000
0.331725 0.041604 0.000000
0.366786 0.040622 0.000000
0.401846 0.039640 0.000000
0.436907 0.038658 0.000000
0.471092 0.037700 0.000000
0.503961 0.036779 0.000000
0.536831 0.035859 0.000000
0.569701 0.034938 0.000000
0.602570 0.034017 0.000000
0.635440 0.033096 0.000000
0.668309 0.032176 0.000000
0.701179 0.031255 0.000000
0.734049 0.030334 0.000000
0.766918 0.029413 0.000000
0.792557 0.028695 0.000000
0.816387 0.028028 0.000000
0.840217 0.027360 0.000000
0.864048 0.026693 0.000000
0.887878 0.026025 0.000000
0.911709 0.025358 0.000000
0.935539 0.024690 0.000000
0.959370 0.024023 0.000000
0.983200 0.023355 0.000000
1.000000 0.022687 0.000000
1.000000 0.022020 0.000000
1.000000 0.021352 0.000000
1.000000 0.020738 0.000000
0.116295 0.078774 0.000000
0.151356 0.077792 0.000000
0.186417 0.076810 0.000000
0.221478 0.075828 0.000000
0.256539 0.074846 0.000000
0.291600 0.073864 0.000000
0.326660 0.072882 0.000000
0.361721 0.071900 0.000000
0.396782 0.070917 0.000000
0.431843 0.069935 0.000000
0.466028 0.068978 0.000000
0.498897 0.068057 0.000000
0.531767 0.067136 0.000000
0.564636 0.066216 0.000000
0.597506 0.065295 0.000000
0.630376 0.064374 0.000000
0.663245 0.063453 0.000000
0.696115 0.062533 0.000000
0.728984 0.061612 0.000000
0.761854 0.060691 0.000000
0.787492 0.059973 0.000000
0.811323 0.059305 0.000000
0.835153 0.058638 0.000000
0.858984 0.057970 0.000000
0.882814 0.057303 0.000000
0.906645 0.056635 0.000000
0.930475 0.055968 0.000000
0.954306 0.055300 0.000000
0.978136 0.054633 0.000000
1.000000 0.053965 0.000000
1.000000 0.053297 0.000000
1.000000 0.052630 0.000000
1.000000 0.051962 0.000000
0.111231 0.110052 0.000000
0.146292 0.109070 0.000000
0.181353 0.108088 0.000000
0.216413 0.107106 0.000000
0.251474 0.106124 0.000000
0.286535 0.105141 0.000000
0.321596 0.104159 0.000000
0.356657 0.103177 0.000000
0.391718 0.102195 0.000000
0.426779 0.101213 0.000000
0.460963 0.100255 0.000000
0.493833 0.099335 0.000000
0.526703 0.098414 0.000000
0.559572 0.097493 0.000000
0.592442 0.096572 0.000000
0.625311 0.095652 0.000000
0.658181 0.094731 0.000000
0.691051 0.093810 0.000000
0.723920 0.092889 0.000000
0.756790 0.091969 0.000000
0.782428 0.091250 0.000000
0.806259 0.090583 0.000000
0.830089 0.089915 0.000000
0.853919 0.089248 0.000000
0.877750 0.088580 0.000000
0.901580 0.087913 0.000000
0.925411 0.087245 0.000000
0.949241 0.086578 0.000000
0.973069 0.085907 0.000000
0.996897 0.085237 0.000000
1.000000 0.084567 0.000000
1.000000 0.083897 0.000000
1.000000 0.083226 0.000000
0.106166 0.141330 0.000000
0.141227 0.140347 0.000000
0.176288 0.139365 0.000000
0.211349 0.138383 0.000000
0.246410 0.137401 0.000000
0.281471 0.136419 0.000000
0.316532 0.135437 0.000000
0.351593 0.134455 0.000000
0.386654 0.133473 0.000000
0.421715 0.132490 0.000000
0.455899 0.131533 0.000000
0.488769 0.130612 0.000000
0.521638 0.129691 0.000000
0.554508 0.128771 0.000000
0.587377 0.127850 0.000000
0.620247 0.126929 0.000000
0.653117 0.126008 0.000000
0.685986 0.125088 0.000000
0.718856 0.124167 0.000000
0.751726 0.123246 0.000000
0.777364 0.122528 0.000000
0.801194 0.121860 0.000000
0.825025 0.121193 0.000000
0.848854 0.120524 0.000000
0.872681 0.119853 0.000000
0.896509 0.119183 0.000000
0.920337 0.118513 0.000000
0.944164 0.117842 0.000000
0.967992 0.117172 0.000000
0.991820 0.116502 0.000000
1.000000 0.115831 0.000000
1.000000 0.115161 0.000000
1.000000 0.114491 0.000000
0.101102 0.172607 0.000000
0.136163 0.171625 0.000000
0.171224 0.170643 0.000000
0.206285 0.169661 0.000000
0.241346 0.168679 0.000000
0.276407 0.167697 0.000000
0.311468 0.166714 0.000000
0.346529 0.165732 0.000000
0.381590 0.164750 0.000000
0.416650 0.163768 0.000000
0.450835 0.162810 0.000000
0.483704 0.161890 0.000000
0.516574 0.160969 0.000000
0.549444 0.160048 0.000000
0.582313 0.159127 0.000000
0.615183 0.158207 0.000000
0.648052 0.157286 0.000000
0.680922 0.156365 0.000000
0.713792 0.155444 0.000000
0.746658 0.154521 0.000000
0.772293 0.153799 0.000000
0.796121 0.153129 0.000000
0.819949 0.152459 0.000000
0.843776 0.151788 0.000000
0.867604 0.151118 0.000000
0.891432 0.150448 0.000000
0.915259 0.149777 0.000000
0.939087 0.149107 0.000000
0.962915 0.148437 0.000000
0.986743 0.147766 0.000000
1.000000 0.147096 0.000000
1.000000 0.146426 0.000000
1.000000 0.145755 0.000000
0.096038 0.203885 0.000000
0.131099 0.202903 0.000000
0.166160 0.201920 0.000000
0.201221 0.200938 0.000000
0.236282 0.199956 0.000000
0.271343 0.198974 0.000000
0.306403 0.197992 0.000000
0.341464 0.197010 0.000000
0.376525 0.196028 0.000000
0.411586 0.195046 0.000000
0.445771 0.194088 0.000000
0.478640 0.193167 0.000000
0.511510 0.192246 0.000000
0.544379 0.191326 0.000000
0.577249 0.190405 0.000000
0.610118 0.189484 0.000000
0.642984 0.188559 0.000000
0.675849 0.187634 0.000000
0.708715 0.186710 0.000000
0.741581 0.185785 0.000000
0.767216 0.185064 0.000000
0.791044 0.184394 0.000000
0.814872 0.183723 0.000000
0.838699 0.183053 0.000000
0.862527 0.182383 0.000000
0.886355 0.181712 0.000000
0.910182 0.181042 0.000000
0.934010 0.180372 0.000000
0.957838 0.179701 0.000000
0.981665 0.179031 0.000000
1.000000 0.178361 0.000000
1.000000 0.177690 0.000000
1.000000 0.177020 0.000000
0.090974 0.235162 0.000000
0.126035 0.234180 0.000000
0.161096 0.233198 0.000000
0.196156 0.232216 0.000000
0.231217 0.231234 0.000000
0.266278 0.230252 0.000000
0.301339 0.229269 0.000000
0.336400 0.228287 0.000000
0.371461 0.227305 0.000000
0.406522 0.226323 0.000000
0.440706 0.225366 0.000000
0.473576 0.224445 0.000000
0.506443 0.223522 0.000000
0.539309 0.222597 0.000000
0.572175 0.221673 0.000000
0.605041 0.220748 0.000000
0.637906 0.219824 0.000000
0.670772 0.218899 0.000000
0.703638 0.217974 0.000000
0.736504 0.217050 0.000000
0.762139 0.216329 0.000000
0.785967 0.215658 0.000000
0.809794 0.214988 0.000000
0.833622 0.214318 0.000000
0.857450 0.213647 0.000000
0.881277 0.212977 0.000000
0.905105 0.212307 0.000000
0.928933 0.211636 0.000000
0.952761 0.210966 0.000000
0.976588 0.210296 0.000000
1.000000 0.209625 0.000000
1.000000 0.208955 0.000000
1.000000 0.208285 0.000000
0.085909 0.266440 0.000000
0.120970 0.265458 0.000000
0.156031 0.264476 0.000000
0.191092 0.263493 0.000000
0.226153 0.262511 0.000000
0.261214 0.261529 0.000000
0.296275 0.260547 0.000000
0.331336 0.259565 0.000000
0.366397 0.258583 0.000000
0.401454 0.257597 0.000000
0.435635 0.256636 0.000000
0.468500 0.255711 0.000000
0.501366 0.254787 0.000000
0.534232 0.253862 0.000000
0.567098 0.252937 0.000000
0.599964 0.252013 0.000000
0.632829 0.251088 0.000000
0.665695 0.250164 0.000000
0.698561 0.249239 0.000000
0.731427 0.248314 0.000000
0.757062 0.247593 0.000000
0.780890 0.246923 0.000000
0.804717 0.246253 0.000000
0.828545 0.245582 0.000000
0.852373 0.244912 0.000000
0.876200 0.244242 0.000000
0.900028 0.243571 0.000000
0.923856 0.242901 0.000000
0.947683 0.242231 0.000000
0.971511 0.241560 0.000000
0.995339 0.240890 0.000000
1.000000 0.240220 0.000000
1.000000 0.239549 0.000000
0.080845 0.297717 0.000000
0.115906 0.296735 0.000000
0.150967 0.295753 0.000000
0.186028 0.294771 0.000000
0.221089 0.293789 0.000000
0.256150 0.292807 0.000000
0.291207 0.291821 0.000000
0.326264 0.290834 0.000000
0.361320 0.289848 0.000000
0.396377 0.288862 0.000000
0.430558 0.287900 0.000000
0.463423 0.286976 0.000000
0.496289 0.286051 0.000000
0.529155 0.285127 0.000000
0.562021 0.284202 0.000000
0.594886 0.283277 0.000000
0.627752 0.282353 0.000000
0.660618 0.281428 0.000000
0.693484 0.280504 0.000000
0.726349 0.279579 0.000000
0.751985 0.278858 0.000000
0.775812 0.278188 0.000000
0.799640 0.277517 0.000000
0.823468 0.276847 0.000000
0.847295 0.276177 0.000000
0.871123 0.275506 0.000000
0.894951 0.274836 0.000000
0.918779 0.274166 0.000000
0.942606 0.273495 0.000000
0.966434 0.272825 0.000000
0.990262 0.272155 0.000000
1.000000 0.271484 0.000000
1.000000 0.270814 0.000000
0.075781 0.328995 0.000000
0.110842 0.328013 0.000000
0.145902 0.327030 0.000000
0.180959 0.326044 0.000000
0.216016 0.325058 0.000000
0.251073 0.324071 0.000000
0.286130 0.323085 0.000000
0.321186 0.322099 0.000000
0.356243 0.321113 0.000000
0.391300 0.320127 0.000000
0.425480 0.319165 0.000000
0.458346 0.318240 0.000000
0.491212 0.317316 0.000000
0.524078 0.316391 0.000000
0.556943 0.315467 0.000000
0.589809 0.314542 0.000000
0.622675 0.313618 0.000000
0.655541 0.312693 0.000000
0.688407 0.311768 0.000000
0.721272 0.310844 0.000000
0.746908 0.310123 0.000000
0.770735 0.309452 0.000000
0.794563 0.308782 0.000000
0.818391 0.308112 0.000000
0.842218 0.307441 0.000000
0.866046 0.306771 0.000000
0.889874 0.306101 0.000000
0.913701 0.305430 0.000000
0.937529 0.304760 0.000000
0.961357 0.304090 0.000000
0.985184 0.303419 0.000000
1.000000 0.302749 0.000000
1.000000 0.302079 0.000000
0.070711 0.360267 0.000000
0.105768 0.359281 0.000000
0.140825 0.358295 0.000000
0.175882 0.357309 0.000000
0.210939 0.356322 0.000000
0.245996 0.355336 0.000000
0.281052 0.354350 0.000000
0.316109 0.353364 0.000000
0.351166 0.352377 0.000000
0.386223 0.351391 0.000000
0.420403 0.350430 0.000000
0.453269 0.349505 0.000000
0.486135 0.348580 0.000000
0.519001 0.347656 0.000000
0.551866 0.346731 0.000000
0.584732 0.345807 0.000000
0.617598 0.344882 0.000000
0.650464 0.343958 0.000000
0.683329 0.343033 0.000000
0.716195 0.342108 0.000000
0.741830 0.341387 0.000000
0.765658 0.340717 0.000000
0.789486 0.340047 0.000000
0.813314 0.339376 0.000000
0.837141 0.338706 0.000000
0.860969 0.338036 0.000000
0.884797 0.337365 0.000000
0.908624 0.336695 0.000000
0.932452 0.336025 0.000000
0.956280 0.335354 0.000000
0.980107 0.334684 0.000000
1.000000 0.334014 0.000000
1.000000 0.333343 0.000000
0.065634 0.391532 0.000000
0.100691 0.390546 0.000000
0.135748 0.389559 0.000000
0.170805 0.388573 0.000000
0.205862 0.387587 0.000000
0.240918 0.386601 0.000000
0.275975 0.385615 0.000000
0.311032 0.384628 0.000000
0.346089 0.383642 0.000000
0.381146 0.382656 0.000000
0.415326 0.381694 0.000000
0.448192 0.380770 0.000000
0.481058 0.379845 0.000000
0.513923 0.378921 0.000000
0.546789 0.377996 0.000000
0.579655 0.377071 0.000000
0.612521 0.376147 0.000000
0.645386 0.375222 0.000000
0.678252 0.374298 0.000000
0.711118 0.373373 0.000000
0.736753 0.372652 0.000000
0.760581 0.371982 0.000000
0.784409 0.371311 0.000000
0.808236 0.370641 0.000000
0.832064 0.369971 0.000000
0.855892 0.369300 0.000000
0.879719 0.368630 0.000000
0.903547 0.367960 0.000000
0.927375 0.367289 0.000000
0.951202 0.366619 0.000000
0.975030 0.365949 0.000000
0.998858 0.365278 0.000000
1.000000 0.364608 0.000000
0.060557 0.422796 0.000000
0.095614 0.421810 0.000000
0.130671 0.420824 0.000000
0.165728 0.419838 0.000000
0.200784 0.418852 0.000000
0.235841 0.417865 0.000000
0.270898 0.416879 0.000000
0.305955 0.415893 0.000000
0.341012 0.414907 0.000000
0.376069 0.413921 0.000000
0.410249 0.412959 0.000000
0.443115 0.412034 0.000000
0.475980 0.411110 0.000000
0.508846 0.410185 0.000000
0.541712 0.409261 0.000000
0.574578 0.408336 0.000000
0.607444 0.407411 0.000000
0.640309 0.406487 0.000000
0.673175 0.405562 0.000000
0.706041 0.404638 0.000000
0.731676 0.403917 0.000000
0.755504 0.403246 0.000000
0.779332 0.402576 0.000000
0.803159 0.401906 0.000000
0.826987 0.401235 0.000000
0.850815 0.400565 0.000000
0.874642 0.399895 0.000000
0.898470 0.399224 0.000000
0.922298 0.398554 0.000000
0.946125 0.397884 0.000000
0.969953 0.397213 0.000000
0.993781 0.396543 0.000000
1.000000 0.395873 0.000000
0.055480 0.454061 0.000000
0.090537 0.453075 0.000000
0.125594 0.452089 0.000000
0.160650 0.451102 0.000000
0.195707 0.450116 0.000000
0.230764 0.449130 0.000000
0.265821 0.448144 0.000000
0.300878 0.447158 0.000000
0.335935 0.446171 0.000000
0.370991 0.445185 0.000000
0.405172 0.444224 0.000000
0.438038 0.443299 0.000000
0.470903 0.442374 0.000000
0.503769 0.441450 0.000000
0.536635 0.440525 0.000000
0.569501 0.439601 0.000000
0.602366 0.438676 0.000000
0.635232 0.437752 0.000000
0.668098 0.436827 0.000000
0.700964 0.435902 0.000000
0.726599 0.435181 0.000000
0.750427 0.434511 0.000000
0.774254 0.433841 0.000000
0.798082 0.433170 0.000000
0.821910 0.432500 0.000000
0.845737 0.431830 0.000000
0.869565 0.431159 0.000000
0.893393 0.430489 0.000000
0.917272 0.429834 0.000000
0.941712 0.429353 0.000000
0.966152 0.428871 0.000000
0.990593 0.428389 0.000000
1.000000 0.427908 0.000000
0.050403 0.485326 0.000000
0.085460 0.484340 0.000000
0.120517 0.483353 0.000000
0.155573 0.482367 0.000000
0.190630 0.481381 0.000000
0.225687 0.480395 0.000000
0.260744 0.479408 0.000000
0.295801 0.478422 0.000000
0.330857 0.477436 0.000000
0.365914 0.476450 0.000000
0.400095 0.475488 0.000000
0.432960 0.474564 0.000000
0.465826 0.473639 0.000000
0.498692 0.472715 0.000000
0.531558 0.471790 0.000000
0.564423 0.470865 0.000000
0.597289 0.469941 0.000000
0.630155 0.469016 0.000000
0.663021 0.468092 0.000000
0.695887 0.467167 0.000000
0.721522 0.466446 0.000000
0.745350 0.465776 0.000000
0.769177 0.465105 0.000000
0.793005 0.464435 0.000000
0.817276 0.463901 0.000000
0.841716 0.463420 0.000000
0.866157 0.462938 0.000000
0.890597 0.462456 0.000000
0.915037 0.461974 0.000000
0.939477 0.461493 0.000000
0.963917 0.461011 0.000000
0.988358 0.460529 0.000000
1.000000 0.460048 0.000000
0.045326 0.516590 0.000000
0.080383 0.515604 0.000000
0.115439 0.514618 0.000000
0.150496 0.513632 0.000000
0.185553 0.512646 0.000000
0.220610 0.511659 0.000000
0.255667 0.510673 0.000000
0.290723 0.509687 0.000000
0.325780 0.508701 0.000000
0.360837 0.507714 0.000000
0.395017 0.506753 0.000000
0.427883 0.505828 0.000000
0.460749 0.504904 0.000000
0.493615 0.503979 0.000000
0.526481 0.503055 0.000000
0.559346 0.502130 0.000000
0.592212 0.501205 0.000000
0.625078 0.500281 0.000000
0.657944 0.499356 0.000000
0.690986 0.498486 0.000000
0.717280 0.497968 0.000000
0.741721 0.497486 0.000000
0.766161 0.497005 0.000000
0.790601 0.496523 0.000000
0.815041 0.496041 0.000000
0.839481 0.495560 0.000000
0.863922 0.495078 0.000000
0.888362 0.494596 0.000000
0.912802 0.494114 0.000000
0.937242 0.493633 0.000000
0.961682 0.493151 0.000000
0.986123 0.492669 0.000000
1.000000 0.492188 0.000000
0.040249 0.547855 0.000000
0.075305 0.546869 0.000000
0.110362 0.545883 0.000000
0.145419 0.544896 0.000000
0.180476 0.543910 0.000000
0.215533 0.542924 0.000000
0.250589 0.541938 0.000000
0.285646 0.540952 0.000000
0.320703 0.539965 0.000000
0.355760 0.538979 0.000000
0.389940 0.538018 0.000000
0.422806 0.537093 0.000000
0.455672 0.536168 0.000000
0.488538 0.535244 0.000000
0.521403 0.534319 0.000000
0.554269 0.533395 0.000000
0.587619 0.532619 0.000000
0.621330 0.531955 0.000000
0.655040 0.531290 0.000000
0.688751 0.530626 0.000000
0.715045 0.530108 0.000000
0.739486 0.529626 0.000000
0.763926 0.529145 0.000000
0.788366 0.528663 0.000000
0.812806 0.528181 0.000000
0.837246 0.527700 0.000000
0.861687 0.527218 0.000000
0.886127 0.526736 0.000000
0.910567 0.526254 0.000000
0.935007 0.525773 0.000000
0.959447 0.525291 0.000000
0.983888 0.524809 0.000000
1.000000 0.524328 0.000000
0.035171 0.579120 0.000000
0.070228 0.578134 0.000000
0.105285 0.577147 0.000000
0.140342 0.576161 0.000000
0.175399 0.575175 0.000000
0.210456 0.574189 0.000000
0.245512 0.573202 0.000000
0.280569 0.572216 0.000000
0.315626 0.571230 0.000000
0.350683 0.570244 0.000000
0.384863 0.569282 0.000000
0.417729 0.568358 0.000000
0.450595 0.567433 0.000000
0.484252 0.566752 0.000000
0.517963 0.566088 0.000000
0.551674 0.565424 0.000000
0.585384 0.564759 0.000000
0.619095 0.564095 0.000000
0.652805 0.563430 0.000000
0.686516 0.562766 0.000000
0.712810 0.562248 0.000000
0.737251 0.561766 0.000000
0.761691 0.561285 0.000000
0.786131 0.560803 0.000000
0.810571 0.560321 0.000000
0.835011 0.559840 0.000000
0.859452 0.559358 0.000000
0.883892 0.558876 0.000000
0.908332 0.558394 0.000000
0.932772 0.557913 0.000000
0.957212 0.557431 0.000000
0.981653 0.556949 0.000000
1.000000 0.556468 0.000000
0.030094 0.610384 0.000000
0.065151 0.609398 0.000000
0.100208 0.608412 0.000000
0.135265 0.607426 0.000000
0.170322 0.606440 0.000000
0.205378 0.605453 0.000000
0.240435 0.604467 0.000000
0.275492 0.603481 0.000000
0.310549 0.602495 0.000000
0.345826 0.601576 0.000000
0.380885 0.600885 0.000000
0.414596 0.600221 0.000000
0.448307 0.599557 0.000000
0.482017 0.598892 0.000000
0.515728 0.598228 0.000000
0.549439 0.597564 0.000000
0.583149 0.596899 0.000000
0.616860 0.596235 0.000000
0.650570 0.595570 0.000000
0.684281 0.594906 0.000000
0.710575 0.594388 0.000000
0.735016 0.593906 0.000000
0.759456 0.593425 0.000000
0.783896 0.592943 0.000000
0.808336 0.592461 0.000000
0.832776 0.591980 0.000000
0.857217 0.591498 0.000000
0.881657 0.591016 0.000000
0.906097 0.590534 0.000000
0.930537 0.590053 0.000000
0.954977 0.589571 0.000000
0.979418 0.589089 0.000000
1.000000 0.588608 0.000000
0.025017 0.641649 0.000000
0.060074 0.640663 0.000000
0.095131 0.639677 0.000000
0.130188 0.638690 0.000000
0.165244 0.637704 0.000000
0.200301 0.636718 0.000000
0.235717 0.635842 0.000000
0.271675 0.635134 0.000000
0.307633 0.634425 0.000000
0.343591 0.633716 0.000000
0.378650 0.633025 0.000000
0.412361 0.632361 0.000000
0.446072 0.631697 0.000000
0.479782 0.631032 0.000000
0.513493 0.630368 0.000000
0.547204 0.629704 0.000000
0.580914 0.629039 0.000000
0.614625 0.628375 0.000000
0.648335 0.627710 0.000000
0.682046 0.627046 0.000000
0.708340 0.626528 0.000000
0.732781 0.626046 0.000000
0.757221 0.625565 0.000000
0.781661 0.625083 0.000000
0.806101 0.624601 0.000000
0.830541 0.624120 0.000000
0.854982 0.623638 0.000000
0.879422 0.623156 0.000000
0.903862 0.622674 0.000000
0.928302 0.622193 0.000000
0.952742 0.621711 0.000000
0.977183 0.621229 0.000000
1.000000 0.620748 0.000000
0.020854 0.667286 0.000000
0.055911 0.666300 0.000000
0.090967 0.665314 0.000000
0.126024 0.664327 0.000000
0.161969 0.663615 0.000000
0.197927 0.662906 0.000000
0.233885 0.662197 0.000000
0.269843 0.661489 0.000000
0.305801 0.660780 0.000000
0.341759 0.660071 0.000000
0.376818 0.659380 0.000000
0.410528 0.658716 0.000000
0.444239 0.658052 0.000000
0.477950 0.657387 0.000000
0.511660 0.656723 0.000000
0.545371 0.656058 0.000000
0.579082 0.655394 0.000000
0.612792 0.654730 0.000000
0.646503 0.654065 0.000000
0.680213 0.653401 0.000000
0.706508 0.652883 0.000000
0.730948 0.652401 0.000000
0.755388 0.651919 0.000000
0.779828 0.651438 0.000000
0.804268 0.650956 0.000000
0.828709 0.650474 0.000000
0.853149 0.649993 0.000000
0.877589 0.649511 0.000000
0.902029 0.649029 0.000000
0.926469 0.648548 0.000000
0.950910 0.648066 0.000000
0.975350 0.647584 0.000000
0.999790 0.647103 0.000000
0.016919 0.691516 0.000000
0.052363 0.690649 0.000000
0.088321 0.689940 0.000000
0.124279 0.689232 0.000000
0.160237 0.688523 0.000000
0.196195 0.687814 0.000000
0.232153 0.687106 0.000000
0.268111 0.686397 0.000000
0.304069 0.685688 0.000000
0.340027 0.684980 0.000000
0.375086 0.684289 0.000000
0.408796 0.683624 0.000000
0.442507 0.682960 0.000000
0.476218 0.682296 0.000000
0.509928 0.681631 0.000000
0.543639 0.680967 0.000000
0.577349 0.680303 0.000000
0.611060 0.679638 0.000000
0.644771 0.678974 0.000000
0.678481 0.678309 0.000000
0.704776 0.677791 0.000000
0.729216 0.677309 0.000000
0.753656 0.676828 0.000000
0.778096 0.676346 0.000000
0.802536 0.675864 0.000000
0.826977 0.675383 0.000000
0.851417 0.674901 0.000000
0.875857 0.674419 0.000000
0.900297 0.673938 0.000000
0.924737 0.673456 0.000000
0.949178 0.672974 0.000000
0.973618 0.672493 0.000000
0.998058 0.672011 0.000000
0.014672 0.716266 0.000000
0.050630 0.715558 0.000000
0.086588 0.714849 0.000000
0.122546 0.714140 0.000000
0.158504 0.713432 0.000000
0.194462 0.712723 0.000000
0.230420 0.712014 0.000000
0.266378 0.711306 0.000000
0.302336 0.710597 0.000000
0.338294 0.709888 0.000000
0.373354 0.709197 0.000000
0.407064 0.708533 0.000000
0.440775 0.707869 0.000000
0.474485 0.707204 0.000000
0.508196 0.706540 0.000000
0.541907 0.705875 0.000000
0.575617 0.705211 0.000000
0.609328 0.704547 0.000000
0.643039 0.703882 0.000000
0.676749 0.703218 0.000000
0.703043 0.702700 0.000000
0.727484 0.702218 0.000000
0.751924 0.701736 0.000000
0.776364 0.701255 0.000000
0.800804 0.700773 0.000000
0.825244 0.700291 0.000000
0.849685 0.699810 0.000000
0.874125 0.699328 0.000000
0.898565 0.698846 0.000000
0.923005 0.698365 0.000000
0.947445 0.697883 0.000000
0.971886 0.697401 0.000000
0.996326 0.696920 0.000000
0.012940 0.741175 0.000000
0.048898 0.740466 0.000000
0.084856 0.739757 0.000000
0.120814 0.739049 0.000000
0.156772 0.738340 0.000000
0.192730 0.737631 0.000000
0.228688 0.736923 0.000000
0.264646 0.736214 0.000000
0.300604 0.735505 0.000000
0.336562 0.734797 0.000000
0.371621 0.734106 0.000000
0.405332 0.733441 0.000000
0.439043 0.732777 0.000000
0.472753 0.732113 0.000000
0.506464 0.731448 0.000000
0.540175 0.730784 0.000000
0.573885 0.730120 0.000000
0.607596 0.729455 0.000000
0.641306 0.728791 0.000000
0.675017 0.728126 0.000000
0.701311 0.727608 0.000000
0.725751 0.727126 0.000000
0.750192 0.726645 0.000000
0.774632 0.726163 0.000000
0.799072 0.725681 0.000000
0.823512 0.725200 0.000000
0.847953 0.724718 0.000000
0.872393 0.724236 0.000000
0.896833 0.723755 0.000000
0.921273 0.723273 0.000000
0.945713 0.722791 0.000000
0.970154 0.722310 0.000000
0.994594 0.721828 0.000000
0.011208 0.766083 0.000000
0.047166 0.765375 0.000000
0.083124 0.764666 0.000000
0.119082 0.763957 0.000000
0.155040 0.763249 0.000000
0.190998 0.762540 0.000000
0.226956 0.761831 0.000000
0.262914 0.761123 0.000000
0.298872 0.760414 0.000000
0.334830 0.759705 0.000000
0.369889 0.759014 0.000000
0.403600 0.758350 0.000000
0.437311 0.757686 0.000000
0.471021 0.757021 0.000000
0.504732 0.756357 0.000000
0.538442 0.755692 0.000000
0.572153 0.755028 0.000000
0.605864 0.754364 0.000000
0.639574 0.753699 0.000000
0.673285 0.753035 0.000000
0.699579 0.752517 0.000000
0.724019 0.752035 0.000000
0.748460 0.751553 0.000000
0.772900 0.751072 0.000000
0.797340 0.750590 0.000000
0.821780 0.750108 0.000000
0.846220 0.749627 0.000000
0.870661 0.749145 0.000000
0.895101 0.748663 0.000000
0.919541 0.748182 0.000000
0.943981 0.747700 0.000000
0.968421 0.747218 0.000000
0.992862 0.746737 0.000000
0.009476 0.790992 0.000000
0.045434 0.790283 0.000000
0.081392 0.789574 0.000000
0.117350 0.788866 0.000000
0.153308 0.788157 0.000000
0.189266 0.787448 0.000000
0.225224 0.786740 0.000000
0.261182 0.786031 0.000000
0.297140 0.785322 0.000000
0.333098 0.784614 0.000000
0.368157 0.783923 0.000000
0.401868 0.783258 0.000000
0.435578 0.782594 0.000000
0.469289 0.781930 0.000000
0.503000 0.781265 0.000000
0.536710 0.780601 0.000000
0.570421 0.779937 0.000000
0.604132 0.779272 0.000000
0.637842 0.778608 0.000000
0.671553 0.777943 0.000000
0.697847 0.777425 0.000000
0.722287 0.776943 0.000000
0.746727 0.776462 0.000000
0.771168 0.775980 0.000000
0.795608 0.775498 0.000000
0.820048 0.775017 0.000000
0.844488 0.774535 0.000000
0.868928 0.774053 0.000000
0.893369 0.773572 0.000000
0.917809 0.773090 0.000000
0.942249 0.772608 0.000000
0.966689 0.772127 0.000000
0.991129 0.771645 0.000000
0.007744 0.815900 0.000000
0.043702 0.815192 0.000000
0.079660 0.814483 0.000000
0.115618 0.813774 0.000000
0.151576 0.813066 0.000000
0.187534 0.812357 0.000000
0.223492 0.811648 0.000000
0.259450 0.810940 0.000000
0.295408 0.810231 0.000000
0.331366 0.809522 0.000000
0.366425 0.808831 0.000000
0.400136 0.808167 0.000000
0.433846 0.807503 0.000000
0.467557 0.806838 0.000000
0.501268 0.806174 0.000000
0.534978 0.805509 0.000000
0.568689 0.804845 0.000000
0.602399 0.804181 0.000000
0.636110 0.803516 0.000000
0.669821 0.802852 0.000000
0.696115 0.802334 0.000000
0.720555 0.801852 0.000000
0.744995 0.801370 0.000000
0.769436 0.800889 0.000000
0.793876 0.800407 0.000000
0.818316 0.799925 0.000000
0.842756 0.799444 0.000000
0.867196 0.798962 0.000000
0.891637 0.798480 0.000000
