luts/warm_gold_200.cube
TITLE "Kodak Gold 200"
LUT_3D_SIZE 9
0.121359 0.047497 0.000000
0.261603 0.043568 0.000000
0.401846 0.039640 0.000000
0.536831 0.035859 0.000000
0.668309 0.032176 0.000000
0.792557 0.028695 0.000000
0.887878 0.026025 0.000000
0.983200 0.023355 0.000000
1.000000 0.020738 0.000000
0.101102 0.172607 0.000000
0.241346 0.168679 0.000000
0.381590 0.164750 0.000000
0.516574 0.160969 0.000000
0.648052 0.157286 0.000000
0.772293 0.153799 0.000000
0.867604 0.151118 0.000000
0.962915 0.148437 0.000000
1.000000 0.145755 0.000000
0.080845 0.297717 0.000000
0.221089 0.293789 0.000000
0.361320 0.289848 0.000000
0.496289 0.286051 0.000000
0.627752 0.282353 0.000000
0.751985 0.278858 0.000000
0.847295 0.276177 0.000000
0.942606 0.273495 0.000000
1.000000 0.270814 0.000000
0.060557 0.422796 0.000000
0.200784 0.418852 0.000000
0.341012 0.414907 0.000000
0.475980 0.411110 0.000000
0.607444 0.407411 0.000000
0.731676 0.403917 0.000000
0.826987 0.401235 0.000000
0.922298 0.398554 0.000000
1.000000 0.395873 0.000000
0.040249 0.547855 0.000000
0.180476 0.543910 0.000000
0.320703 0.539965 0.000000
0.455672 0.536168 0.000000
0.587619 0.532619 0.000000
0.715045 0.530108 0.000000
0.812806 0.528181 0.000000
0.910567 0.526254 0.000000
1.000000 0.524328 0.000000
0.020854 0.667286 0.000000
0.161969 0.663615 0.000000
0.305801 0.660780 0.000000
0.444239 0.658052 0.000000
0.579082 0.655394 0.000000
0.706508 0.652883 0.000000
0.804268 0.650956 0.000000
0.902029 0.649029 0.000000
0.999790 0.647103 0.000000
0.011208 0.766083 0.000000
0.155040 0.763249 0.000000
0.298872 0.760414 0.000000
0.437311 0.757686 0.000000
0.572153 0.755028 0.000000
0.699579 0.752517 0.000000
0.797340 0.750590 0.000000
0.895101 0.748663 0.000000
0.992862 0.746737 0.000000
0.004280 0.865717 0.000000
0.148112 0.862883 0.000000
0.291944 0.860048 0.000000
0.430382 0.857319 0.000000
0.565225 0.854662 0.000000
0.692651 0.852151 0.000000
0.790411 0.850224 0.000000
0.888172 0.848297 0.000000
0.985933 0.846371 0.000000
0.000000 0.965351 0.000000
0.141183 0.962517 0.000000
0.285015 0.959682 0.000000
0.423453 0.956954 0.000000
0.558296 0.954296 0.000000
0.685722 0.951785 0.000000
0.783483 0.949858 0.000000
0.881244 0.947931 0.000000
0.979005 0.946005 0.000000
0.119775 0.046574 0.089857
0.260002 0.042629 0.089654
0.400229 0.038684 0.089451
0.535198 0.034887 0.089255
0.666661 0.031189 0.089065
0.790894 0.027694 0.088885
0.886204 0.025013 0.088747
0.981515 0.022332 0.088609
1.000000 0.019684 0.088505
0.099466 0.171633 0.089216
0.239693 0.167688 0.089013
0.379920 0.163743 0.088810
0.514889 0.159946 0.088614
0.646352 0.156248 0.088424
0.770585 0.152753 0.088244
0.865896 0.150071 0.088106
0.961206 0.147390 0.087968
1.000000 0.144709 0.087830
0.079157 0.296691 0.088576
0.219385 0.292746 0.088372
0.359612 0.288801 0.088169
0.494581 0.285005 0.087974
0.626044 0.281306 0.087783
0.750276 0.277811 0.087603
0.845587 0.275130 0.087465
0.940898 0.272449 0.087327
1.000000 0.269767 0.087189
0.058849 0.421750 0.087935
0.199076 0.417805 0.087732
0.339303 0.413860 0.087529
0.474272 0.410063 0.087333
0.605735 0.406365 0.087143
0.729968 0.402870 0.086963
0.825278 0.400189 0.086825
0.920589 0.397507 0.086687
1.000000 0.395016 0.086099
0.038540 0.546808 0.087294
0.178767 0.542864 0.087091
0.318995 0.538919 0.086888
0.453963 0.535122 0.086693
0.586867 0.531867 0.085450
0.714293 0.529356 0.082939
0.812054 0.527429 0.081012
0.909815 0.525502 0.079086
1.000000 0.523576 0.077159
0.019145 0.666239 0.086683
0.161217 0.662862 0.085133
0.305049 0.660028 0.082299
0.443487 0.657299 0.079570
0.578329 0.654642 0.076913
0.705756 0.652131 0.074401
0.803516 0.650204 0.072475
0.901277 0.648277 0.070548
0.999038 0.646351 0.068621
0.010456 0.765331 0.081039
0.154288 0.762496 0.078205
0.298120 0.759662 0.075370
0.436558 0.756933 0.072642
0.571401 0.754276 0.069984
0.698827 0.751765 0.067473
0.796588 0.749838 0.065546
0.894349 0.747911 0.063620
0.992110 0.745985 0.061693
0.003528 0.864965 0.074111
0.147360 0.862130 0.071276
0.291192 0.859296 0.068442
0.429630 0.856567 0.065713
0.564472 0.853910 0.063056
0.691899 0.851399 0.060544
0.789659 0.849472 0.058618
0.887420 0.847545 0.056691
0.985181 0.845619 0.054764
0.000000 0.964599 0.067182
0.140431 0.961764 0.064348
0.284263 0.958930 0.061513
0.422701 0.956201 0.058785
0.557544 0.953544 0.056127
0.684970 0.951033 0.053616
0.782731 0.949106 0.051689
0.880492 0.947179 0.049763
0.978253 0.945253 0.047836
0.118066 0.045527 0.204386
0.258293 0.041583 0.204183
0.398521 0.037638 0.203980
0.533489 0.033841 0.203784
0.664952 0.030142 0.203594
0.789185 0.026647 0.203414
0.884496 0.023966 0.203276
0.979806 0.021285 0.203138
1.000000 0.018619 0.203015
0.097757 0.170586 0.203746
0.237985 0.166641 0.203542
0.378212 0.162696 0.203339
0.513181 0.158899 0.203144
0.644644 0.155201 0.202953
0.768876 0.151706 0.202773
0.864187 0.149025 0.202635
0.959498 0.146343 0.202497
1.000000 0.143662 0.202359
0.077449 0.295645 0.203105
0.217676 0.291700 0.202902
0.357903 0.287755 0.202699
0.492872 0.283958 0.202503
0.624335 0.280260 0.202313
0.748568 0.276765 0.202133
0.843879 0.274083 0.201995
0.939189 0.271402 0.201857
1.000000 0.268721 0.201719
0.057140 0.420703 0.202464
0.197367 0.416758 0.202261
0.337595 0.412813 0.202058
0.472564 0.409017 0.201863
0.604027 0.405318 0.201672
0.728259 0.401823 0.201492
0.823570 0.399142 0.201354
0.918881 0.396461 0.201216
1.000000 0.394264 0.199930
0.036832 0.545762 0.201824
0.177059 0.541817 0.201621
0.317286 0.537872 0.201418
0.452255 0.534075 0.201222
0.586115 0.531115 0.199282
0.713541 0.528604 0.196770
0.811302 0.526677 0.194844
0.909063 0.524750 0.192917
1.000000 0.522824 0.190990
0.017437 0.665193 0.201212
0.160465 0.662110 0.198965
0.304297 0.659276 0.196130
0.442735 0.656547 0.193401
0.577577 0.653890 0.190744
0.705003 0.651378 0.188233
0.802764 0.649452 0.186306
0.900525 0.647525 0.184379
0.998286 0.645598 0.182453
0.009704 0.764579 0.194871
0.153536 0.761744 0.192036
0.297368 0.758910 0.189201
0.435806 0.756181 0.186473
0.570649 0.753524 0.183815
0.698075 0.751012 0.181304
0.795836 0.749086 0.179377
0.893597 0.747159 0.177451
0.991357 0.745232 0.175524
0.002776 0.864213 0.187942
0.146608 0.861378 0.185108
0.290440 0.858544 0.182273
0.428878 0.855815 0.179544
0.563720 0.853158 0.176887
0.691146 0.850646 0.174376
0.788907 0.848720 0.172449
0.886668 0.846793 0.170522
0.984429 0.844866 0.168596
0.000000 0.963847 0.181014
0.139679 0.961012 0.178179
0.283511 0.958178 0.175344
0.421949 0.955449 0.172616
0.556792 0.952792 0.169959
0.684218 0.950280 0.167447
0.781979 0.948354 0.165520
0.879740 0.946427 0.163594
0.977500 0.944500 0.161667
0.116317 0.044456 0.321664
0.256544 0.040511 0.321461
0.396771 0.036566 0.321258
0.531740 0.032769 0.321063
0.663203 0.029071 0.320872
0.787436 0.025576 0.320692
0.882746 0.022894 0.320554
0.978057 0.020213 0.320416
1.000000 0.017532 0.320278
0.096008 0.169514 0.321024
0.236235 0.165569 0.320821
0.376463 0.161625 0.320617
0.511431 0.157828 0.320422
0.642894 0.154129 0.320232
0.767127 0.150634 0.320052
0.862438 0.147953 0.319914
0.957748 0.145272 0.319775
1.000000 0.142590 0.319637
0.075699 0.294573 0.320383
0.215927 0.290628 0.320180
0.356154 0.286683 0.319977
0.491123 0.282886 0.319781
0.622586 0.279188 0.319591
0.746818 0.275693 0.319411
0.842129 0.273012 0.319273
0.937440 0.270330 0.319135
1.000000 0.267649 0.318997
0.055391 0.419631 0.319743
0.195618 0.415687 0.319539
0.335845 0.411742 0.319336
0.470814 0.407945 0.319141
0.602277 0.404246 0.318950
0.726510 0.400752 0.318770
0.821820 0.398070 0.318632
0.917233 0.395420 0.318420
1.000000 0.393494 0.316493
0.035082 0.544690 0.319102
0.175309 0.540745 0.318899
0.315537 0.536800 0.318696
0.450505 0.533003 0.318500
0.585345 0.530345 0.315845
0.712771 0.527834 0.313334
0.810532 0.525907 0.311407
0.908293 0.523980 0.309480
1.000000 0.522054 0.307553
0.015862 0.664175 0.318362
0.159694 0.661340 0.315528
0.303526 0.658506 0.312693
0.441965 0.655777 0.309965
0.576807 0.653120 0.307307
0.704233 0.650608 0.304796
0.801994 0.648682 0.302869
0.899755 0.646755 0.300942
0.997516 0.644828 0.299016
0.008934 0.763809 0.311434
0.152766 0.760974 0.308599
0.296598 0.758140 0.305765
0.435036 0.755411 0.303036
0.569879 0.752754 0.300379
0.697305 0.750242 0.297867
0.795066 0.748316 0.295941
0.892826 0.746389 0.294014
0.990587 0.744462 0.292087
0.002005 0.863443 0.304505
0.145837 0.860608 0.301671
0.289669 0.857774 0.298836
0.428108 0.855045 0.296108
0.562950 0.852388 0.293450
0.690376 0.849876 0.290939
0.788137 0.847950 0.289012
0.885898 0.846023 0.287085
0.983659 0.844096 0.285159
0.000000 0.963077 0.297577
0.138909 0.960242 0.294742
0.282741 0.957408 0.291908
0.421179 0.954679 0.289179
0.556022 0.952022 0.286522
0.683448 0.949510 0.284010
0.781209 0.947584 0.282084
0.878969 0.945657 0.280157
0.976730 0.943730 0.278230
0.114540 0.043367 0.440775
0.254767 0.039422 0.440572
0.394994 0.035477 0.440369
0.529963 0.031680 0.440173
0.661426 0.027982 0.439983
0.785659 0.024487 0.439803
0.880969 0.021806 0.439665
0.976280 0.019125 0.439527
1.000000 0.016443 0.439389
0.094231 0.168426 0.440134
0.234458 0.164481 0.439931
0.374686 0.160536 0.439728
0.509654 0.156739 0.439533
0.641118 0.153041 0.439342
0.765350 0.149546 0.439162
0.860661 0.146865 0.439024
0.955972 0.144183 0.438886
1.000000 0.141502 0.438748
0.073923 0.293484 0.439494
0.214150 0.289539 0.439291
0.354377 0.285595 0.439088
0.489346 0.281798 0.438892
0.620809 0.278099 0.438702
0.745042 0.274604 0.438522
0.840352 0.271923 0.438384
0.935663 0.269242 0.438246
1.000000 0.266561 0.438107
0.053614 0.418543 0.438853
0.193841 0.414598 0.438650
0.334068 0.410653 0.438447
0.469037 0.406856 0.438251
0.600500 0.403158 0.438061
0.724733 0.399663 0.437881
0.820044 0.396982 0.437743
0.916451 0.394638 0.436805
1.000000 0.392711 0.434878
0.033305 0.543602 0.438213
0.173533 0.539657 0.438009
0.313760 0.535712 0.437806
0.449720 0.532220 0.436887
0.584563 0.529563 0.434229
0.711989 0.527051 0.431718
0.809750 0.525125 0.429791
0.907511 0.523198 0.427865
1.000000 0.521271 0.425938
0.015080 0.663393 0.436747
0.158912 0.660558 0.433912
0.302744 0.657723 0.431078
0.441183 0.654995 0.428349
0.576025 0.652338 0.425692
0.703451 0.649826 0.423180
0.801212 0.647900 0.421254
0.898973 0.645973 0.419327
0.996734 0.644046 0.417400
0.008152 0.763027 0.429818
0.151984 0.760192 0.426984
0.295816 0.757357 0.424149
0.434254 0.754629 0.421421
0.569097 0.751972 0.418763
0.696523 0.749460 0.416252
0.794284 0.747534 0.414325
0.892044 0.745607 0.412398
0.989805 0.743680 0.410472
0.001223 0.862661 0.422890
0.145055 0.859826 0.420055
0.288887 0.856991 0.417221
0.427326 0.854263 0.414492
0.562168 0.851606 0.411835
0.689594 0.849094 0.409323
0.787355 0.847168 0.407397
0.885116 0.845241 0.405470
0.982877 0.843314 0.403543
0.000000 0.962295 0.415961
0.138127 0.959460 0.413127
0.281959 0.956625 0.410292
0.420397 0.953897 0.407564
0.555240 0.951240 0.404906
0.682666 0.948728 0.402395
0.780427 0.946802 0.400468
0.878187 0.944875 0.398541
0.975948 0.942948 0.396615
0.112770 0.042283 0.559427
0.252997 0.038338 0.559224
0.393224 0.034393 0.559021
0.528193 0.030596 0.558826
0.659656 0.026898 0.558635
0.783889 0.023403 0.558455
0.879199 0.020722 0.558317
0.974510 0.018040 0.558179
1.000000 0.015359 0.558041
0.092461 0.167341 0.558787
0.232688 0.163397 0.558584
0.372916 0.159452 0.558381
0.507884 0.155655 0.558185
0.639348 0.151956 0.557995
0.763580 0.148461 0.557815
0.858891 0.145780 0.557677
0.954202 0.143099 0.557539
1.000000 0.140418 0.557401
0.072153 0.292400 0.558146
0.212380 0.288455 0.557943
0.352607 0.284510 0.557740
0.487576 0.280713 0.557545
0.619039 0.277015 0.557354
0.743272 0.273520 0.557174
0.838582 0.270839 0.557036
0.933893 0.268158 0.556898
1.000000 0.265476 0.556760
0.051844 0.417459 0.557506
0.192071 0.413514 0.557303
0.332299 0.409569 0.557099
0.467267 0.405772 0.556904
0.598730 0.402074 0.556713
0.722963 0.398579 0.556534
0.818274 0.395897 0.556395
0.915671 0.393859 0.554734
1.000000 0.391932 0.552807
0.031535 0.542517 0.556865
0.171763 0.538572 0.556662
0.311990 0.534627 0.556459
0.448941 0.531441 0.554816
0.583784 0.528784 0.552159
0.711210 0.526272 0.549647
0.808971 0.524346 0.547721
0.906731 0.522419 0.545794
1.000000 0.520492 0.543867
0.014301 0.662614 0.554676
0.158133 0.659779 0.551841
0.301965 0.656944 0.549007
0.440403 0.654216 0.546278
0.575246 0.651558 0.543621
0.702672 0.649047 0.541110
0.800433 0.647120 0.539183
0.898194 0.645194 0.537256
0.995954 0.643267 0.535329
0.007373 0.762248 0.547748
0.151205 0.759413 0.544913
0.295037 0.756578 0.542078
0.433475 0.753850 0.539350
0.568317 0.751192 0.536692
0.695744 0.748681 0.534181
0.793504 0.746754 0.532254
0.891265 0.744828 0.530328
0.989026 0.742901 0.528401
0.000444 0.861882 0.540819
0.144276 0.859047 0.537984
0.288108 0.856212 0.535150
0.426546 0.853484 0.532421
0.561389 0.850826 0.529764
0.688815 0.848315 0.527253
0.786576 0.846388 0.525326
0.884337 0.844462 0.523399
0.982097 0.842535 0.521472
0.000000 0.961516 0.533891
0.137348 0.958681 0.531056
0.281180 0.955846 0.528221
0.419618 0.953118 0.525493
0.554460 0.950460 0.522835
0.681887 0.947949 0.520324
0.779647 0.946022 0.518397
0.877408 0.944096 0.516471
0.975169 0.942169 0.514544
0.111027 0.041215 0.676247
0.251254 0.037270 0.676044
0.391482 0.033326 0.675841
0.526450 0.029529 0.675646
0.657914 0.025830 0.675455
0.782146 0.022335 0.675275
0.877457 0.019654 0.675137
0.972768 0.016973 0.674999
1.000000 0.014291 0.674861
0.090719 0.166274 0.675607
0.230946 0.162329 0.675404
0.371173 0.158384 0.675201
0.506142 0.154587 0.675005
0.637605 0.150889 0.674815
0.761838 0.147394 0.674635
0.857148 0.144713 0.674497
0.952459 0.142031 0.674359
1.000000 0.139350 0.674221
0.070410 0.291332 0.674966
0.210637 0.287388 0.674763
0.350864 0.283443 0.674560
0.485833 0.279646 0.674365
0.617296 0.275947 0.674174
0.741529 0.272453 0.673994
0.836840 0.269771 0.673856
0.932150 0.267090 0.673718
1.000000 0.264409 0.673580
0.050101 0.416391 0.674326
0.190329 0.412446 0.674123
0.330556 0.408501 0.673919
0.465525 0.404704 0.673724
0.596988 0.401006 0.673534
0.721220 0.397511 0.673354
0.817143 0.395018 0.672768
0.914904 0.393092 0.670842
1.000000 0.391165 0.668915
0.029793 0.541450 0.673685
0.170020 0.537505 0.673482
0.310247 0.533560 0.673279
0.448174 0.530674 0.670924
0.583016 0.528016 0.668266
0.710443 0.525505 0.665755
0.808203 0.523578 0.663828
0.905964 0.521652 0.661902
1.000000 0.519725 0.659975
0.013534 0.661846 0.670784
0.157366 0.659012 0.667949
0.301198 0.656177 0.665115
0.439636 0.653449 0.662386
0.574479 0.650791 0.659729
0.701905 0.648280 0.657217
0.799666 0.646353 0.655291
0.897427 0.644427 0.653364
0.995187 0.642500 0.651437
0.006605 0.761480 0.663855
0.150437 0.758646 0.661021
0.294269 0.755811 0.658186
0.432708 0.753083 0.655458
0.567550 0.750425 0.652800
0.694976 0.747914 0.650289
0.792737 0.745987 0.648362
0.890498 0.744061 0.646436
0.988259 0.742134 0.644509
0.000000 0.861114 0.656927
0.143509 0.858280 0.654092
0.287341 0.855445 0.651258
0.425779 0.852717 0.648529
0.560622 0.850059 0.645872
0.688048 0.847548 0.643360
0.785809 0.845621 0.641434
0.883570 0.843695 0.639507
0.981330 0.841768 0.637580
0.000000 0.960748 0.649998
0.136580 0.957914 0.647164
0.280412 0.955079 0.644329
0.418851 0.952351 0.641601
0.553693 0.949693 0.638943
0.681119 0.947182 0.636432
0.778880 0.945255 0.634505
0.876641 0.943329 0.632579
0.974402 0.941402 0.630652
0.109284 0.040148 0.793068
0.249512 0.036203 0.792864
0.389739 0.032258 0.792661
0.524708 0.028461 0.792466
0.656171 0.024763 0.792275
0.780403 0.021268 0.792095
0.875714 0.018586 0.791957
0.971025 0.015905 0.791819
1.000000 0.013224 0.791681
0.088976 0.165206 0.792427
0.229203 0.161261 0.792224
0.369430 0.157317 0.792021
0.504399 0.153520 0.791825
0.635862 0.149821 0.791635
0.760095 0.146326 0.791455
0.855406 0.143645 0.791317
0.950716 0.140964 0.791179
1.000000 0.138282 0.791041
0.068667 0.290265 0.791786
0.208895 0.286320 0.791583
0.349122 0.282375 0.791380
0.484091 0.278578 0.791185
0.615554 0.274880 0.790994
0.739786 0.271385 0.790814
0.835097 0.268704 0.790676
0.930408 0.266022 0.790538
1.000000 0.263341 0.790400
0.048359 0.415323 0.791146
0.188586 0.411379 0.790943
0.328813 0.407434 0.790739
0.463782 0.403637 0.790544
0.595245 0.399938 0.790354
0.719478 0.396444 0.790174
0.816376 0.394251 0.788876
0.914137 0.392325 0.786950
1.000000 0.390398 0.785023
0.028050 0.540382 0.790505
0.168277 0.536437 0.790302
0.308969 0.532635 0.789760
0.447407 0.529907 0.787032
0.582249 0.527249 0.784374
0.709675 0.524738 0.781863
0.807436 0.522811 0.779936
0.905197 0.520885 0.778010
1.000000 0.518958 0.776083
0.012767 0.661079 0.786892
0.156599 0.658245 0.784057
0.300431 0.655410 0.781222
0.438869 0.652682 0.778494
0.573712 0.650024 0.775837
0.701138 0.647513 0.773325
0.798899 0.645586 0.771399
0.896659 0.643659 0.769472
0.994420 0.641733 0.767545
0.005838 0.760713 0.779963
0.149670 0.757879 0.777129
0.293502 0.755044 0.774294
0.431941 0.752316 0.771566
0.566783 0.749658 0.768908
0.694209 0.747147 0.766397
0.791970 0.745220 0.764470
0.889731 0.743293 0.762543
0.987492 0.741367 0.760617
0.000000 0.860347 0.773035
0.142742 0.857513 0.770200
0.286574 0.854678 0.767365
0.425012 0.851950 0.764637
0.559855 0.849292 0.761980
0.687281 0.846781 0.759468
0.785042 0.844854 0.757542
0.882802 0.842927 0.755615
0.980563 0.841001 0.753688
0.000000 0.959981 0.766106
0.135813 0.957147 0.763272
0.279645 0.954312 0.760437
0.418084 0.951584 0.757709
0.552926 0.948926 0.755051
0.680352 0.946415 0.752540
0.778113 0.944488 0.750613
0.875874 0.942561 0.748686
0.973635 0.940635 0.746760
0.107542 0.039080 0.909888
0.247769 0.035135 0.909684
0.387996 0.031190 0.909481
0.522965 0.027393 0.909286
0.654428 0.023695 0.909095
0.778661 0.020200 0.908915
0.873972 0.017519 0.908777
0.969282 0.014838 0.908639
1.000000 0.012156 0.908501
0.087233 0.164139 0.909247
0.227461 0.160194 0.909044
0.367688 0.156249 0.908841
0.502657 0.152452 0.908645
0.634120 0.148754 0.908455
0.758352 0.145259 0.908275
0.853663 0.142577 0.908137
0.948974 0.139896 0.907999
1.000000 0.137215 0.907861
0.066925 0.289197 0.908606
0.207152 0.285252 0.908403
0.347379 0.281308 0.908200
0.482348 0.277511 0.908005
0.613811 0.273812 0.907814
0.738044 0.270317 0.907634
0.833354 0.267636 0.907496
0.928665 0.264955 0.907358
1.000000 0.262273 0.907220
0.046616 0.414256 0.907966
0.186843 0.410311 0.907763
0.327071 0.406366 0.907559
0.462039 0.402569 0.907364
0.593502 0.398871 0.907174
0.717848 0.395411 0.906911
0.815609 0.393484 0.904984
0.913370 0.391557 0.903057
1.000000 0.389631 0.901131
0.026307 0.539314 0.907325
0.166535 0.535370 0.907122
0.308201 0.531868 0.905868
0.446640 0.529140 0.903140
0.581482 0.526482 0.900482
0.708908 0.523971 0.897971
0.806669 0.522044 0.896044
0.904430 0.520117 0.894117
1.000000 0.518191 0.892191
0.012000 0.660312 0.903000
0.155832 0.657478 0.900165
0.299664 0.654643 0.897330
0.438102 0.651915 0.894602
0.572945 0.649257 0.891945
0.700371 0.646746 0.889433
0.798131 0.644819 0.887506
0.895892 0.642892 0.885580
0.993653 0.640966 0.883653
0.005071 0.759946 0.896071
0.148903 0.757112 0.893237
0.292735 0.754277 0.890402
0.431173 0.751548 0.887674
0.566016 0.748891 0.885016
0.693442 0.746380 0.882505
0.791203 0.744453 0.880578
0.888964 0.742526 0.878651
0.986725 0.740600 0.876725
0.000000 0.859580 0.889143
0.141975 0.856746 0.886308
0.285807 0.853911 0.883473
0.424245 0.851182 0.880745
0.559088 0.848525 0.878088
0.686514 0.846014 0.875576
0.784274 0.844087 0.873649
0.882035 0.842160 0.871723
0.979796 0.840234 0.869796
0.000000 0.959214 0.882214
0.135046 0.956380 0.879380
0.278878 0.953545 0.876545
0.417316 0.950816 0.873816
0.552159 0.948159 0.871159
0.679585 0.945648 0.868648
0.777346 0.943721 0.866721
0.875107 0.941794 0.864794
0.972868 0.939868 0.862868
